%
(Header)
(Generated by gcodetools from Inkscape.)
(Using default header. To add your own header create file "header" in the output dir.)
M3
(Header end.)
G21 (All units in mm)

(Start cutting path id: path2998)
(Change tool to Default tool)

G00 Z5.000000
G00 X9.791242 Y40.426711

G01 Z-0.125000 F100.0(Penetrate)
G03 X8.416062 Y40.605716 Z-0.125000 I-2.178915 J-11.367366 F400.000000
G03 X4.838260 Y40.771502 Z-0.125000 I-5.362301 J-77.034256
G01 X1.251619 Y40.854362 Z-0.125000
G01 X1.251619 Y41.167883 Z-0.125000
G02 X1.375206 Y41.372259 Z-0.125000 I0.230782 J0.000000
G02 X2.036287 Y41.579419 Z-0.125000 I0.901776 J-1.719322
G02 X5.076848 Y41.700784 Z-0.125000 I2.237634 J-17.911198
G02 X9.654608 Y41.240132 Z-0.125000 I-1.835015 J-41.211765
G02 X12.573881 Y40.677203 Z-0.125000 I-6.715616 J-42.677241
G02 X13.832753 Y40.284245 Z-0.125000 I-1.895535 J-8.285423
G02 X13.768215 Y39.978105 Z-0.125000 I-0.058942 J-0.147447
G02 X9.791242 Y40.426711 Z-0.125000 I0.916020 J25.973298
G01 X9.791242 Y40.426711 Z-0.125000
G00 Z5.000000

(End cutting path id: path2998)


(Start cutting path id: path2998)
(Change tool to Default tool)

G00 Z5.000000
G00 X14.983334 Y40.687569

G01 Z-0.125000 F100.0(Penetrate)
G03 X10.247202 Y41.855726 Z-0.125000 I-8.465984 J-24.139093 F400.000000
G03 X3.901387 Y42.320845 Z-0.125000 I-6.345814 J-43.056710
G01 X1.251619 Y42.320845 Z-0.125000
G01 X1.251619 Y42.662419 Z-0.125000
G02 X1.348198 Y42.907447 Z-0.125000 I0.359116 J0.000000
G02 X1.570431 Y43.004021 Z-0.125000 I0.222233 J-0.207412
G03 X1.775266 Y43.170208 Z-0.125000 I-0.000000 J0.209329
G03 X1.661030 Y43.434184 Z-0.125000 I-0.243571 J0.051300
G02 X1.340500 Y43.733133 Z-0.125000 I0.561547 J0.923393
G02 X1.251619 Y44.012513 Z-0.125000 I0.394647 J0.279380
G02 X1.391196 Y44.126262 Z-0.125000 I0.116139 J0.000000
G02 X2.610315 Y43.732549 Z-0.125000 I-1.186548 J-5.758440
G03 X3.985435 Y43.219873 Z-0.125000 I4.643306 J10.353911
G03 X4.489032 Y43.167484 Z-0.125000 I0.389117 J1.293797
G01 X5.009053 Y43.211764 Z-0.125000
G01 X4.106237 Y43.637017 Z-0.125000
G02 X3.214323 Y44.083026 Z-0.125000 I9.056431 J19.225552
G02 X2.227520 Y44.632245 Z-0.125000 I12.764257 J24.095156
G02 X1.405508 Y45.290549 Z-0.125000 I1.817333 J3.111638
G02 X1.251619 Y45.682140 Z-0.125000 I0.421281 J0.391591
G02 X1.367732 Y45.938992 Z-0.125000 I0.342145 J0.000000
G02 X1.555289 Y45.949376 Z-0.125000 I0.100381 J-0.114069
G03 X2.034649 Y45.809359 Z-0.125000 I0.446209 J0.637060
G03 X4.608976 Y46.079650 Z-0.125000 I-0.890650 J20.877237
G03 X6.783849 Y46.602396 Z-0.125000 I-2.678061 J15.927634
G03 X6.826938 Y46.778376 Z-0.125000 I-0.031837 J0.101060
G03 X6.485460 Y46.909005 Z-0.125000 I-0.316997 J-0.317017
G03 X2.822909 Y46.559400 Z-0.125000 I2.479000 J-45.330260
G02 X1.389002 Y46.503613 Z-0.125000 I-1.004120 J7.353274
G02 X1.275759 Y46.649146 Z-0.125000 I0.007097 J0.122348
G02 X1.382733 Y46.820067 Z-0.125000 I0.274557 J-0.052901
G02 X1.729837 Y46.989139 Z-0.125000 I0.614489 J-0.820700
G02 X3.686572 Y47.382908 Z-0.125000 I3.995566 J-14.796320
G02 X5.632892 Y47.512944 Z-0.125000 I1.946320 J-14.500847
G03 X6.204346 Y47.747912 Z-0.125000 I-0.000000 J0.812386
G03 X6.205211 Y48.079364 Z-0.125000 I-0.164440 J0.166156
G03 X5.718690 Y48.257419 Z-0.125000 I-0.435055 J-0.435035
G03 X2.105581 Y47.735279 Z-0.125000 I2.556144 J-30.450103
G02 X1.358567 Y47.690489 Z-0.125000 I-0.528597 J2.564260
G02 X1.251619 Y47.806766 Z-0.125000 I0.009734 J0.116276
G02 X1.327307 Y47.993994 Z-0.125000 I0.269414 J0.000000
G02 X1.559045 Y48.124886 Z-0.125000 I0.336557 J-0.325269
G02 X3.652591 Y48.521287 Z-0.125000 I6.174117 J-26.881331
G02 X4.787841 Y48.607882 Z-0.125000 I1.164930 J-7.787305
G03 X5.687444 Y48.889207 Z-0.125000 I-0.005914 J1.597919
G03 X5.767918 Y49.281913 Z-0.125000 I-0.163804 J0.238165
G03 X5.594816 Y49.379259 Z-0.125000 I-0.176839 J-0.111879
G03 X4.164561 Y49.310558 Z-0.125000 I-0.194305 J-10.877236
G03 X1.796979 Y48.848858 Z-0.125000 I1.742825 J-15.238418
G03 X1.462872 Y48.559029 Z-0.125000 I0.138191 J-0.496791
G01 X1.368169 Y48.574182 Z-0.125000
G02 X1.281372 Y50.450567 Z-0.125000 I18.918535 J1.815328
G02 X1.317894 Y52.463541 Z-0.125000 I67.414159 J-0.216300
G01 X1.348045 Y52.465916 Z-0.125000
G03 X1.562619 Y52.287518 Z-0.125000 I0.216044 J0.041612
G03 X3.757033 Y52.449829 Z-0.125000 I0.091388 J13.679633
G03 X5.559129 Y52.860725 Z-0.125000 I-2.038115 J13.095957
G03 X5.794581 Y53.066654 Z-0.125000 I-0.109992 J0.363328
G03 X5.882883 Y53.378648 Z-0.125000 I-0.976280 J0.444806
G03 X5.846666 Y53.484145 Z-0.125000 I-0.125979 J0.015717
G03 X5.734071 Y53.523402 Z-0.125000 I-0.096921 J-0.096887
G03 X3.877437 Y53.257408 Z-0.125000 I3.876892 J-33.673308
G02 X2.002977 Y52.936525 Z-0.125000 I-402.772080 J2347.187700
G02 X1.627362 Y52.873162 Z-0.125000 I-15.825255 J92.666889
G02 X1.349535 Y52.926110 Z-0.125000 I-0.067174 J0.402910
G02 X1.251619 Y53.099335 Z-0.125000 I0.104270 J0.173225
G02 X1.293877 Y53.346913 Z-0.125000 I0.746356 J0.000000
G02 X1.354094 Y53.390758 Z-0.125000 I0.061925 J-0.021774
G03 X1.455897 Y53.401790 Z-0.125000 I-0.044238 J0.883462
G03 X3.771776 Y53.797959 Z-0.125000 I-54.351686 J324.689440
G03 X6.198354 Y54.512451 Z-0.125000 I-1.924701 J11.014583
G03 X6.238759 Y54.840136 Z-0.125000 I-0.074129 J0.175474
G03 X5.842514 Y54.949785 Z-0.125000 I-0.337353 J-0.448321
G03 X3.130336 Y54.512064 Z-0.125000 I2.629797 J-24.915948
G01 X1.251619 Y54.102065 Z-0.125000
G01 X1.251619 Y54.403521 Z-0.125000
G02 X1.381759 Y54.602000 Z-0.125000 I0.216422 J0.000000
G02 X2.769392 Y55.063325 Z-0.125000 I3.275482 J-7.534799
G03 X4.273304 Y55.446538 Z-0.125000 I-10.098366 J42.773564
G03 X4.365734 Y55.500228 Z-0.125000 I-0.055073 J0.201215
G03 X4.383752 Y55.578800 Z-0.125000 I-0.053667 J0.053659
G03 X4.282025 Y55.741071 Z-0.125000 I-0.404559 J-0.140595
G03 X4.092543 Y55.813153 Z-0.125000 I-0.175036 J-0.175030
G03 X2.924793 Y55.661730 Z-0.125000 I0.487373 J-8.337009
G03 X1.731813 Y55.412022 Z-0.125000 I17.691565 J-87.496087
G03 X1.490728 Y55.351336 Z-0.125000 I0.786670 J-3.634406
G02 X1.330020 Y55.386635 Z-0.125000 I-0.047760 J0.166045
G02 X1.251619 Y55.557968 Z-0.125000 I0.148010 J0.171333
G02 X1.359647 Y55.751481 Z-0.125000 I0.227335 J-0.000000
G02 X2.071422 Y56.063391 Z-0.125000 I1.466790 J-2.379107
G03 X2.223706 Y56.372377 Z-0.125000 I-0.062525 J0.222835
G03 X1.872423 Y56.559577 Z-0.125000 I-0.286823 J-0.115033
G02 X1.339386 Y56.535637 Z-0.125000 I-0.338294 J1.586109
G02 X1.251619 Y56.634660 Z-0.125000 I0.011977 J0.099023
G02 X1.303429 Y56.815846 Z-0.125000 I0.342715 J0.000000
G02 X1.488913 Y57.015648 Z-0.125000 I0.608831 J-0.379202
G03 X1.581617 Y57.203956 Z-0.125000 I-0.133638 J0.182763
G03 X1.477942 Y57.463507 Z-0.125000 I-0.401346 J-0.009832
G02 X1.299064 Y57.758244 Z-0.125000 I0.676434 J0.612180
G02 X1.274804 Y58.010823 Z-0.125000 I0.463317 J0.171957
G02 X1.405856 Y58.085987 Z-0.125000 I0.096205 J-0.015908
G02 X2.344697 Y57.601454 Z-0.125000 I-1.704197 J-4.453914
G03 X5.257154 Y55.913697 Z-0.125000 I14.996483 J22.521688
G03 X6.571984 Y55.491414 Z-0.125000 I2.033945 J4.074858
G03 X6.711421 Y55.717948 Z-0.125000 I0.022736 J0.142185
G03 X5.931339 Y56.377787 Z-0.125000 I-1.721684 J-1.244388
G02 X3.409239 Y57.797486 Z-0.125000 I12.000342 J24.268744
G02 X1.683402 Y59.077688 Z-0.125000 I8.005727 J12.595900
G02 X1.337330 Y59.513037 Z-0.125000 I0.965748 J1.122930
G02 X1.273500 Y59.859740 Z-0.125000 I0.527079 J0.276264
G01 X1.319942 Y60.249325 Z-0.125000
G01 X2.686282 Y59.240186 Z-0.125000
G03 X6.959563 Y56.437704 Z-0.125000 I27.286201 J36.947315
G03 X7.422373 Y56.498355 Z-0.125000 I0.191933 J0.331523
G03 X7.555553 Y57.008090 Z-0.125000 I-0.368585 J0.368568
G03 X6.183151 Y60.903079 Z-0.125000 I-30.830252 J-8.673782
G03 X3.737521 Y65.275731 Z-0.125000 I-21.640660 J-9.233402
G03 X1.869390 Y66.988812 Z-0.125000 I-4.912908 J-3.482427
G02 X1.354603 Y67.409856 Z-0.125000 I1.085699 J1.852645
G02 X1.251625 Y67.679443 Z-0.125000 I0.301390 J0.269587
G02 X1.428424 Y67.864342 Z-0.125000 I0.185084 J0.000000
G02 X2.104937 Y67.717687 Z-0.125000 I0.060671 J-1.353821
G02 X4.980693 Y65.032267 Z-0.125000 I-3.241359 J-6.353597
G02 X7.987436 Y57.907939 Z-0.125000 I-23.627205 J-14.168244
G03 X8.473352 Y56.852677 Z-0.125000 I3.262861 J0.862942
G03 X8.756241 Y56.794962 Z-0.125000 I0.171502 J0.118467
G03 X8.928279 Y57.190269 Z-0.125000 I-0.205036 J0.324321
G03 X8.067143 Y60.455398 Z-0.125000 I-23.133305 J-4.354991
G03 X6.307078 Y64.390320 Z-0.125000 I-22.452740 J-7.681872
G03 X4.416540 Y66.958123 Z-0.125000 I-11.323092 J-6.356743
G03 X2.706937 Y68.432732 Z-0.125000 I-8.106274 J-7.669759
G03 X1.638880 Y68.901141 Z-0.125000 I-1.706836 J-2.440010
G02 X1.378546 Y69.107224 Z-0.125000 I0.081310 J0.370189
G02 X1.289802 Y69.627869 Z-0.125000 I0.864453 J0.415232
G02 X1.360664 Y70.262426 Z-0.125000 I296.735884 J-32.815502
G02 X1.606025 Y72.432404 Z-0.125000 I3462.897274 J-390.453827
G01 X1.852066 Y74.602290 Z-0.125000
G01 X1.551846 Y74.845402 Z-0.125000
G02 X1.118975 Y75.533679 Z-0.125000 I0.792425 J0.978631
G02 X1.326543 Y75.796183 Z-0.125000 I0.207569 J0.049187
G02 X1.867138 Y75.655762 Z-0.125000 I-0.000000 J-1.110805
G02 X5.692229 Y73.364099 Z-0.125000 I-34.457717 J-61.852659
G02 X11.645151 Y68.442339 Z-0.125000 I-17.502352 J-27.230224
G02 X15.951926 Y62.576984 Z-0.125000 I-20.817189 J-19.799364
G03 X16.506953 Y61.956241 Z-0.125000 I1.644910 J0.912263
G03 X16.691266 Y62.051351 Z-0.125000 I0.067618 J0.095109
G03 X16.522775 Y62.719146 Z-0.125000 I-1.407610 J-0.000000
G03 X14.743194 Y65.666112 Z-0.125000 I-30.963351 J-16.687004
G03 X9.627725 Y71.317856 Z-0.125000 I-22.127149 J-14.886666
G03 X2.089573 Y76.146937 Z-0.125000 I-23.462061 J-28.326034
G02 X1.396272 Y76.636813 Z-0.125000 I1.103031 J2.296610
G02 X1.253421 Y76.978273 Z-0.125000 I0.341503 J0.343481
G01 X1.251631 Y77.408874 Z-0.125000
G01 X3.062032 Y76.448065 Z-0.125000
G02 X6.545685 Y74.399754 Z-0.125000 I-21.728206 J-40.940688
G02 X9.499187 Y72.275181 Z-0.125000 I-20.432999 J-31.520400
G02 X12.382825 Y69.740945 Z-0.125000 I-24.416824 J-30.690956
G02 X13.905961 Y68.002404 Z-0.125000 I-9.895942 J-10.206320
G03 X14.375965 Y67.720122 Z-0.125000 I0.576538 J0.427521
G03 X14.553415 Y67.905230 Z-0.125000 I0.023304 J0.155268
G02 X14.563957 Y69.762528 Z-0.125000 I4.660171 J0.902227
G02 X15.140149 Y70.761632 Z-0.125000 I1.792887 J-0.368274
G02 X15.789776 Y71.121746 Z-0.125000 I1.126344 J-1.265861
G02 X16.930382 Y71.286497 Z-0.125000 I1.147557 J-3.914069
G03 X17.350331 Y71.311269 Z-0.125000 I0.000000 J3.571982
G01 X17.374442 Y71.338404 Z-0.125000
G03 X17.366576 Y71.388167 Z-0.125000 I-0.161334 J-0.000000
G03 X17.169491 Y71.970432 Z-0.125000 I-22.819124 J-7.399305
G02 X17.023484 Y72.561418 Z-0.125000 I2.964481 J1.045925
G02 X16.964540 Y73.371722 Z-0.125000 I5.540180 J0.810303
G01 X16.964540 Y74.192113 Z-0.125000
G01 X16.315529 Y74.102006 Z-0.125000
G02 X13.822848 Y73.902178 Z-0.125000 I-2.967585 J21.371116
G02 X12.026165 Y74.007563 Z-0.125000 I-0.246009 J11.174141
G02 X9.050990 Y74.574840 Z-0.125000 I4.269662 J30.478410
G02 X8.810114 Y74.786541 Z-0.125000 I0.081211 J0.335291
G02 X8.834986 Y75.415921 Z-0.125000 I0.744646 J0.285754
G02 X10.984563 Y79.341261 Z-0.125000 I36.338423 J-17.348245
G03 X11.329419 Y79.958175 Z-0.125000 I-6.402009 J3.983581
G03 X11.362547 Y80.098759 Z-0.125000 I-0.281734 J0.140585
G03 X11.225003 Y80.276979 Z-0.125000 I-0.184234 J0.000000
G03 X7.195209 Y81.190519 Z-0.125000 I-15.729078 J-60.039026
G02 X5.580978 Y81.595760 Z-0.125000 I2.786339 J14.516744
G02 X5.487285 Y81.723120 Z-0.125000 I0.039716 J0.127360
G02 X5.537036 Y81.887639 Z-0.125000 I0.296894 J0.000000
G02 X6.008556 Y82.506169 Z-0.125000 I5.059812 J-3.368227
G03 X6.505425 Y83.124897 Z-0.125000 I-7.727957 J6.714797
G03 X7.388034 Y84.367342 Z-0.125000 I-30.349472 J22.494393
G02 X8.784417 Y86.025638 Z-0.125000 I8.768023 J-5.966126
G02 X9.770540 Y86.670868 Z-0.125000 I2.178332 J-2.253029
G03 X10.327537 Y86.968438 Z-0.125000 I-1.198683 J2.913803
G03 X10.363028 Y87.068486 Z-0.125000 I-0.049603 J0.073915
G03 X9.095512 Y88.737938 Z-0.125000 I-2.910176 J-0.893623
G03 X6.632116 Y89.459582 Z-0.125000 I-2.463395 J-3.843688
G03 X6.508857 Y89.388333 Z-0.125000 I0.000000 J-0.142242
G03 X6.298098 Y88.879652 Z-0.125000 I1.843671 J-1.061881
G02 X4.945210 Y86.723377 Z-0.125000 I-4.195343 J1.129686
G02 X2.959556 Y85.991701 Z-0.125000 I-1.964431 J2.270940
G02 X1.580732 Y86.330571 Z-0.125000 I0.021730 J3.062987
G02 X1.251631 Y86.869821 Z-0.125000 I0.277245 J0.539250
G01 X1.251631 Y87.278984 Z-0.125000
G01 X1.792724 Y87.002942 Z-0.125000
G03 X3.622841 Y86.835421 Z-0.125000 I1.124488 J2.204191
G03 X5.133374 Y87.996847 Z-0.125000 I-0.758536 J2.549542
G03 X5.112923 Y91.280857 Z-0.125000 I-2.657141 J1.625521
G03 X1.978778 Y93.012066 Z-0.125000 I-3.134144 J-1.971390
G02 X1.379880 Y93.140306 Z-0.125000 I0.000000 J1.462589
G02 X1.251631 Y93.338442 Z-0.125000 I0.088930 J0.198136
G02 X1.357337 Y93.577098 Z-0.125000 I0.322265 J-0.000000
G02 X1.705064 Y93.749888 Z-0.125000 I0.479225 J-0.528122
G02 X2.158229 Y93.791537 Z-0.125000 I0.447968 J-2.387952
G02 X2.593184 Y93.747912 Z-0.125000 I-0.004788 J-2.237878
G03 X2.796092 Y93.882953 Z-0.125000 I0.033826 J0.169136
G03 X2.677589 Y94.166490 Z-0.125000 I-0.268777 J0.054198
G02 X2.370914 Y94.439335 Z-0.125000 I0.767478 J1.171408
G02 X1.789468 Y95.228137 Z-0.125000 I6.123395 J5.122414
G02 X1.409113 Y96.106731 Z-0.125000 I2.444114 J1.579717
G02 X1.251631 Y97.394810 Z-0.125000 I5.189022 J1.288079
G02 X1.398841 Y98.679284 Z-0.125000 I5.677407 J0.000000
G02 X1.695692 Y99.306688 Z-0.125000 I1.593890 J-0.370205
G02 X4.536525 Y100.909545 Z-0.125000 I3.308288 J-2.544552
G02 X7.104726 Y99.916350 Z-0.125000 I0.333129 J-2.955620
G02 X7.484374 Y99.448186 Z-0.125000 I-5.784589 J-5.078904
G02 X7.555152 Y99.314150 Z-0.125000 I-0.389699 J-0.291488
G03 X7.647486 Y99.254868 Z-0.125000 I0.083543 J0.028573
G03 X8.219964 Y99.380676 Z-0.125000 I-0.250827 J2.506778
G02 X10.095619 Y99.964495 Z-0.125000 I10.302335 J-29.793748
G02 X11.977400 Y100.422990 Z-0.125000 I8.192827 J-29.534543
G02 X12.665498 Y100.513453 Z-0.125000 I0.932727 J-4.432497
G02 X14.045642 Y100.534866 Z-0.125000 I0.967882 J-17.895206
G03 X15.391093 Y100.575986 Z-0.125000 I0.289123 J12.571977
G03 X15.527643 Y100.659831 Z-0.125000 I-0.014961 J0.177481
G03 X15.586813 Y100.955685 Z-0.125000 I-0.368023 J0.227448
G03 X15.036088 Y103.729585 Z-0.125000 I-37.534329 J-6.010374
G02 X14.800410 Y104.817089 Z-0.125000 I27.361440 J6.498911
G02 X14.778397 Y105.043758 Z-0.125000 I1.155966 J0.226669
G03 X14.512059 Y106.004213 Z-0.125000 I-1.864943 J0.000000
G03 X13.138789 Y107.772776 Z-0.125000 I-8.068312 J-4.847509
G03 X11.717100 Y108.726120 Z-0.125000 I-3.054725 J-3.018678
G03 X9.996206 Y109.064815 Z-0.125000 I-1.714542 J-4.170266
G03 X8.859316 Y108.966243 Z-0.125000 I0.010240 J-6.723598
G03 X8.288281 Y108.768962 Z-0.125000 I0.321120 J-1.854566
G03 X6.191922 Y105.074836 Z-0.125000 I1.892707 J-3.515971
G03 X8.568202 Y102.501274 Z-0.125000 I2.712973 J0.121164
G03 X9.946835 Y102.595527 Z-0.125000 I0.447599 J3.582714
G03 X10.830289 Y103.105004 Z-0.125000 I-0.507104 J1.900052
G03 X11.362298 Y105.926096 Z-0.125000 I-1.800195 J1.800195
G03 X9.112099 Y107.030157 Z-0.125000 I-1.777779 J-0.778203
G03 X8.143557 Y106.161509 Z-0.125000 I0.339536 J-1.352869
G03 X8.383925 Y105.063079 Z-0.125000 I0.977094 J-0.361699
G03 X8.858770 Y104.882228 Z-0.125000 I0.439093 J0.439081
G03 X9.324010 Y105.117294 Z-0.125000 I-0.037625 J0.652399
G03 X9.378472 Y105.311909 Z-0.125000 I-0.190742 J0.158306
G03 X9.272423 Y105.465672 Z-0.125000 I-0.209470 J-0.031018
G02 X9.075592 Y105.868904 Z-0.125000 I0.192209 J0.343479
G02 X9.386859 Y106.210736 Z-0.125000 I0.412993 J-0.063432
G02 X9.974017 Y106.053481 Z-0.125000 I0.152207 J-0.606481
G02 X10.269475 Y105.356158 Z-0.125000 I-0.675161 J-0.697323
G02 X10.017533 Y104.714813 Z-0.125000 I-0.942277 J0.000000
G02 X9.202428 Y104.207598 Z-0.125000 I-1.340074 J1.244975
G02 X8.306102 Y104.272054 Z-0.125000 I-0.363284 J1.212567
G02 X7.624763 Y104.940081 Z-0.125000 I0.600968 J1.294416
G02 X7.478116 Y105.470416 Z-0.125000 I1.346653 J0.657816
G02 X7.527450 Y106.080005 Z-0.125000 I1.844820 J0.157490
G02 X7.991543 Y107.053925 Z-0.125000 I2.659071 J-0.669565
G02 X8.684323 Y107.625089 Z-0.125000 I1.520378 J-1.138380
G02 X11.081318 Y107.422481 Z-0.125000 I1.027627 J-2.122812
G02 X12.315228 Y105.035751 Z-0.125000 I-1.708322 J-2.395504
G02 X12.080036 Y103.643763 Z-0.125000 I-4.163028 J-0.012474
G02 X11.469846 Y102.628658 Z-0.125000 I-2.764947 J0.971091
G02 X10.201848 Y101.838503 Z-0.125000 I-2.068116 J1.906315
G02 X8.498079 Y101.746849 Z-0.125000 I-1.043535 J3.516803
G02 X6.475426 Y102.734715 Z-0.125000 I0.750333 J4.100925
G02 X5.470174 Y104.443991 Z-0.125000 I2.151906 J2.415811
G02 X5.608091 Y106.685327 Z-0.125000 I3.942560 J0.882312
G02 X7.025895 Y108.799281 Z-0.125000 I4.888332 J-1.746118
G02 X8.411242 Y109.692796 Z-0.125000 I3.470294 J-3.859791
G02 X9.659746 Y109.954574 Z-0.125000 I1.248505 J-2.846367
G03 X10.095963 Y109.991458 Z-0.125000 I0.000000 J2.597940
G01 X10.132841 Y110.035149 Z-0.125000
G03 X10.107533 Y110.105989 Z-0.125000 I-0.111798 J-0.000000
G03 X9.433396 Y110.889114 Z-0.125000 I-16.321575 J-13.368381
G02 X8.309455 Y112.559330 Z-0.125000 I5.241706 J4.740583
G02 X7.837344 Y114.198133 Z-0.125000 I4.568341 J2.203465
G01 X7.741745 Y115.051499 Z-0.125000
G01 X7.231853 Y114.486586 Z-0.125000
G03 X6.860242 Y113.895730 Z-0.125000 I1.506551 J-1.359814
G03 X6.856110 Y113.568836 Z-0.125000 I0.411999 J-0.168681
G02 X7.029757 Y112.533245 Z-0.125000 I-2.504964 J-0.952385
G02 X6.781496 Y111.166809 Z-0.125000 I-4.685695 J0.145552
G02 X6.135576 Y110.045402 Z-0.125000 I-3.174093 J1.081522
G02 X4.992265 Y109.113417 Z-0.125000 I-3.284421 J2.861887
G03 X4.365255 Y108.635905 Z-0.125000 I1.417542 J-2.511755
G03 X4.257579 Y108.375019 Z-0.125000 I0.262208 J-0.260886
G02 X4.067438 Y107.369978 Z-0.125000 I-2.751278 J-0.000000
G02 X3.422707 Y106.247518 Z-0.125000 I-4.101719 J1.609596
G02 X2.746684 Y105.649871 Z-0.125000 I-1.998354 J1.579260
G02 X1.644875 Y105.167603 Z-0.125000 I-2.349332 J3.867623
G02 X1.361231 Y105.200274 Z-0.125000 I-0.102528 J0.357485
G02 X1.251631 Y105.386873 Z-0.125000 I0.104048 J0.186599
G02 X1.319203 Y105.651346 Z-0.125000 I0.551357 J0.000000
G02 X1.433158 Y105.718921 Z-0.125000 I0.113955 J-0.062296
G03 X2.237639 Y106.001001 Z-0.125000 I-0.000000 J1.288215
G03 X3.251177 Y107.172572 Z-0.125000 I-2.656434 J3.322305
G03 X3.537442 Y107.799785 Z-0.125000 I-2.923055 J1.713042
G03 X3.692317 Y108.476441 Z-0.125000 I-3.253007 J1.100609
G02 X3.914156 Y109.066883 Z-0.125000 I1.340590 J-0.166786
G02 X4.283948 Y109.350528 Z-0.125000 I0.610778 J-0.413406
G03 X5.264894 Y109.935765 Z-0.125000 I-0.916435 J2.650815
G03 X6.037272 Y110.961080 Z-0.125000 I-2.396304 J2.608729
G03 X6.394180 Y112.212496 Z-0.125000 I-3.154299 J1.576221
G03 X6.278881 Y113.572923 Z-0.125000 I-3.864990 J0.357532
G02 X6.284650 Y114.145444 Z-0.125000 I1.031547 J0.275895
G02 X6.605411 Y114.702117 Z-0.125000 I1.291629 J-0.373502
G03 X7.312761 Y115.764243 Z-0.125000 I-2.624324 J2.514335
G03 X7.536794 Y116.838908 Z-0.125000 I-2.465509 J1.074665
G03 X7.376039 Y117.888178 Z-0.125000 I-3.504737 J0.000000
G03 X6.902624 Y118.859984 Z-0.125000 I-3.467783 J-1.088116
G01 X6.556993 Y119.362401 Z-0.125000
G01 X6.924700 Y120.427745 Z-0.125000
G03 X7.180475 Y122.066008 Z-0.125000 I-4.439026 J1.532145
G03 X6.857400 Y123.405221 Z-0.125000 I-3.240840 J-0.073253
G03 X6.464428 Y123.980997 Z-0.125000 I-2.126792 J-1.029558
G03 X5.878957 Y124.461973 Z-0.125000 I-2.048387 J-1.896591
G02 X5.404216 Y125.042427 Z-0.125000 I0.599970 J0.975071
G02 X5.418968 Y125.714724 Z-0.125000 I0.864269 J0.317346
G03 X5.596505 Y126.741883 Z-0.125000 I-2.159002 J0.902091
G03 X5.300524 Y127.927527 Z-0.125000 I-3.211279 J-0.171890
G03 X4.416574 Y129.037963 Z-0.125000 I-2.745478 J-1.278460
G03 X2.826778 Y129.855178 Z-0.125000 I-2.952781 J-3.789297
G02 X2.546213 Y130.086380 Z-0.125000 I0.131949 J0.445955
G02 X2.257879 Y130.947957 Z-0.125000 I2.576295 J1.341214
G03 X1.856507 Y132.367334 Z-0.125000 I-6.644618 J-1.112528
G03 X1.465592 Y132.901606 Z-0.125000 I-1.257602 J-0.510012
G02 X1.331386 Y133.116630 Z-0.125000 I0.257225 J0.309940
G02 X1.251631 Y133.783977 Z-0.125000 I2.752135 J0.667346
G02 X1.388053 Y134.394456 Z-0.125000 I1.434144 J0.000000
G02 X1.654771 Y134.640947 Z-0.125000 I0.437430 J-0.205778
G03 X2.340098 Y135.194887 Z-0.125000 I-0.496349 J1.314985
G03 X2.617460 Y136.135712 Z-0.125000 I-1.464062 J0.942913
G03 X2.345486 Y136.914082 Z-0.125000 I-1.245387 J0.001544
G03 X1.665708 Y137.328355 Z-0.125000 I-0.907467 J-0.724199
G02 X1.396719 Y137.530114 Z-0.125000 I0.076413 J0.382065
G02 X1.251631 Y138.121574 Z-0.125000 I1.133027 J0.591460
G01 X1.251631 Y138.831978 Z-0.125000
G01 X1.559058 Y138.554435 Z-0.125000
G03 X3.424579 Y137.232023 Z-0.125000 I6.524326 J7.226786
G03 X6.156989 Y136.048833 Z-0.125000 I7.899385 J14.495865
G03 X8.413975 Y135.543735 Z-0.125000 I3.692782 J11.205762
G03 X11.473849 Y135.396967 Z-0.125000 I2.518914 J20.545146
G03 X13.731113 Y135.582095 Z-0.125000 I-0.531657 J20.336401
G03 X15.013748 Y135.886888 Z-0.125000 I-0.944970 J6.827855
G03 X17.991403 Y137.298554 Z-0.125000 I-4.696298 J13.752235
G03 X20.250970 Y139.143639 Z-0.125000 I-6.013825 J9.670899
G03 X21.435313 Y140.630849 Z-0.125000 I-8.125901 J7.686266
G03 X22.497356 Y142.517428 Z-0.125000 I-12.073829 J8.039139
G03 X23.756064 Y149.597117 Z-0.125000 I-12.566804 J5.886010
G03 X21.468925 Y154.428933 Z-0.125000 I-7.641170 J-0.659730
G02 X20.814074 Y155.146085 Z-0.125000 I5.842839 J5.992813
G02 X20.511626 Y155.607970 Z-0.125000 I2.100123 J1.705150
G03 X19.676689 Y156.677036 Z-0.125000 I-3.265181 J-1.689521
G03 X17.784344 Y158.010641 Z-0.125000 I-7.078746 J-8.035135
G03 X16.063218 Y158.663258 Z-0.125000 I-3.124309 J-5.643796
G03 X13.685325 Y158.924124 Z-0.125000 I-2.369873 J-10.634173
G03 X10.149352 Y158.268367 Z-0.125000 I0.007773 J-9.903134
G03 X7.522688 Y156.562330 Z-0.125000 I2.687318 J-7.012536
G03 X5.685992 Y153.793811 Z-0.125000 I5.947746 J-5.939375
G03 X5.039679 Y150.466547 Z-0.125000 I8.101962 J-3.300193
G03 X5.640854 Y147.501857 Z-0.125000 I7.728800 J0.023937
G03 X7.159199 Y145.411690 Z-0.125000 I5.198481 J2.179733
G03 X8.795567 Y144.474245 Z-0.125000 I3.240875 J3.760229
G03 X10.952645 Y144.116025 Z-0.125000 I2.157078 J6.315491
G03 X13.297814 Y144.573495 Z-0.125000 I-0.000000 J6.239863
G03 X14.925305 Y145.727218 Z-0.125000 I-1.634821 J4.030915
G03 X15.846285 Y147.148150 Z-0.125000 I-4.315453 J3.806000
G03 X16.224667 Y148.579962 Z-0.125000 I-4.005616 J1.824461
G03 X16.190535 Y149.494727 Z-0.125000 I-3.610092 J0.323318
G03 X15.874119 Y150.699381 Z-0.125000 I-6.619792 J-1.094883
G03 X14.954823 Y152.250632 Z-0.125000 I-4.600480 J-1.678296
G03 X13.712652 Y153.163121 Z-0.125000 I-2.689590 J-2.359611
G03 X12.897763 Y153.339198 Z-0.125000 I-0.833715 J-1.884760
G03 X10.870637 Y153.189086 Z-0.125000 I-0.111917 J-12.250948
G02 X10.578380 Y153.608263 Z-0.125000 I-0.044397 J0.280517
G02 X11.684484 Y154.643871 Z-0.125000 I2.179329 J-1.219177
G02 X12.508649 Y154.904437 Z-0.125000 I1.349973 J-2.836242
G02 X13.597360 Y154.968661 Z-0.125000 I0.837075 J-4.930049
G02 X16.655986 Y154.091466 Z-0.125000 I-0.352777 J-7.001119
G02 X18.498967 Y152.238163 Z-0.125000 I-2.301740 J-4.131932
G02 X19.206690 Y150.368656 Z-0.125000 I-6.242626 J-3.431928
G02 X19.395409 Y148.250377 Z-0.125000 I-7.866563 J-1.768383
G02 X19.223617 Y146.800824 Z-0.125000 I-9.788892 J0.425159
G02 X18.900220 Y145.710067 Z-0.125000 I-5.842435 J1.138897
G02 X18.424738 Y144.666447 Z-0.125000 I-12.204601 J4.930392
G02 X18.030340 Y144.002143 Z-0.125000 I-5.324576 J2.711975
G02 X14.107060 Y140.708999 Z-0.125000 I-7.864573 J5.385874
G02 X9.220577 Y140.001479 Z-0.125000 I-3.662085 J8.064180
G02 X5.153365 Y141.692800 Z-0.125000 I1.205197 J8.634187
G02 X2.027968 Y145.463540 Z-0.125000 I6.518002 J8.583099
G01 X1.319948 Y146.882331 Z-0.125000
G01 X1.298541 Y148.947706 Z-0.125000
G02 X1.337652 Y150.097698 Z-0.125000 I12.972356 J0.134471
G01 X1.388950 Y150.098812 Z-0.125000
G03 X2.218150 Y146.765896 Z-0.125000 I13.990385 J1.711075
G03 X3.705885 Y144.053276 Z-0.125000 I10.679540 J4.092907
G03 X8.123195 Y141.004501 Z-0.125000 I6.668362 J4.937196
G03 X13.570334 Y141.272724 Z-0.125000 I2.324165 J8.245346
G03 X16.935194 Y143.658522 Z-0.125000 I-3.117033 J7.961921
G03 X18.605419 Y147.125694 Z-0.125000 I-5.642479 J4.854007
G03 X18.815026 Y149.511007 Z-0.125000 I-11.809308 J2.239596
G03 X18.559592 Y150.905781 Z-0.125000 I-4.214762 J-0.051100
G03 X18.353155 Y151.319658 Z-0.125000 I-1.933698 J-0.706083
G03 X17.613238 Y152.365299 Z-0.125000 I-13.249409 J-8.590950
G03 X16.743337 Y153.283702 Z-0.125000 I-4.925822 J-3.794495
G03 X15.872876 Y153.863055 Z-0.125000 I-2.771273 J-3.220163
G03 X14.159971 Y154.441147 Z-0.125000 I-2.931782 J-5.860224
G03 X13.079367 Y154.391911 Z-0.125000 I-0.436396 J-2.305119
G03 X12.928178 Y154.123053 Z-0.125000 I0.060194 J-0.210788
G03 X13.235744 Y153.822683 Z-0.125000 I0.410618 J0.112802
G02 X14.492578 Y153.262820 Z-0.125000 I-0.958175 J-3.841660
G02 X15.835616 Y152.067938 Z-0.125000 I-3.781115 J-5.602168
G02 X16.486592 Y151.083881 Z-0.125000 I-3.562153 J-3.063790
G02 X16.814134 Y150.085640 Z-0.125000 I-3.340283 J-1.648868
G02 X16.220774 Y146.579690 Z-0.125000 I-5.202082 J-0.922767
G02 X13.293869 Y143.805053 Z-0.125000 I-5.928812 J3.323093
G02 X12.361546 Y143.496874 Z-0.125000 I-1.573847 J3.196954
G02 X10.870843 Y143.361580 Z-0.125000 I-1.490703 J8.144835
G01 X9.348643 Y143.361580 Z-0.125000
G01 X8.168624 Y143.959905 Z-0.125000
G02 X5.681141 Y145.996625 Z-0.125000 I3.379166 J6.664402
G02 X4.380742 Y148.761917 Z-0.125000 I5.300214 J4.180871
G02 X4.217623 Y150.950423 Z-0.125000 I7.863671 J1.686448
G02 X4.662562 Y153.267544 Z-0.125000 I9.278097 J-0.580325
G02 X5.793009 Y155.676967 Z-0.125000 I10.413120 J-3.415699
G02 X7.090981 Y157.137372 Z-0.125000 I5.002912 J-3.139459
G03 X7.163014 Y157.515469 Z-0.125000 I-0.186396 J0.231421
G03 X6.702993 Y157.820971 Z-0.125000 I-0.531961 J-0.301923
G02 X4.974633 Y158.536651 Z-0.125000 I0.405543 J3.424202
G02 X3.934147 Y160.002399 Z-0.125000 I1.970235 J2.500782
G03 X3.744406 Y160.416530 Z-0.125000 I-2.190205 J-0.752949
G03 X3.647873 Y160.493099 Z-0.125000 I-0.146363 J-0.085389
G03 X3.396735 Y160.375649 Z-0.125000 I-0.060725 J-0.197379
G03 X2.212209 Y157.072943 Z-0.125000 I30.497286 J-12.801712
G03 X1.605074 Y154.634483 Z-0.125000 I25.467572 J-7.635814
G03 X1.344757 Y152.721009 Z-0.125000 I15.398528 J-3.069319
G01 X1.318736 Y152.721406 Z-0.125000
G02 X1.275503 Y154.324418 Z-0.125000 I49.442692 J2.135540
G02 X1.401371 Y156.519278 Z-0.125000 I16.165985 J0.173973
G02 X1.740292 Y158.013534 Z-0.125000 I7.791250 J-0.981616
G02 X5.935303 Y165.855543 Z-0.125000 I24.877801 J-8.265104
G02 X13.548691 Y173.176436 Z-0.125000 I29.171824 J-22.718109
G02 X16.336069 Y174.920456 Z-0.125000 I15.128226 J-21.079199
G02 X22.293265 Y177.904762 Z-0.125000 I50.677489 J-93.723172
G03 X27.563328 Y180.438185 Z-0.125000 I-82.015268 J177.357482
G03 X27.580632 Y180.544609 Z-0.125000 I-0.029679 J0.059445
G03 X27.503777 Y180.562417 Z-0.125000 I-0.052700 J-0.052694
G03 X26.960546 Y180.332152 Z-0.125000 I1.350946 J-3.943025
G02 X26.397616 Y180.077558 Z-0.125000 I-2.988242 J5.857603
G02 X24.385419 Y179.310350 Z-0.125000 I-29.461822 J74.248783
G03 X14.497422 Y174.532151 Z-0.125000 I19.021344 J-51.982933
G03 X7.796637 Y169.150976 Z-0.125000 I17.704111 J-28.908229
G03 X4.370143 Y164.910244 Z-0.125000 I22.460859 J-21.652944
G03 X1.708310 Y160.099243 Z-0.125000 I26.328339 J-17.708825
G01 X1.252393 Y159.074489 Z-0.125000
G01 X1.273354 Y160.509146 Z-0.125000
G02 X1.399351 Y161.888525 Z-0.125000 I9.063123 J-0.132415
G02 X1.546240 Y162.122342 Z-0.125000 I0.355175 J-0.060081
G03 X1.734074 Y162.498865 Z-0.125000 I-0.257750 J0.363695
G03 X1.524899 Y162.863633 Z-0.125000 I-0.444976 J-0.012810
G02 X1.289193 Y163.288728 Z-0.125000 I0.265476 J0.425096
G02 X1.524899 Y163.462711 Z-0.125000 I0.182065 J0.000000
G02 X1.798123 Y163.378316 Z-0.125000 I-79.988151 J-259.441282
G02 X2.058343 Y163.297631 Z-0.125000 I-73.244415 J-236.682281
G03 X2.269643 Y163.342912 Z-0.125000 I0.065394 J0.210487
G03 X2.695842 Y163.860653 Z-0.125000 I-1.405074 J1.590935
G01 X3.073166 Y164.504509 Z-0.125000
G01 X2.743092 Y164.758250 Z-0.125000
G03 X2.200016 Y164.861011 Z-0.125000 I-0.373095 J-0.485330
G03 X1.629539 Y164.436389 Z-0.125000 I0.281407 J-0.973595
G01 X1.255960 Y163.856677 Z-0.125000
G01 X1.253801 Y164.511858 Z-0.125000
G02 X1.375350 Y165.129429 Z-0.125000 I1.602871 J0.005272
G02 X1.956224 Y166.211195 Z-0.125000 I5.636850 J-2.329970
G02 X6.423988 Y171.665468 Z-0.125000 I31.569162 J-21.302300
G02 X11.358002 Y175.734177 Z-0.125000 I22.298590 J-22.014874
G02 X12.676391 Y176.584912 Z-0.125000 I30.419082 J-45.693666
G02 X13.392140 Y177.005958 Z-0.125000 I8.147374 J-13.031122
G03 X14.080216 Y177.435917 Z-0.125000 I-3.649654 J6.606185
G03 X14.141551 Y177.532293 Z-0.125000 I-0.085982 J0.122425
G03 X14.097885 Y177.606130 Z-0.125000 I-0.064797 J0.011510
G03 X13.649012 Y177.699307 Z-0.125000 I-0.603791 J-1.780921
G03 X13.156536 Y177.638766 Z-0.125000 I-0.100502 J-1.215768
G03 X12.113725 Y177.178376 Z-0.125000 I2.068799 J-6.097166
G03 X6.909641 Y173.462496 Z-0.125000 I13.385166 J-24.248003
G03 X1.695697 Y167.746167 Z-0.125000 I27.213970 J-30.058265
G01 X1.251636 Y167.154596 Z-0.125000
G01 X1.251636 Y167.730778 Z-0.125000
G02 X1.317841 Y168.287201 Z-0.125000 I2.371352 J0.000000
G02 X1.471840 Y168.643030 Z-0.125000 I1.103622 J-0.266395
G03 X3.108820 Y173.301278 Z-0.125000 I-8.613181 J5.643558
G03 X2.112566 Y175.308577 Z-0.125000 I-2.111392 J0.202960
G03 X1.976081 Y175.348150 Z-0.125000 I-0.139358 J-0.225488
G03 X1.691643 Y175.313149 Z-0.125000 I-0.011688 J-1.078285
G03 X1.506751 Y175.150077 Z-0.125000 I0.069271 J-0.264891
G03 X1.352181 Y174.465777 Z-0.125000 I2.058137 J-0.824499
G01 X1.318757 Y174.463288 Z-0.125000
G02 X1.277471 Y174.812969 Z-0.125000 I1.825416 J0.392799
G01 X1.251636 Y175.931540 Z-0.125000
G01 X1.685175 Y175.974356 Z-0.125000
G03 X1.941616 Y176.233002 Z-0.125000 I-0.028075 J0.284286
G03 X1.740316 Y176.586237 Z-0.125000 I-0.354511 J0.031948
G02 X1.348666 Y176.880499 Z-0.125000 I0.532283 J1.116208
G02 X1.251636 Y177.135551 Z-0.125000 I0.286699 J0.255052
G02 X1.294974 Y177.406945 Z-0.125000 I0.871440 J0.000000
G02 X1.354112 Y177.448234 Z-0.125000 I0.057032 J-0.018691
G02 X1.451100 Y177.424135 Z-0.125000 I-0.008456 J-0.241253
G02 X2.479666 Y176.901699 Z-0.125000 I-14.053178 J-28.941460
G03 X3.981848 Y176.348258 Z-0.125000 I2.789843 J5.256979
G03 X4.324358 Y176.492894 Z-0.125000 I0.069452 J0.313396
G03 X4.299807 Y176.596404 Z-0.125000 I-0.063920 J0.039505
G03 X2.829449 Y177.412425 Z-0.125000 I-9.837724 J-15.993521
G02 X1.374184 Y178.273707 Z-0.125000 I5.199166 J10.444856
G02 X1.251636 Y178.507992 Z-0.125000 I0.162678 J0.234286
G02 X1.280219 Y178.789587 Z-0.125000 I1.401421 J0.000000
G01 X1.315259 Y178.818169 Z-0.125000
G02 X1.653924 Y178.738195 Z-0.125000 I-0.000000 J-0.757063
G02 X4.704676 Y177.122854 Z-0.125000 I-33.326993 J-66.630268
G03 X5.842161 Y176.707185 Z-0.125000 I1.858422 J3.321393
G03 X6.031706 Y176.866847 Z-0.125000 I0.030191 J0.156500
G03 X5.984415 Y176.945444 Z-0.125000 I-0.092198 J-0.001950
G03 X3.640612 Y178.199842 Z-0.125000 I-37.659231 J-67.548188
G01 X1.251636 Y179.426075 Z-0.125000
G01 X1.251636 Y180.093178 Z-0.125000
G02 X1.354984 Y180.606918 Z-0.125000 I1.328575 J0.000000
G02 X1.490746 Y180.663433 Z-0.125000 I0.096485 J-0.040457
G03 X8.610309 Y178.685898 Z-0.125000 I12.202625 J30.127374
G03 X15.854886 Y178.389208 Z-0.125000 I4.894360 J30.913057
G03 X18.947112 Y178.745078 Z-0.125000 I-2.965595 J39.381042
G03 X21.877725 Y179.324125 Z-0.125000 I-5.579641 J35.944681
G03 X31.019453 Y183.744422 Z-0.125000 I-5.587148 J23.218190
G03 X37.275008 Y191.388496 Z-0.125000 I-13.936576 J17.786713
G03 X38.701120 Y194.502150 Z-0.125000 I-42.524715 J21.360536
G03 X38.825517 Y195.123157 Z-0.125000 I-1.503197 J0.624076
G03 X38.659904 Y195.181313 Z-0.125000 I-0.092929 J0.000253
G03 X38.200991 Y194.338830 Z-0.125000 I2.168154 J-1.727256
G02 X36.755894 Y191.080882 Z-0.125000 I-18.259732 J6.149825
G02 X34.516983 Y187.754346 Z-0.125000 I-21.283885 J11.908315
G02 X28.565943 Y182.592820 Z-0.125000 I-17.028599 J13.621896
G02 X20.534135 Y179.507931 Z-0.125000 I-13.214378 J22.406673
G02 X11.030369 Y178.978830 Z-0.125000 I-6.564120 J32.287018
G02 X1.490746 Y181.213820 Z-0.125000 I3.114802 J34.771435
G02 X1.331050 Y181.361140 Z-0.125000 I0.107738 J0.277005
G02 X1.251636 Y181.706908 Z-0.125000 I0.713033 J0.345768
G02 X1.344192 Y181.952606 Z-0.125000 I0.372393 J0.000000
G02 X1.490746 Y181.979241 Z-0.125000 I0.090069 J-0.079081
G03 X2.846252 Y181.396268 Z-0.125000 I4.116768 J7.704787
G03 X5.467064 Y180.654430 Z-0.125000 I9.409461 J28.241926
G03 X8.577421 Y180.046994 Z-0.125000 I9.714206 J41.474268
G03 X11.567503 Y179.697090 Z-0.125000 I5.959429 J37.975275
G03 X24.232811 Y181.296165 Z-0.125000 I2.446598 J31.578653
G03 X32.961146 Y186.989236 Z-0.125000 I-6.809348 J19.977216
G03 X35.895591 Y190.918118 Z-0.125000 I-17.748246 J16.316292
G03 X37.864023 Y195.175365 Z-0.125000 I-18.920662 J11.332085
G03 X38.060686 Y196.153105 Z-0.125000 I-3.698161 J1.252496
G03 X37.967632 Y196.644182 Z-0.125000 I-0.978168 J0.069004
G03 X37.608264 Y196.988308 Z-0.125000 I-0.633923 J-0.302296
G03 X37.136121 Y196.997355 Z-0.125000 I-0.247316 J-0.582290
G03 X36.935354 Y196.780960 Z-0.125000 I0.118258 J-0.311049
G03 X36.872949 Y196.110373 Z-0.125000 I1.660778 J-0.492749
G02 X36.438096 Y194.205202 Z-0.125000 I-3.023642 J-0.312070
G02 X35.312807 Y193.575148 Z-0.125000 I-1.127525 J0.693862
G03 X35.133241 Y193.453657 Z-0.125000 I0.000199 J-0.193740
G03 X35.019248 Y192.844898 Z-0.125000 I1.467742 J-0.589894
G02 X34.488916 Y191.199103 Z-0.125000 I-2.718059 J-0.032490
G02 X33.246382 Y190.440791 Z-0.125000 I-1.550445 J1.143351
G03 X32.883139 Y190.228499 Z-0.125000 I0.093370 J-0.576671
G03 X32.672111 Y189.721167 Z-0.125000 I0.778850 J-0.621525
G02 X32.528727 Y189.113854 Z-0.125000 I-2.655461 J0.306358
G02 X32.330526 Y188.782030 Z-0.125000 I-0.963650 J0.350490
G02 X31.526339 Y188.208862 Z-0.125000 I-1.662788 J1.482243
G02 X30.891181 Y188.180781 Z-0.125000 I-0.355865 J0.851906
G03 X30.687770 Y188.109508 Z-0.125000 I-0.054273 J-0.171008
G03 X30.620414 Y187.775899 Z-0.125000 I0.371867 J-0.248685
G02 X30.521381 Y187.031594 Z-0.125000 I-1.160288 J-0.224360
G02 X29.847283 Y186.197873 Z-0.125000 I-2.163725 J1.060083
G02 X29.151642 Y185.919769 Z-0.125000 I-0.820314 J1.042826
G02 X28.433136 Y186.064402 Z-0.125000 I-0.119322 J1.264244
G03 X28.228421 Y186.033563 Z-0.125000 I-0.081687 J-0.152631
G03 X27.843124 Y185.468405 Z-0.125000 I1.342963 J-1.329484
G02 X27.461802 Y184.776586 Z-0.125000 I-4.138797 J1.830254
G02 X27.198498 Y184.508000 Z-0.125000 I-0.851961 J0.571849
G02 X26.394109 Y184.186309 Z-0.125000 I-1.087389 J1.552482
G02 X25.573647 Y184.262650 Z-0.125000 I-0.256021 J1.695508
G03 X25.216816 Y184.239294 Z-0.125000 I-0.150854 J-0.432753
G03 X24.830577 Y183.888796 Z-0.125000 I0.438187 J-0.870933
G02 X23.983039 Y183.267220 Z-0.125000 I-1.213536 J0.766084
G02 X22.429904 Y183.255613 Z-0.125000 I-0.799257 J3.030326
G03 X22.142199 Y183.216027 Z-0.125000 I-0.094248 J-0.380301
G03 X21.860455 Y182.932288 Z-0.125000 I0.366759 J-0.645933
G02 X21.577701 Y182.581286 Z-0.125000 I-1.171605 J0.654409
G02 X21.080248 Y182.242529 Z-0.125000 I-1.584866 J1.792699
G02 X19.977623 Y181.999997 Z-0.125000 I-1.016077 J1.991699
G02 X19.158204 Y182.316982 Z-0.125000 I0.052416 J1.353108
G01 X18.734843 Y182.673214 Z-0.125000
G01 X18.462299 Y182.326741 Z-0.125000
G02 X17.634566 Y181.640568 Z-0.125000 I-2.006966 J1.578676
G02 X16.709695 Y181.414215 Z-0.125000 I-0.924870 J1.776318
G02 X16.188335 Y181.525461 Z-0.125000 I0.000000 J1.277320
G02 X15.592781 Y181.913593 Z-0.125000 I0.927069 J2.073480
G01 X15.040028 Y182.412971 Z-0.125000
G01 X14.572016 Y181.959355 Z-0.125000
G02 X14.054408 Y181.614953 Z-0.125000 I-1.191032 J1.228857
G02 X13.370074 Y181.444878 Z-0.125000 I-0.866253 J2.023750
G02 X12.680471 Y181.518223 Z-0.125000 I-0.152770 J1.842192
G02 X12.142527 Y181.817432 Z-0.125000 I0.422949 J1.393603
G02 X11.693400 Y182.279934 Z-0.125000 I2.676358 J3.048279
G02 X11.564825 Y182.515700 Z-0.125000 I0.542405 J0.448743
G03 X11.286262 Y182.730846 Z-0.125000 I-0.294570 J-0.093489
G03 X10.794004 Y182.555680 Z-0.125000 I-0.035275 J-0.680132
G02 X9.926497 Y182.185078 Z-0.125000 I-0.971550 J1.073576
G02 X8.816334 Y182.413203 Z-0.125000 I-0.150175 J2.084530
G02 X8.464809 Y182.677350 Z-0.125000 I0.606932 J1.173676
G02 X8.144695 Y183.120974 Z-0.125000 I1.483587 J1.407851
G03 X7.811233 Y183.466657 Z-0.125000 I-0.775872 J-0.414763
G03 X7.468482 Y183.514380 Z-0.125000 I-0.229662 J-0.394761
G02 X7.054590 Y183.440179 Z-0.125000 I-0.715488 J2.799519
G02 X6.411714 Y183.403472 Z-0.125000 I-0.707268 J6.739123
G02 X5.530141 Y183.708537 Z-0.125000 I-0.013224 J1.388101
G02 X4.873828 Y184.636484 Z-0.125000 I1.289108 J1.607822
G03 X4.623275 Y185.063371 Z-0.125000 I-1.208504 J-0.422337
G03 X4.438035 Y185.128073 Z-0.125000 I-0.150531 J-0.133446
G02 X4.188270 Y185.091866 Z-0.125000 I-0.740398 J4.227891
G02 X3.406194 Y185.009359 Z-0.125000 I-4.756838 J41.341691
G02 X2.677849 Y185.086574 Z-0.125000 I-0.174954 J1.823455
G02 X2.149845 Y185.407501 Z-0.125000 I0.393842 J1.242777
G02 X1.778454 Y185.931083 Z-0.125000 I1.353792 J1.353793
G02 X1.583134 Y186.585127 Z-0.125000 I1.950673 J0.938724
G03 X1.442772 Y187.235912 Z-0.125000 I-4.101447 J-0.544076
G03 X1.370668 Y187.289475 Z-0.125000 I-0.072104 J-0.021750
G02 X1.041694 Y187.638872 Z-0.125000 I0.000000 J0.329570
G02 X1.422429 Y188.148359 Z-0.125000 I0.577861 J-0.034827
G03 X1.491462 Y188.246780 Z-0.125000 I-0.035643 J0.098421
G03 X1.422429 Y188.499475 Z-0.125000 I-0.497011 J-0.000000
G02 X1.299683 Y188.801866 Z-0.125000 I0.954438 J0.563530
G02 X1.251636 Y189.203989 Z-0.125000 I1.658736 J0.402123
G01 X1.251636 Y189.619234 Z-0.125000
G01 X2.108547 Y188.892294 Z-0.125000
G03 X6.146705 Y186.302989 Z-0.125000 I11.670070 J13.756575
G03 X11.567503 Y184.475897 Z-0.125000 I10.853007 J23.244759
G03 X15.606672 Y184.058356 Z-0.125000 I3.903641 J18.017019
G03 X19.697225 Y184.535666 Z-0.125000 I-0.139400 J18.961338
G03 X25.958084 Y186.979369 Z-0.125000 I-5.112519 J22.340599
G03 X30.978628 Y190.984294 Z-0.125000 I-10.385155 J18.168070
G03 X35.279538 Y197.954366 Z-0.125000 I-15.918584 J14.634609
G03 X37.942534 Y209.355525 Z-0.125000 I-41.318314 J15.662399
G03 X38.153799 Y214.333246 Z-0.125000 I-45.796821 J4.437050
G03 X37.871101 Y215.433172 Z-0.125000 I-2.390459 J-0.028092
G03 X37.679540 Y215.636263 Z-0.125000 I-0.470304 J-0.251715
G03 X37.420674 Y215.709222 Z-0.125000 I-0.258664 J-0.422045
G01 X37.118056 Y215.709098 Z-0.125000
G01 X37.104792 Y212.395848 Z-0.125000
G02 X36.518540 Y205.496217 Z-0.125000 I-42.904363 J0.170799
G02 X34.980516 Y199.681678 Z-0.125000 I-31.925616 J5.334072
G02 X32.148976 Y193.920823 Z-0.125000 I-28.694933 J10.527662
G02 X29.082602 Y190.316805 Z-0.125000 I-14.054522 J8.851403
G02 X23.112094 Y186.768971 Z-0.125000 I-12.374508 J14.026882
G02 X15.803077 Y185.477922 Z-0.125000 I-7.314036 J20.072160
G02 X7.948636 Y186.896306 Z-0.125000 I-0.004665 J22.430719
G02 X2.105519 Y190.595254 Z-0.125000 I5.892220 J15.772334
G02 X1.390272 Y191.483922 Z-0.125000 I3.269308 J3.363483
G02 X1.251557 Y191.970167 Z-0.125000 I0.782875 J0.486245
G02 X1.335306 Y192.336684 Z-0.125000 I0.843880 J0.000000
G02 X1.439189 Y192.359304 Z-0.125000 I0.060786 J-0.029310
G03 X2.037005 Y192.400078 Z-0.125000 I0.277493 J0.334360
G03 X2.024005 Y192.997383 Z-0.125000 I-0.318443 J0.291863
G03 X1.815522 Y193.093811 Z-0.125000 I-0.235440 J-0.235444
G03 X1.540764 Y193.036634 Z-0.125000 I-0.040239 J-0.495383
G02 X1.357548 Y193.058794 Z-0.125000 I-0.075815 J0.141660
G02 X1.251557 Y193.296564 Z-0.125000 I0.213699 J0.237769
G02 X1.310549 Y193.652280 Z-0.125000 I1.101967 J0.000000
G02 X1.392998 Y193.711272 Z-0.125000 I0.082449 J-0.028120
G03 X1.445984 Y193.764259 Z-0.125000 I0.000000 J0.052986
G03 X1.392998 Y193.975559 Z-0.125000 I-0.447807 J-0.000000
G02 X1.302248 Y194.252553 Z-0.125000 I0.738872 J0.395435
G02 X1.251575 Y194.966154 Z-0.125000 I4.997571 J0.713480
G01 X1.251594 Y195.692464 Z-0.125000
G01 X1.936466 Y194.623553 Z-0.125000
G03 X5.540497 Y191.030734 Z-0.125000 I9.944894 J6.371881
G03 X11.467148 Y188.558868 Z-0.125000 I10.096299 J15.866389
G03 X13.083088 Y188.307376 Z-0.125000 I2.622703 J11.534659
G03 X15.734760 Y188.194330 Z-0.125000 I2.651672 J31.043076
G03 X18.386392 Y188.307784 Z-0.125000 I0.000000 J31.043608
G03 X20.012524 Y188.561061 Z-0.125000 I-1.019567 J11.892806
G03 X24.337294 Y190.188824 Z-0.125000 I-3.764144 J16.559953
G03 X27.917851 Y192.843456 Z-0.125000 I-7.526068 J13.893172
G03 X31.497765 Y197.818156 Z-0.125000 I-12.918640 J13.072012
G03 X34.043727 Y205.325160 Z-0.125000 I-27.598971 J13.545277
G03 X34.560890 Y208.954668 Z-0.125000 I-32.026569 J6.415007
G03 X34.765878 Y213.762309 Z-0.125000 I-56.063787 J4.798638
G01 X34.765878 Y217.758852 Z-0.125000
G01 X35.132781 Y217.758852 Z-0.125000
G02 X35.465064 Y217.679202 Z-0.125000 I0.000000 J-0.732933
G02 X35.830939 Y217.403743 Z-0.125000 I-0.596915 J-1.173559
G03 X36.853969 Y216.670597 Z-0.125000 I2.335369 J2.178427
G03 X38.301146 Y216.290346 Z-0.125000 I1.854798 J4.115079
G03 X39.807359 Y216.434954 Z-0.125000 I0.369176 J4.071247
G03 X41.785735 Y217.299378 Z-0.125000 I-2.314817 J7.993974
G02 X42.571987 Y217.673422 Z-0.125000 I2.295941 J-3.812751
G02 X43.044584 Y217.753301 Z-0.125000 I0.457500 J-1.268777
G01 X43.540415 Y217.747741 Z-0.125000
G01 X43.067800 Y217.343763 Z-0.125000
G02 X41.580243 Y216.331387 Z-0.125000 I-5.339699 J6.246929
G02 X40.132491 Y215.786144 Z-0.125000 I-2.847437 J5.365954
G01 X39.730528 Y215.690965 Z-0.125000
G01 X40.366600 Y215.147255 Z-0.125000
G02 X40.994367 Y214.146926 Z-0.125000 I-1.285415 J-1.503821
G02 X40.907191 Y213.093121 Z-0.125000 I-1.533729 J-0.403631
G02 X40.593872 Y212.531637 Z-0.125000 I-3.390956 J1.524062
G02 X40.279755 Y212.167195 Z-0.125000 I-1.723548 J1.167954
G03 X40.074590 Y211.710443 Z-0.125000 I0.430147 J-0.467669
G03 X40.265023 Y211.309640 Z-0.125000 I0.498955 J-0.008574
G02 X40.939984 Y210.505977 Z-0.125000 I-1.588271 J-2.019185
G02 X41.146327 Y209.668726 Z-0.125000 I-1.527945 J-0.820618
G02 X40.931098 Y208.815090 Z-0.125000 I-1.870564 J0.017677
G02 X40.141601 Y207.759722 Z-0.125000 I-3.711985 J1.953864
G03 X39.783228 Y207.143099 Z-0.125000 I0.919674 J-0.946955
G03 X39.890074 Y206.786557 Z-0.125000 I0.348086 J-0.089968
G03 X40.121759 Y206.759505 Z-0.125000 I0.134817 J0.148975
G03 X40.714606 Y207.240292 Z-0.125000 I-1.037296 J1.884971
G02 X41.927148 Y208.316606 Z-0.125000 I4.604773 J-3.966434
G02 X43.346805 Y209.010962 Z-0.125000 I3.223026 J-4.791214
G03 X44.223245 Y209.300217 Z-0.125000 I-124.028150 J377.277598
G03 X44.406674 Y209.362115 Z-0.125000 I-5.523702 J16.671694
G03 X44.444204 Y209.462764 Z-0.125000 I-0.022592 J0.065746
G03 X43.969952 Y210.114378 Z-0.125000 I-3.384031 J-1.964547
G02 X43.075388 Y211.608951 Z-0.125000 I3.377310 J3.036463
G02 X42.739590 Y213.523193 Z-0.125000 I5.317912 J1.919447
G02 X42.809111 Y214.674042 Z-0.125000 I9.260175 J0.018125
G02 X42.978369 Y215.470222 Z-0.125000 I4.657256 J-0.573994
G02 X43.830675 Y217.176097 Z-0.125000 I5.484791 J-1.674508
G02 X44.600735 Y217.693535 Z-0.125000 I1.096536 J-0.800156
G02 X44.910671 Y217.734134 Z-0.125000 I0.334421 J-1.349655
G02 X46.668253 Y217.729947 Z-0.125000 I0.774094 J-43.952857
G01 X48.429751 Y217.690529 Z-0.125000
G01 X48.850367 Y217.170450 Z-0.125000
G02 X49.156798 Y216.606308 Z-0.125000 I-1.375384 J-1.112376
G02 X49.323639 Y215.718597 Z-0.125000 I-3.329187 J-1.085242
G02 X48.732556 Y213.941771 Z-0.125000 I-2.535463 J-0.143275
G02 X47.250040 Y213.250437 Z-0.125000 I-1.483754 J1.246562
G02 X46.504418 Y213.379390 Z-0.125000 I-0.000868 J2.215097
G02 X46.008132 Y213.693986 Z-0.125000 I0.448479 J1.256241
G02 X45.596248 Y214.156915 Z-0.125000 I3.877109 J3.864295
G02 X45.501357 Y214.333030 Z-0.125000 I0.446900 J0.354412
G03 X45.404281 Y214.437807 Z-0.125000 I-0.163000 J-0.053662
G03 X45.274450 Y214.427442 Z-0.125000 I-0.054812 J-0.131733
G03 X44.954517 Y213.390626 Z-0.125000 I0.433591 J-0.701564
G03 X46.616959 Y211.409956 Z-0.125000 I4.279715 J1.904100
G03 X47.263453 Y211.109547 Z-0.125000 I1.266771 J1.880306
G03 X48.049350 Y211.002531 Z-0.125000 I0.767817 J2.699423
G03 X50.853093 Y212.534274 Z-0.125000 I-0.021715 J3.371644
G03 X51.470267 Y216.255872 Z-0.125000 I-3.939362 J2.565260
G02 X51.245601 Y217.144175 Z-0.125000 I542.871108 J137.773006
G02 X51.166407 Y217.461407 Z-0.125000 I70.146779 J17.680161
G02 X51.236351 Y217.650740 Z-0.125000 I0.174466 J0.043134
G02 X51.548640 Y217.734677 Z-0.125000 I0.268289 J-0.375266
G02 X51.878959 Y217.540536 Z-0.125000 I-0.043286 J-0.451727
G02 X52.238507 Y216.734092 Z-0.125000 I-1.984156 J-1.367997
G02 X52.424607 Y215.154140 Z-0.125000 I-6.575704 J-1.575477
G02 X52.236531 Y213.700398 Z-0.125000 I-5.741807 J0.003800
G02 X50.125186 Y210.846472 Z-0.125000 I-4.626332 J1.214625
G02 X46.870315 Y210.383268 Z-0.125000 I-2.156973 J3.489383
G02 X45.993345 Y210.805799 Z-0.125000 I0.735467 J2.647827
G02 X45.093814 Y211.670509 Z-0.125000 I2.649196 J3.656106
G02 X44.445835 Y212.931797 Z-0.125000 I2.921230 J2.297854
G02 X44.361374 Y214.192514 Z-0.125000 I2.834018 J0.823052
G02 X44.937157 Y215.383394 Z-0.125000 I2.202536 J-0.330280
G02 X45.756652 Y215.684657 Z-0.125000 I0.708768 J-0.662761
G02 X46.024488 Y215.526857 Z-0.125000 I-0.043683 J-0.380343
G02 X46.216700 Y215.040685 Z-0.125000 I-0.881069 J-0.629421
G03 X46.803184 Y214.138459 Z-0.125000 I1.242209 J0.165754
G03 X47.816793 Y214.058247 Z-0.125000 I0.585433 J0.953496
G03 X48.547867 Y214.917814 Z-0.125000 I-0.473670 J1.143541
G03 X48.364626 Y216.382398 Z-0.125000 I-2.061244 J0.485863
G03 X47.558171 Y217.189790 Z-0.125000 I-1.688324 J-0.879909
G03 X46.318424 Y217.451837 Z-0.125000 I-1.087292 J-2.080342
G03 X43.360515 Y214.844272 Z-0.125000 I0.209512 J-3.219106
G03 X44.928610 Y210.253392 Z-0.125000 I4.794341 J-0.925654
G03 X46.351281 Y209.423191 Z-0.125000 I2.829116 J3.214026
G03 X48.254404 Y209.096795 Z-0.125000 I1.932677 J5.557407
G03 X50.232397 Y209.497476 Z-0.125000 I0.024891 J4.959720
G03 X51.817586 Y210.623284 Z-0.125000 I-1.812674 J4.231243
G03 X52.611764 Y211.712104 Z-0.125000 I-4.519119 J4.130254
G03 X53.190578 Y213.021834 Z-0.125000 I-5.998865 J3.433866
G03 X53.532301 Y215.343020 Z-0.125000 I-6.748483 J2.179253
G03 X53.100538 Y217.519737 Z-0.125000 I-6.342931 J-0.126974
G02 X53.143624 Y217.665698 Z-0.125000 I0.115843 J0.045144
G02 X53.431875 Y217.758847 Z-0.125000 I0.288251 J-0.399424
G02 X53.788502 Y217.690111 Z-0.125000 I-0.000000 J-0.959521
G02 X53.858488 Y217.588054 Z-0.125000 I-0.041403 J-0.103418
G01 X53.898770 Y217.551842 Z-0.125000
G03 X53.975788 Y217.599004 Z-0.125000 I-0.009527 J0.102027
G02 X54.125274 Y217.708990 Z-0.125000 I0.215903 J-0.136864
G02 X54.483601 Y217.735640 Z-0.125000 I0.248976 J-0.925363
G02 X54.787886 Y217.564355 Z-0.125000 I-0.051374 J-0.447188
G02 X55.525532 Y216.392516 Z-0.125000 I-5.592748 J-4.338591
G02 X57.047640 Y212.237006 Z-0.125000 I-17.590354 J-8.799634
G02 X57.545515 Y208.079471 Z-0.125000 I-17.109950 J-4.157535
G02 X56.788868 Y203.458194 Z-0.125000 I-14.490725 J-0.000000
G02 X54.720894 Y199.684923 Z-0.125000 I-11.595439 J3.901663
G02 X51.713822 Y197.272034 Z-0.125000 I-6.989512 J5.630473
G02 X48.175088 Y196.443954 Z-0.125000 I-3.538734 J7.147206
G02 X42.552805 Y198.649745 Z-0.125000 I-0.000000 J8.268141
G02 X40.808659 Y203.275654 Z-0.125000 I3.767304 J4.062178
G02 X41.202603 Y204.946893 Z-0.125000 I6.610272 J-0.676120
G02 X41.907754 Y206.186324 Z-0.125000 I4.287638 J-1.619063
G02 X43.725574 Y207.452202 Z-0.125000 I3.037381 J-2.423578
G02 X45.923372 Y207.513700 Z-0.125000 I1.201465 J-3.634712
G02 X47.162126 Y206.822200 Z-0.125000 I-0.758589 J-2.814237
G02 X47.410430 Y206.114488 Z-0.125000 I-0.558224 J-0.593270
G02 X47.259921 Y205.916080 Z-0.125000 I-0.253438 J0.035963
G02 X46.546480 Y205.735065 Z-0.125000 I-0.899131 J2.047320
G03 X45.520315 Y205.451212 Z-0.125000 I0.238134 J-2.857671
G03 X45.068169 Y205.008902 Z-0.125000 I0.446219 J-0.908398
G03 X45.010318 Y204.398598 Z-0.125000 I0.726157 J-0.376726
G03 X45.458231 Y203.699642 Z-0.125000 I1.437715 J0.428337
G03 X47.019110 Y203.147352 Z-0.125000 I1.470920 J1.675288
G03 X48.247354 Y203.812279 Z-0.125000 I-0.064013 J1.585105
G03 X48.796845 Y205.562340 Z-0.125000 I-2.414842 J1.719518
G03 X48.211800 Y207.262361 Z-0.125000 I-2.847740 J-0.029341
G03 X45.196818 Y208.638176 Z-0.125000 I-2.796814 J-2.137535
G03 X41.376767 Y206.837930 Z-0.125000 I0.354251 J-5.704830
G03 X40.479736 Y205.530079 Z-0.125000 I3.853871 J-3.604850
G03 X39.821751 Y203.621686 Z-0.125000 I7.697307 J-3.721547
G03 X39.692793 Y202.570853 Z-0.125000 I5.656065 J-1.227439
G03 X39.760184 Y201.604909 Z-0.125000 I4.838952 J-0.147724
G03 X42.835964 Y196.817502 Z-0.125000 I7.180107 J1.231269
G03 X48.942247 Y195.343375 Z-0.125000 I5.001755 J7.334686
G03 X53.602257 Y197.233911 Z-0.125000 I-1.213841 J9.680545
G03 X57.201825 Y201.571297 Z-0.125000 I-7.378878 J9.786005
G03 X58.403845 Y205.089356 Z-0.125000 I-12.703616 J6.304840
G03 X58.734517 Y209.219231 Z-0.125000 I-17.269461 J3.460912
G03 X58.172083 Y213.155791 Z-0.125000 I-19.152644 J-0.727967
G03 X56.869762 Y216.651085 Z-0.125000 I-16.356602 J-4.104086
G02 X56.480105 Y217.484381 Z-0.125000 I13.649932 J6.890584
G02 X56.452443 Y217.618325 Z-0.125000 I0.310457 J0.133944
G02 X56.720936 Y217.893031 Z-0.125000 I0.274777 J0.000000
G02 X57.195828 Y217.635343 Z-0.125000 I0.012433 J-0.543519
G03 X58.122845 Y217.116230 Z-0.125000 I0.931065 J0.575392
G03 X58.638584 Y217.630066 Z-0.125000 I0.001900 J0.513835
G02 X58.691542 Y217.705917 Z-0.125000 I0.080800 J0.000000
G02 X58.989502 Y217.758875 Z-0.125000 I0.297960 J-0.811740
G02 X59.254797 Y217.624256 Z-0.125000 I0.000000 J-0.328719
G02 X59.964182 Y216.426696 Z-0.125000 I-5.807683 J-4.249115
G02 X61.089461 Y213.608168 Z-0.125000 I-23.682261 J-11.088887
G02 X62.093690 Y210.039056 Z-0.125000 I-37.024995 J-12.343425
G02 X62.831515 Y206.548480 Z-0.125000 I-94.211286 J-21.737310
G02 X63.025833 Y205.188550 Z-0.125000 I-14.078106 J-2.705444
G03 X63.353410 Y202.551710 Z-0.125000 I44.696779 J4.213953
G03 X63.490252 Y202.180716 Z-0.125000 I0.982680 J0.151730
G02 X63.554264 Y202.015834 Z-0.125000 I-0.412805 J-0.255129
G02 X63.705055 Y201.045771 Z-0.125000 I-14.684940 J-2.779434
G03 X64.151088 Y197.946499 Z-0.125000 I72.080496 J8.791782
G03 X64.514284 Y196.170706 Z-0.125000 I24.008311 J3.985290
G02 X64.629057 Y195.692067 Z-0.125000 I-64.877222 J-15.809977
G02 X64.997751 Y194.121197 Z-0.125000 I-696.903993 J-164.396716
G03 X66.720082 Y188.825789 Z-0.125000 I31.919881 J7.454142
G03 X68.398187 Y186.067218 Z-0.125000 I10.153174 J4.286719
G02 X69.045972 Y185.172604 Z-0.125000 I-6.358978 J-5.286335
G02 X69.061915 Y185.008307 Z-0.125000 I-0.156531 J-0.098111
G02 X68.736912 Y184.789026 Z-0.125000 I-0.319088 J0.122442
G02 X63.762360 Y185.100034 Z-0.125000 I0.956003 J55.230470
G02 X47.644560 Y189.924780 Z-0.125000 I4.955334 J45.888405
G02 X39.340717 Y197.632784 Z-0.125000 I9.556568 J18.622178
G03 X38.628320 Y198.650510 Z-0.125000 I-8.528506 J-5.211667
G03 X38.524945 Y198.656333 Z-0.125000 I-0.054289 J-0.043268
G03 X38.441863 Y198.520290 Z-0.125000 I0.239978 J-0.239946
G03 X38.325239 Y198.035411 Z-0.125000 I3.162317 J-1.017070
G03 X38.372163 Y197.561604 Z-0.125000 I0.915472 J-0.148563
G03 X38.832426 Y196.680863 Z-0.125000 I3.785066 J1.417390
G03 X46.074027 Y189.862577 Z-0.125000 I19.563903 J13.523791
G03 X58.023732 Y185.055644 Z-0.125000 I20.664109 J34.113015
G03 X60.996538 Y184.513122 Z-0.125000 I8.304174 J37.087477
G03 X64.513847 Y184.136130 Z-0.125000 I7.305834 J51.566227
G03 X70.442189 Y184.061510 Z-0.125000 I3.582979 J49.125155
G03 X70.799009 Y184.435745 Z-0.125000 I-0.017840 J0.374236
G03 X70.759229 Y184.539852 Z-0.125000 I-0.156116 J0.000000
G03 X70.231841 Y185.069552 Z-0.125000 I-5.234690 J-4.684451
G02 X67.994237 Y188.059628 Z-0.125000 I6.490156 J7.189152
G02 X65.613997 Y194.667735 Z-0.125000 I30.870164 J14.852168
G02 X64.860346 Y198.167860 Z-0.125000 I56.140993 J13.919550
G02 X64.025066 Y203.343991 Z-0.125000 I122.011500 J22.344628
G03 X63.776279 Y204.979892 Z-0.125000 I-67.920866 J-9.492511
G03 X63.665555 Y205.530135 Z-0.125000 I-7.782666 J-1.279829
G02 X63.547254 Y206.079149 Z-0.125000 I12.455639 J2.971180
G02 X63.323397 Y207.306377 Z-0.125000 I62.005823 J11.944422
G03 X61.837665 Y213.928044 Z-0.125000 I-66.684836 J-11.484852
G03 X60.602713 Y217.103081 Z-0.125000 I-16.429317 J-4.562605
G02 X60.531891 Y217.597585 Z-0.125000 I0.689391 J0.351056
G02 X60.726461 Y217.758875 Z-0.125000 I0.194570 J-0.036714
G02 X60.971972 Y217.663254 Z-0.125000 I0.000000 J-0.362989
G02 X61.203397 Y217.320928 Z-0.125000 I-0.603861 J-0.657622
G01 X61.368698 Y216.882981 Z-0.125000
G01 X61.820544 Y217.320928 Z-0.125000
G02 X62.311607 Y217.662084 Z-0.125000 I1.285385 J-1.326198
G02 X62.739832 Y217.758875 Z-0.125000 I0.428225 J-0.898884
G01 X63.207271 Y217.758875 Z-0.125000
G01 X62.423373 Y216.966714 Z-0.125000
G03 X61.819608 Y216.133823 Z-0.125000 I2.400287 J-2.375256
G03 X61.792003 Y215.737007 Z-0.125000 I0.449169 J-0.230616
G03 X61.974259 Y215.341305 Z-0.125000 I2.141761 J0.746649
G03 X62.047084 Y215.299463 Z-0.125000 I0.072825 J0.042455
G03 X62.134767 Y215.334552 Z-0.125000 I0.000000 J0.127102
G03 X63.337536 Y216.529171 Z-0.125000 I-28.261207 J29.656820
G02 X64.577618 Y217.635891 Z-0.125000 I8.077963 J-7.803246
G02 X64.939873 Y217.758875 Z-0.125000 I0.362255 J-0.472030
G02 X65.020617 Y217.613159 Z-0.125000 I0.000000 J-0.095229
G02 X64.080117 Y216.383871 Z-0.125000 I-6.969863 J4.358066
G03 X62.859837 Y214.982390 Z-0.125000 I22.005989 J-20.392760
G03 X62.767391 Y214.778422 Z-0.125000 I0.337337 J-0.275828
G03 X62.806840 Y214.583289 Z-0.125000 I0.274922 J-0.045974
G03 X63.032626 Y214.359714 Z-0.125000 I0.599809 J0.379945
G03 X63.311917 Y214.333741 Z-0.125000 I0.165719 J0.267386
G03 X63.738504 Y214.632984 Z-0.125000 I-0.391952 J1.012430
G02 X64.144982 Y215.090641 Z-0.125000 I24.332598 J-21.202254
G02 X65.362331 Y216.426696 Z-0.125000 I208.327956 J-188.595775
G02 X66.640063 Y217.631446 Z-0.125000 I8.918364 J-8.178678
G02 X66.998371 Y217.758875 Z-0.125000 I0.358307 J-0.440036
G02 X67.081847 Y217.613394 Z-0.125000 I-0.000000 J-0.096690
G02 X66.270714 Y216.513945 Z-0.125000 I-5.538956 J3.237500
G03 X65.139539 Y215.259545 Z-0.125000 I73.070132 J-67.029419
G03 X64.544781 Y214.566910 Z-0.125000 I21.680675 J-19.218622
G01 X63.960861 Y213.864806 Z-0.125000
G01 X64.252492 Y213.625699 Z-0.125000
G03 X64.716944 Y213.542327 Z-0.125000 I0.306898 J0.374299
G03 X65.374368 Y214.011909 Z-0.125000 I-0.461839 J1.341578
G02 X65.877648 Y214.623717 Z-0.125000 I11.789029 J-9.184884
G02 X67.271367 Y216.197238 Z-0.125000 I79.437928 J-68.956787
G02 X68.744808 Y217.614322 Z-0.125000 I10.838316 J-9.794788
G02 X69.140028 Y217.758062 Z-0.125000 I0.396314 J-0.474478
G01 X69.598871 Y217.758909 Z-0.125000
G01 X68.456858 Y216.523831 Z-0.125000
G03 X67.320838 Y215.283331 Z-0.125000 I128.508474 J-118.825517
G03 X66.383053 Y214.237340 Z-0.125000 I90.453675 J-82.039711
G03 X65.685724 Y213.205312 Z-0.125000 I3.569969 J-3.163789
G03 X65.740723 Y212.951538 Z-0.125000 I0.185466 J-0.092651
G03 X66.039262 Y212.783165 Z-0.125000 I0.648194 J0.800444
G03 X66.194294 Y212.787841 Z-0.125000 I0.071602 J0.198394
G03 X66.333763 Y212.890217 Z-0.125000 I-0.152398 J0.353803
G03 X67.218298 Y213.976538 Z-0.125000 I-19.137727 J16.486132
G02 X68.107315 Y215.069848 Z-0.125000 I20.636376 J-15.872219
G02 X69.336125 Y216.441625 Z-0.125000 I33.731306 J-28.979544
G02 X70.638772 Y217.660774 Z-0.125000 I9.694799 J-9.053288
G02 X70.924974 Y217.739647 Z-0.125000 I0.232347 J-0.284405
G02 X70.991459 Y217.594343 Z-0.125000 I-0.013972 J-0.094256
G02 X69.983604 Y216.255934 Z-0.125000 I-8.845641 J5.612308
G03 X67.085057 Y212.818976 Z-0.125000 I67.637942 J-59.982968
G03 X66.973258 Y212.500779 Z-0.125000 I0.396926 J-0.318198
G03 X67.031298 Y212.370235 Z-0.125000 I0.175829 J0.000000
G03 X67.246924 Y212.253854 Z-0.125000 I0.346478 J0.383995
G03 X67.475234 Y212.312364 Z-0.125000 I0.061440 J0.234951
G03 X68.375053 Y213.320792 Z-0.125000 I-5.487136 J5.801838
G02 X69.261559 Y214.432572 Z-0.125000 I19.405318 J-14.563981
G02 X70.516273 Y215.850375 Z-0.125000 I32.839249 J-27.797690
G03 X71.636541 Y217.257169 Z-0.125000 I-8.933461 J8.263401
G03 X71.641440 Y217.500182 Z-0.125000 I-0.183664 J0.125258
G02 X71.667320 Y217.654968 Z-0.125000 I0.100486 J0.062756
G02 X71.960591 Y217.758909 Z-0.125000 I0.293271 J-0.361765
G02 X72.401630 Y217.646692 Z-0.125000 I0.000000 J-0.922806
G02 X73.430568 Y216.959105 Z-0.125000 I-3.261484 J-5.994308
G03 X79.308004 Y213.275869 Z-0.125000 I18.199129 J22.509818
G03 X84.907631 Y211.560075 Z-0.125000 I8.784683 J18.674194
G02 X86.364738 Y211.183501 Z-0.125000 I-1.187544 J-7.602386
G02 X86.511921 Y210.972901 Z-0.125000 I-0.077080 J-0.210601
G02 X86.004859 Y209.834813 Z-0.125000 I-1.530736 J0.000000
G02 X80.909928 Y205.934085 Z-0.125000 I-27.151439 J30.186088
G02 X77.335056 Y204.062079 Z-0.125000 I-11.941798 J18.455251
G02 X73.668326 Y202.953362 Z-0.125000 I-7.539707 J18.317546
G02 X69.899604 Y202.535314 Z-0.125000 I-4.300035 J21.568402
G02 X66.631674 Y202.783317 Z-0.125000 I-0.396910 J16.424649
G03 X65.399745 Y202.976462 Z-0.125000 I-5.411346 J-30.489568
G03 X65.026224 Y203.002003 Z-0.125000 I-0.376761 J-2.765946
G03 X64.772539 Y202.880214 Z-0.125000 I-0.000272 J-0.324540
G03 X64.650482 Y202.532283 Z-0.125000 I0.434869 J-0.347930
G03 X64.711894 Y202.096371 Z-0.125000 I1.577803 J0.000000
G03 X64.814837 Y201.960552 Z-0.125000 I0.227263 J0.065331
G03 X65.454789 Y201.748201 Z-0.125000 I0.767019 J1.241059
G03 X69.091085 Y201.586692 Z-0.125000 I3.702995 J42.355566
G03 X71.302548 Y201.725773 Z-0.125000 I0.028527 J17.197702
G03 X74.146546 Y202.233427 Z-0.125000 I-3.715690 J29.036373
G03 X78.705570 Y203.891791 Z-0.125000 I-4.434921 J19.287899
G03 X83.491598 Y207.000933 Z-0.125000 I-12.447804 J24.399635
G03 X87.716350 Y210.804815 Z-0.125000 I-34.053370 J42.069152
G03 X88.014895 Y211.525737 Z-0.125000 I-0.721165 J0.720923
G03 X87.926877 Y211.644946 Z-0.125000 I-0.124735 J0.000000
G03 X87.092616 Y211.809803 Z-0.125000 I-1.209253 J-3.926127
G02 X80.829744 Y213.302165 Z-0.125000 I2.068892 J22.569964
G02 X74.850211 Y216.649104 Z-0.125000 I9.438499 J23.877407
G01 X73.463376 Y217.690591 Z-0.125000
G01 X74.337723 Y217.731798 Z-0.125000
G02 X75.160946 Y217.637250 Z-0.125000 I0.121343 J-2.574597
G02 X75.635745 Y217.364435 Z-0.125000 I-0.306498 J-1.082994
G03 X76.434998 Y216.842855 Z-0.125000 I1.762518 J1.827662
G03 X77.332180 Y216.668837 Z-0.125000 I0.883306 J2.154237
G03 X78.522378 Y216.923644 Z-0.125000 I-0.017788 J2.990180
G03 X79.159154 Y217.475648 Z-0.125000 I-0.579101 J1.311320
G02 X79.683766 Y217.806480 Z-0.125000 I0.604825 J-0.377728
G02 X79.953488 Y217.565570 Z-0.125000 I0.027272 J-0.240911
G02 X79.643561 Y216.911990 Z-0.125000 I-0.844102 J-0.000000
G02 X78.141489 Y216.084608 Z-0.125000 I-3.002358 J3.673476
G03 X77.617006 Y215.859738 Z-0.125000 I1.084609 J-3.253798
G03 X77.534412 Y215.762102 Z-0.125000 I0.080808 J-0.152112
G03 X77.651996 Y215.461387 Z-0.125000 I0.239322 J-0.079768
G03 X80.963584 Y213.872700 Z-0.125000 I15.752632 J28.590256
G03 X84.523562 Y212.756159 Z-0.125000 I8.173514 J19.826830
G03 X88.286878 Y212.259479 Z-0.125000 I4.775663 J21.679350
G02 X88.955205 Y212.130781 Z-0.125000 I-0.107680 J-2.358851
G02 X89.083262 Y211.982367 Z-0.125000 I-0.064371 J-0.184993
G02 X88.990847 Y211.617254 Z-0.125000 I-0.438199 J-0.083339
G02 X86.528631 Y208.847417 Z-0.125000 I-33.480013 J27.282390
G03 X85.722265 Y207.929673 Z-0.125000 I9.011788 J-8.731233
G03 X85.727315 Y207.840516 Z-0.125000 I0.052462 J-0.041750
G03 X85.830762 Y207.806643 Z-0.125000 I0.085147 J0.085137
G03 X86.812871 Y208.007434 Z-0.125000 I-1.552060 J10.093694
G02 X89.328097 Y208.305753 Z-0.125000 I2.374893 J-9.270986
G02 X92.113913 Y207.929699 Z-0.125000 I-0.172858 J-11.787243
G02 X94.453626 Y207.086140 Z-0.125000 I-3.384888 J-13.054913
G02 X95.053594 Y206.551593 Z-0.125000 I-0.597548 J-1.274651
G03 X95.158651 Y206.458926 Z-0.125000 I0.205382 J0.126957
G03 X95.345417 Y206.418288 Z-0.125000 I0.186766 J0.408857
G03 X95.408560 Y206.504902 Z-0.125000 I0.000000 J0.066323
G03 X95.049058 Y207.340568 Z-0.125000 I-4.548704 J-1.461684
G03 X92.670951 Y210.669618 Z-0.125000 I-15.148476 J-8.307391
G03 X89.499573 Y213.430819 Z-0.125000 I-13.490328 J-12.292472
G02 X87.009762 Y215.183540 Z-0.125000 I69.072435 J100.764972
G02 X85.178223 Y216.554122 Z-0.125000 I40.395159 J55.890024
G02 X84.101089 Y217.577693 Z-0.125000 I4.516862 J5.831763
G02 X84.164015 Y217.734082 Z-0.125000 I0.071998 J0.061884
G02 X84.588705 Y217.680442 Z-0.125000 I0.093152 J-0.970528
G02 X85.108675 Y217.392497 Z-0.125000 I-0.639163 J-1.767650
G03 X86.765257 Y216.131769 Z-0.125000 I45.939221 J58.644885
G03 X88.738575 Y214.709249 Z-0.125000 I60.467945 J81.801117
G03 X106.866749 Y205.488024 Z-0.125000 I41.295500 J58.753707
G03 X119.713977 Y204.152165 Z-0.125000 I9.343713 J27.415258
G03 X126.868861 Y206.862948 Z-0.125000 I-1.939605 J15.917176
G03 X130.445087 Y211.542061 Z-0.125000 I-5.388212 J7.824392
G03 X130.871275 Y213.911128 Z-0.125000 I-7.152822 J2.509639
G03 X130.535032 Y216.392569 Z-0.125000 I-8.201840 J0.152124
G03 X130.261175 Y217.276790 Z-0.125000 I-35.685462 J-10.567827
G03 X130.170480 Y217.519799 Z-0.125000 I-2.778616 J-0.898599
G02 X130.207559 Y217.667169 Z-0.125000 I0.115844 J0.049203
G02 X130.468492 Y217.758909 Z-0.125000 I0.260933 J-0.325212
G02 X130.768043 Y217.622514 Z-0.125000 I0.000000 J-0.397134
G02 X131.094904 Y217.039253 Z-0.125000 I-1.236069 J-1.075916
G02 X131.054755 Y211.207493 Z-0.125000 I-9.052971 J-2.853692
G02 X127.543623 Y206.291655 Z-0.125000 I-9.670677 J3.195440
G02 X125.232418 Y204.827287 Z-0.125000 I-9.777558 J12.875802
G02 X123.682072 Y204.281110 Z-0.125000 I-2.694678 J5.175504
G03 X123.589098 Y204.056807 Z-0.125000 I0.028661 J-0.143300
G03 X124.068883 Y203.700265 Z-0.125000 I0.737197 J0.490932
G02 X126.606143 Y201.886299 Z-0.125000 I-1.416108 J-4.662223
G02 X127.917878 Y198.357898 Z-0.125000 I-5.758638 J-4.148887
G03 X129.846792 Y193.488522 Z-0.125000 I9.133930 J0.801500
G03 X133.797142 Y190.888107 Z-0.125000 I5.874928 J4.623999
G03 X134.685432 Y190.729596 Z-0.125000 I1.388155 J5.210918
G03 X136.383322 Y190.647349 Z-0.125000 I1.774024 J19.056144
G03 X138.074449 Y190.742387 Z-0.125000 I0.056010 J14.096987
G03 X139.000245 Y190.952956 Z-0.125000 I-0.513719 J4.399117
G03 X141.969606 Y193.033775 Z-0.125000 I-2.130602 J6.199475
G03 X143.602200 Y196.651348 Z-0.125000 I-6.110685 J4.934902
G03 X143.708065 Y197.913550 Z-0.125000 I-7.368841 J1.253591
G03 X143.599321 Y199.141584 Z-0.125000 I-7.080519 J-0.008157
G03 X141.805381 Y202.775106 Z-0.125000 I-7.140051 J-1.265569
G03 X138.555601 Y204.645535 Z-0.125000 I-4.577435 J-4.194689
G03 X137.784876 Y204.750090 Z-0.125000 I-1.032068 J-4.714896
G03 X136.506092 Y204.756674 Z-0.125000 I-0.706488 J-13.028379
G03 X135.249807 Y204.589708 Z-0.125000 I0.315309 J-7.182202
G03 X134.333748 Y204.270016 Z-0.125000 I0.921145 J-4.111784
G03 X133.472242 Y203.800822 Z-0.125000 I4.499889 J-9.287949
G03 X133.104044 Y203.522409 Z-0.125000 I1.187062 J-1.952554
G03 X131.185570 Y199.410223 Z-0.125000 I4.104907 J-4.418688
G03 X132.695138 Y195.486566 Z-0.125000 I5.170146 J-0.263085
G03 X134.781997 Y194.238502 Z-0.125000 I3.524503 J3.524512
G03 X137.239844 Y194.117565 Z-0.125000 I1.472408 J4.887984
G03 X138.604335 Y194.606870 Z-0.125000 I-0.935903 J4.757069
G03 X139.641090 Y195.411879 Z-0.125000 I-1.886153 J3.499252
G03 X140.495176 Y196.801484 Z-0.125000 I-3.116741 J2.872903
G03 X140.817756 Y198.561834 Z-0.125000 I-4.780479 J1.785742
G03 X140.704551 Y199.759384 Z-0.125000 I-6.070410 J0.030288
G03 X140.453339 Y200.421811 Z-0.125000 I-2.066949 J-0.405000
G03 X139.582126 Y201.502786 Z-0.125000 I-4.088110 J-2.403252
G03 X138.579336 Y202.152025 Z-0.125000 I-2.381692 J-2.579616
G03 X136.954396 Y202.484177 Z-0.125000 I-1.623471 J-3.801474
G03 X135.621497 Y202.150897 Z-0.125000 I0.001008 J-2.836021
G03 X134.643013 Y201.368672 Z-0.125000 I1.603180 J-3.008522
G03 X134.061915 Y200.342360 Z-0.125000 I2.288252 J-1.973275
G03 X133.956868 Y199.824669 Z-0.125000 I2.120349 J-0.699750
G03 X133.949096 Y198.963244 Z-0.125000 I5.917890 J-0.484140
G03 X134.694117 Y197.390416 Z-0.125000 I2.348407 J0.149533
G03 X136.353486 Y196.724929 Z-0.125000 I1.692099 J1.817656
G03 X137.835869 Y197.300764 Z-0.125000 I0.028003 J2.123890
G03 X138.432261 Y198.677915 Z-0.125000 I-1.295191 J1.378612
G03 X138.311243 Y199.290356 Z-0.125000 I-1.610208 J0.000000
G03 X137.968212 Y199.805144 Z-0.125000 I-1.457038 J-0.599219
G03 X137.105320 Y200.233666 Z-0.125000 I-1.068448 J-1.068436
G03 X136.103200 Y200.061241 Z-0.125000 I-0.228978 J-1.667531
G03 X135.685957 Y199.477643 Z-0.125000 I0.361783 J-0.699609
G03 X135.911749 Y198.775640 Z-0.125000 I0.823095 J-0.122573
G03 X136.118616 Y198.686691 Z-0.125000 I0.210265 J0.203981
G03 X136.456426 Y198.769318 Z-0.125000 I0.008106 J0.698721
G02 X136.780992 Y198.847782 Z-0.125000 I0.313286 J-0.585392
G02 X136.933196 Y198.761219 Z-0.125000 I-0.003102 J-0.182545
G02 X136.671058 Y197.929334 Z-0.125000 I-0.489994 J-0.302841
G02 X135.515783 Y198.150746 Z-0.125000 I-0.414436 J0.962253
G02 X135.095956 Y198.950675 Z-0.125000 I1.073629 J1.073607
G02 X135.197097 Y199.889901 Z-0.125000 I1.632855 J0.299223
G02 X135.806910 Y200.585676 Z-0.125000 I1.341234 J-0.560403
G02 X136.871355 Y200.864753 Z-0.125000 I1.034725 J-1.777088
G02 X138.385444 Y200.299140 Z-0.125000 I-0.034748 J-2.402354
G02 X139.078581 Y199.003492 Z-0.125000 I-1.280097 J-1.518047
G02 X138.044860 Y196.660679 Z-0.125000 I-2.526354 J-0.284756
G02 X135.272315 Y196.242950 Z-0.125000 I-1.789491 J2.467367
G02 X133.174535 Y199.217240 Z-0.125000 I0.998835 J2.931415
G02 X135.361291 Y202.668145 Z-0.125000 I3.901553 J-0.054021
G02 X136.137621 Y202.913156 Z-0.125000 I1.202548 J-2.457903
G02 X137.306796 Y202.974926 Z-0.125000 I0.881586 J-5.590682
G02 X139.097629 Y202.574975 Z-0.125000 I-0.277353 J-5.451208
G02 X140.296757 Y201.750720 Z-0.125000 I-1.300553 J-3.176420
G02 X141.498326 Y197.547958 Z-0.125000 I-3.470048 J-3.265232
G02 X138.732120 Y193.954291 Z-0.125000 I-5.028428 J1.009137
G02 X137.789179 Y193.642102 Z-0.125000 I-1.602946 J3.261435
G02 X136.316309 Y193.508120 Z-0.125000 I-1.463235 J7.922741
G02 X134.845389 Y193.654438 Z-0.125000 I0.008791 J7.555064
G02 X133.772962 Y194.016053 Z-0.125000 I0.867633 J4.344142
G02 X131.521006 Y196.075982 Z-0.125000 I2.356154 J4.836699
G02 X130.646763 Y199.204065 Z-0.125000 I5.218827 J3.144777
G02 X132.109760 Y203.250621 Z-0.125000 I6.279848 J0.017322
G02 X135.775196 Y205.335072 Z-0.125000 I4.625916 J-3.869520
G03 X136.774964 Y205.539531 Z-0.125000 I-1.944925 J12.056871
G03 X136.866247 Y205.606135 Z-0.125000 I-0.036111 J0.145348
G03 X136.855533 Y205.693786 Z-0.125000 I-0.060104 J0.037134
G03 X136.460524 Y206.002798 Z-0.125000 I-1.593020 J-1.629377
G02 X135.349571 Y206.945914 Z-0.125000 I2.559573 J4.140964
G02 X134.132882 Y208.674559 Z-0.125000 I7.721779 J6.727391
G02 X133.233958 Y210.826535 Z-0.125000 I8.930281 J4.994097
G02 X132.869156 Y213.044996 Z-0.125000 I9.134889 J2.641360
G02 X133.019309 Y215.225556 Z-0.125000 I9.662195 J0.430113
G02 X133.604630 Y217.041539 Z-0.125000 I7.247864 J-1.333784
G02 X134.027291 Y217.626962 Z-0.125000 I1.786630 J-0.844617
G02 X134.356704 Y217.758869 Z-0.125000 I0.329413 J-0.345370
G01 X134.769666 Y217.758869 Z-0.125000
G01 X134.405467 Y217.137405 Z-0.125000
G03 X133.751507 Y215.525406 Z-0.125000 I5.204557 J-3.050046
G03 X133.500324 Y213.449852 Z-0.125000 I8.461542 J-2.076993
G03 X133.598947 Y211.957119 Z-0.125000 I11.346122 J-0.000000
G03 X133.845117 Y210.853806 Z-0.125000 I6.406006 J0.850186
G03 X135.569509 Y207.800934 Z-0.125000 I8.128478 J2.577869
G03 X138.420676 Y205.649814 Z-0.125000 I6.645294 J5.842822
G02 X139.730542 Y205.027338 Z-0.125000 I-632.328654 J-1332.286934
G02 X140.482332 Y204.668832 Z-0.125000 I-210.204954 J-441.769891
G02 X143.225265 Y202.157826 Z-0.125000 I-2.753464 J-5.761429
G02 X144.308083 Y198.199568 Z-0.125000 I-6.693331 J-3.958258
G03 X144.362141 Y197.446677 Z-0.125000 I5.269991 J-0.000000
G03 X144.432187 Y197.339832 Z-0.125000 I0.149407 J0.021566
G03 X144.530707 Y197.359668 Z-0.125000 I0.038661 J0.062559
G03 X145.133447 Y198.322363 Z-0.125000 I-7.645832 J5.457063
G02 X147.579309 Y202.235350 Z-0.125000 I33.933536 J-18.489679
G02 X150.478147 Y205.834503 Z-0.125000 I31.580989 J-22.469057
G03 X150.962121 Y206.428000 Z-0.125000 I-5.289774 J4.807698
G03 X151.003148 Y206.553797 Z-0.125000 I-0.172351 J0.125798
G01 X150.942731 Y206.596970 Z-0.125000
G03 X150.149186 Y206.261393 Z-0.125000 I1.990210 J-5.812327
G02 X147.276954 Y205.665020 Z-0.125000 I-2.532568 J4.982515
G02 X146.274370 Y206.497305 Z-0.125000 I0.067017 J1.100737
G02 X146.233504 Y207.435426 Z-0.125000 I2.265807 J0.568654
G02 X146.559525 Y208.277371 Z-0.125000 I2.132094 J-0.341504
G02 X147.275093 Y209.020166 Z-0.125000 I2.324064 J-1.522809
G02 X148.559778 Y209.697465 Z-0.125000 I3.188989 J-4.491768
G03 X149.061343 Y209.940746 Z-0.125000 I-0.978376 J2.655757
G03 X149.116588 Y210.039050 Z-0.125000 I-0.060550 J0.098704
G03 X149.060397 Y210.133380 Z-0.125000 I-0.107273 J0.000000
G03 X148.572881 Y210.333244 Z-0.125000 I-1.172000 J-2.164265
G02 X147.659676 Y210.710669 Z-0.125000 I1.250485 J4.319120
G02 X146.969549 Y211.213343 Z-0.125000 I1.615483 J2.943001
G01 X146.556736 Y211.603357 Z-0.125000
G01 X145.795290 Y210.752031 Z-0.125000
G02 X140.754864 Y208.859382 Z-0.125000 I-4.329694 J3.872613
G02 X136.616260 Y211.883606 Z-0.125000 I0.644189 J5.225481
G02 X136.427325 Y212.519389 Z-0.125000 I2.121824 J0.976504
G02 X136.324138 Y213.864801 Z-0.125000 I9.563579 J1.410151
G02 X136.441188 Y215.201444 Z-0.125000 I7.148628 J0.047436
G02 X136.721989 Y216.034384 Z-0.125000 I3.016114 J-0.552991
G02 X137.200467 Y216.778168 Z-0.125000 I3.848388 J-1.949883
G02 X137.732232 Y217.298249 Z-0.125000 I2.383722 J-1.905379
G02 X138.375673 Y217.639251 Z-0.125000 I1.346990 J-1.764089
G02 X139.101481 Y217.755869 Z-0.125000 I0.716945 J-2.145176
G01 X139.867480 Y217.752878 Z-0.125000
G01 X139.272835 Y217.483045 Z-0.125000
G03 X137.499032 Y216.000444 Z-0.125000 I1.789268 J-3.943104
G03 X136.880319 Y214.018434 Z-0.125000 I2.874203 J-1.984800
G03 X137.083335 Y212.594829 Z-0.125000 I5.046170 J-0.006657
G03 X137.649035 Y211.388445 Z-0.125000 I4.172425 J1.220715
G03 X139.810940 Y209.726116 Z-0.125000 I3.564337 J2.398547
G03 X142.772865 Y209.618914 Z-0.125000 I1.656506 J4.796567
G03 X144.699676 Y210.626847 Z-0.125000 I-1.271476 J4.776269
G03 X146.065853 Y212.413755 Z-0.125000 I-3.422168 J4.032121
G03 X146.306657 Y213.207980 Z-0.125000 I-2.616844 J1.227027
G03 X146.420130 Y214.752929 Z-0.125000 I-9.956145 J1.507897
G03 X146.314229 Y216.303956 Z-0.125000 I-12.059370 J-0.044261
G03 X146.114700 Y217.041548 Z-0.125000 I-2.887772 J-0.385397
G01 X145.815048 Y217.758878 Z-0.125000
G01 X146.139798 Y217.758878 Z-0.125000
G02 X146.548383 Y217.482639 Z-0.125000 I0.000000 J-0.440288
G02 X147.099845 Y215.367784 Z-0.125000 I-8.023606 J-3.221532
G01 X147.258530 Y214.138077 Z-0.125000
G01 X147.753582 Y214.181674 Z-0.125000
G02 X148.244442 Y214.179332 Z-0.125000 I0.232824 J-2.642528
G02 X148.764236 Y214.082902 Z-0.125000 I-0.299326 J-3.062656
G03 X149.270039 Y213.977733 Z-0.125000 I1.068457 J3.869784
G03 X149.340641 Y214.001315 Z-0.125000 I0.011680 J0.082514
G03 X149.353740 Y214.069386 Z-0.125000 I-0.043715 J0.043708
G03 X148.917432 Y214.988206 Z-0.125000 I-12.230486 J-5.244724
G02 X148.134384 Y216.782724 Z-0.125000 I12.382717 J6.471374
G02 X147.997202 Y217.578727 Z-0.125000 I2.240818 J0.796002
G02 X148.063291 Y217.692792 Z-0.125000 I0.131480 J-0.000000
G02 X148.311445 Y217.758878 Z-0.125000 I0.248154 J-0.432874
G02 X148.524869 Y217.635231 Z-0.125000 I0.000000 J-0.246018
G02 X148.801086 Y216.904916 Z-0.125000 I-2.138766 J-1.226308
G03 X150.326239 Y213.907107 Z-0.125000 I6.219634 J1.277406
G03 X153.949333 Y211.251784 Z-0.125000 I8.372983 J7.625187
G03 X155.352371 Y210.779461 Z-0.125000 I2.877909 J6.228819
G03 X155.512071 Y210.907834 Z-0.125000 I0.028254 J0.128373
G03 X155.462359 Y210.994489 Z-0.125000 I-0.100382 J-0.000000
G03 X154.074420 Y211.748487 Z-0.125000 I-12.667998 J-21.664489
G02 X151.144691 Y213.964945 Z-0.125000 I4.573764 J9.090128
G02 X149.650541 Y216.577724 Z-0.125000 I5.036640 J4.613878
G02 X149.483012 Y217.615133 Z-0.125000 I3.672555 J1.125305
G02 X149.623504 Y217.758878 Z-0.125000 I0.140492 J0.003216
G02 X149.805854 Y217.654190 Z-0.125000 I0.000000 J-0.211157
G02 X150.165326 Y216.830923 Z-0.125000 I-3.328829 J-1.943613
G03 X151.753433 Y214.195690 Z-0.125000 I6.009090 J1.825194
G03 X155.146003 Y211.894294 Z-0.125000 I7.848539 J7.918562
G01 X156.191513 Y211.438440 Z-0.125000
G01 X156.671604 Y211.804615 Z-0.125000
G03 X157.114292 Y212.189299 Z-0.125000 I-2.789284 J3.656937
G03 X157.151681 Y212.278777 Z-0.125000 I-0.088377 J0.089478
G03 X157.101352 Y212.335926 Z-0.125000 I-0.057612 J0.000000
G03 X156.366036 Y212.378904 Z-0.125000 I-0.681422 J-5.346793
G02 X155.350618 Y213.346814 Z-0.125000 I-0.010061 J1.006029
G02 X156.276349 Y214.744321 Z-0.125000 I1.435554 J0.054430
G03 X156.643683 Y215.078250 Z-0.125000 I-0.240492 J0.633555
G03 X156.537799 Y215.274698 Z-0.125000 I-0.122836 J0.060552
G03 X156.214608 Y215.230863 Z-0.125000 I-0.078843 J-0.632039
G03 X155.747904 Y214.946567 Z-0.125000 I0.686014 J-1.651391
G02 X154.245499 Y214.265644 Z-0.125000 I-1.957791 J2.321782
G02 X153.199776 Y214.560123 Z-0.125000 I-0.197535 J1.302502
G02 X152.880426 Y214.960885 Z-0.125000 I0.836660 J0.994320
G02 X152.779392 Y215.378853 Z-0.125000 I0.814032 J0.417967
G03 X152.654850 Y215.764993 Z-0.125000 I-0.660880 J0.000000
G03 X152.271689 Y216.084036 Z-0.125000 I-0.809964 J-0.583140
G02 X151.568356 Y216.712891 Z-0.125000 I0.711023 J1.502974
G02 X151.462967 Y217.392601 Z-0.125000 I0.751702 J0.464577
G02 X151.650074 Y217.636860 Z-0.125000 I0.376272 J-0.094438
G02 X152.118781 Y217.758878 Z-0.125000 I0.468706 J-0.839215
G01 X152.682658 Y217.758878 Z-0.125000
G01 X152.295477 Y217.400052 Z-0.125000
G03 X152.095920 Y217.052095 Z-0.125000 I0.457381 J-0.493515
G03 X152.173052 Y216.847506 Z-0.125000 I0.195186 J-0.043247
G03 X152.458808 Y216.725932 Z-0.125000 I0.403169 J0.551020
G03 X153.052662 Y216.693954 Z-0.125000 I0.430617 J2.466764
G03 X153.455554 Y216.935382 Z-0.125000 I-0.033500 J0.512789
G03 X153.523694 Y217.451450 Z-0.125000 I-0.536008 J0.333305
G02 X153.740711 Y217.686614 Z-0.125000 I0.177679 J0.053749
G02 X154.298874 Y217.283361 Z-0.125000 I-0.182156 J-0.840049
G03 X154.650280 Y216.884263 Z-0.125000 I1.219551 J0.719559
G03 X155.487286 Y216.361082 Z-0.125000 I2.991290 J3.854456
G01 X156.395139 Y215.914318 Z-0.125000
G01 X158.788761 Y215.918044 Z-0.125000
G03 X162.181576 Y216.263066 Z-0.125000 I-0.026637 J17.116239
G03 X164.859847 Y217.155851 Z-0.125000 I-2.343452 J11.493816
G02 X166.161464 Y217.630705 Z-0.125000 I3.208086 J-6.772296
G02 X167.141769 Y217.756146 Z-0.125000 I0.970020 J-3.687383
G01 X168.150716 Y217.753324 Z-0.125000
G01 X166.852694 Y217.205499 Z-0.125000
G03 X160.125003 Y213.488580 Z-0.125000 I14.206693 J-33.661454
G03 X153.189295 Y207.653347 Z-0.125000 I29.111822 J-41.641540
G03 X145.958830 Y198.111947 Z-0.125000 I31.889797 J-31.676380
G03 X143.037406 Y189.711385 Z-0.125000 I21.592259 J-12.217307
G03 X143.029068 Y189.355669 Z-0.125000 I1.345637 J-0.209495
G03 X143.085417 Y189.266241 Z-0.125000 I0.119643 J0.012921
G03 X143.191402 Y189.262324 Z-0.125000 I0.056440 J0.091302
G03 X144.039069 Y189.762453 Z-0.125000 I-4.266342 J8.199421
G02 X148.831019 Y192.025557 Z-0.125000 I10.140339 J-15.266547
G02 X153.940782 Y192.783518 Z-0.125000 I5.081726 J-16.655649
G02 X158.598073 Y191.852163 Z-0.125000 I-0.019635 J-12.208390
G02 X167.809131 Y187.031899 Z-0.125000 I-22.408111 J-54.030585
G03 X175.178592 Y182.527721 Z-0.125000 I103.777998 J161.514394
G03 X177.988362 Y181.120721 Z-0.125000 I12.761960 J21.976502
G01 X178.808167 Y180.771807 Z-0.125000
G01 X178.849811 Y180.136533 Z-0.125000
G02 X178.853600 Y179.536707 Z-0.125000 I-5.067119 J-0.331931
G01 X178.816227 Y179.501256 Z-0.125000
G02 X178.744290 Y179.516149 Z-0.125000 I0.000000 J0.181192
G02 X177.681510 Y179.992103 Z-0.125000 I18.081692 J41.799969
G03 X172.695425 Y181.943838 Z-0.125000 I-18.538308 J-40.014868
G03 X171.719348 Y181.917457 Z-0.125000 I-0.450675 J-1.395586
G03 X171.553602 Y181.626299 Z-0.125000 I0.094643 J-0.246633
G03 X171.805674 Y181.412575 Z-0.125000 I0.253375 J0.043326
G02 X173.690265 Y181.084822 Z-0.125000 I-0.029127 J-5.749578
G02 X178.204462 Y179.154024 Z-0.125000 I-12.607480 J-35.718723
G02 X178.782278 Y178.755611 Z-0.125000 I-1.181774 J-2.332123
G02 X178.876484 Y178.542516 Z-0.125000 I-0.193906 J-0.213094
G02 X178.841108 Y178.306925 Z-0.125000 I-0.802160 J-0.000000
G02 X178.793231 Y178.271549 Z-0.125000 I-0.047876 J0.014710
G02 X178.713277 Y178.287355 Z-0.125000 I0.000000 J0.210134
G02 X177.282225 Y178.893242 Z-0.125000 I29.056820 J70.622532
G03 X170.814410 Y181.114151 Z-0.125000 I-17.101100 J-39.274123
G03 X170.268543 Y180.690527 Z-0.125000 I-0.108555 J-0.423624
G03 X170.345767 Y180.577772 Z-0.125000 I0.120928 J0.000000
G03 X171.737357 Y180.121208 Z-0.125000 I5.019304 J12.949621
G02 X174.448611 Y179.285530 Z-0.125000 I-10.675219 J-39.450410
G02 X177.533823 Y178.111758 Z-0.125000 I-18.120594 J-52.270815
G02 X178.747697 Y177.468548 Z-0.125000 I-2.808398 J-6.767070
G02 X178.876484 Y177.229875 Z-0.125000 I-0.156765 J-0.238673
G02 X178.700414 Y177.058149 Z-0.125000 I-0.171780 J0.000000
G02 X177.821464 Y177.256235 Z-0.125000 I0.057577 J2.304564
G03 X173.440505 Y178.988246 Z-0.125000 I-22.872078 J-51.446167
G03 X170.405178 Y179.835032 Z-0.125000 I-8.274202 J-23.795584
G03 X169.553194 Y179.898269 Z-0.125000 I-0.658101 J-3.095543
G03 X169.249102 Y179.764073 Z-0.125000 I0.029348 J-0.478140
G03 X169.082314 Y179.507064 Z-0.125000 I0.477456 J-0.492473
G03 X169.112470 Y179.390199 Z-0.125000 I0.099952 J-0.036531
G03 X169.261359 Y179.312193 Z-0.125000 I0.238956 J0.274998
G03 X170.541810 Y179.025509 Z-0.125000 I5.489086 J21.513677
G02 X174.296176 Y178.023435 Z-0.125000 I-5.256284 J-27.227276
G02 X178.159154 Y176.408287 Z-0.125000 I-10.461973 J-30.449228
G01 X178.876484 Y176.051914 Z-0.125000
G01 X178.876484 Y173.788051 Z-0.125000
G02 X178.829528 Y171.526567 Z-0.125000 I-54.482111 J0.000000
G02 X178.717141 Y169.952462 Z-0.125000 I-26.498941 J1.100887
G03 X178.640371 Y168.434133 Z-0.125000 I14.976046 J-1.518329
G03 X178.717141 Y168.327621 Z-0.125000 I0.112273 J0.000000
G02 X179.034065 Y167.859386 Z-0.125000 I-0.146944 J-0.440831
G02 X178.619735 Y166.678763 Z-0.125000 I-2.271660 J0.134207
G03 X177.718519 Y165.262269 Z-0.125000 I13.879401 J-9.825434
G03 X176.659719 Y163.233598 Z-0.125000 I27.461026 J-15.623037
G03 X175.105324 Y159.437668 Z-0.125000 I32.990676 J-15.725562
G03 X174.138182 Y155.931905 Z-0.125000 I27.155238 J-9.377662
G03 X173.882581 Y154.143900 Z-0.125000 I13.854103 J-2.892756
G03 X173.774434 Y151.286349 Z-0.125000 I35.371607 J-2.769501
G03 X173.912137 Y148.433970 Z-0.125000 I31.223119 J0.077834
G03 X174.193627 Y146.839518 Z-0.125000 I9.991180 J0.941802
G03 X175.799626 Y142.780512 Z-0.125000 I17.457865 J4.560214
G03 X178.144631 Y139.573131 Z-0.125000 I13.132557 J7.140635
G02 X178.778974 Y138.751633 Z-0.125000 I-3.505001 J-3.362150
G02 X178.851697 Y138.421147 Z-0.125000 I-0.440002 J-0.270065
G02 X178.703486 Y138.341995 Z-0.125000 I-0.101637 J0.011976
G02 X177.922136 Y138.896221 Z-0.125000 I1.513907 J2.962201
G03 X177.022666 Y139.707203 Z-0.125000 I-15.071328 J-15.811484
G03 X176.931538 Y139.740776 Z-0.125000 I-0.091128 J-0.106886
G03 X176.871716 Y139.695678 Z-0.125000 I0.000000 J-0.062226
G03 X176.823967 Y139.365034 Z-0.125000 I1.189458 J-0.340545
G02 X176.772098 Y139.000058 Z-0.125000 I-1.390177 J0.011391
G02 X176.550699 Y138.393676 Z-0.125000 I-4.096009 J1.151903
G03 X176.303585 Y136.572523 Z-0.125000 I2.915536 J-1.322954
G03 X177.051545 Y135.214175 Z-0.125000 I2.251520 J0.354673
G03 X177.863545 Y134.691528 Z-0.125000 I2.153261 J2.453273
G03 X178.528106 Y134.548686 Z-0.125000 I0.664561 J1.474494
G02 X178.747696 Y134.419897 Z-0.125000 I-0.000000 J-0.251598
G02 X178.876484 Y133.925768 Z-0.125000 I-0.883531 J-0.494129
G02 X178.828012 Y133.383008 Z-0.125000 I-3.062986 J-0.000000
G01 X178.774006 Y133.356599 Z-0.125000
G03 X177.457945 Y133.865408 Z-0.125000 I-2.877411 J-5.486142
G03 X176.216669 Y134.022638 Z-0.125000 I-1.227686 J-4.713821
G02 X175.119467 Y134.060842 Z-0.125000 I-0.040538 J14.610530
G02 X174.966211 Y134.113324 Z-0.125000 I0.022998 J0.317163
G02 X174.848883 Y134.228760 Z-0.125000 I0.241901 J0.363209
G02 X174.511751 Y134.772240 Z-0.125000 I5.420942 J3.739029
G03 X172.970868 Y136.248274 Z-0.125000 I-3.154432 J-1.750713
G03 X170.982181 Y136.537218 Z-0.125000 I-1.431170 J-2.862026
G03 X170.486629 Y136.406388 Z-0.125000 I0.538519 J-3.043705
G03 X169.750428 Y136.099946 Z-0.125000 I2.503219 J-7.051322
G02 X169.040355 Y135.892035 Z-0.125000 I-0.987542 J2.056221
G02 X168.725670 Y135.974363 Z-0.125000 I-0.053627 J0.437597
G03 X167.324212 Y136.842374 Z-0.125000 I-6.171124 J-8.398283
G03 X166.586559 Y137.075433 Z-0.125000 I-1.050361 J-2.040595
G03 X165.208549 Y137.014916 Z-0.125000 I-0.523254 J-3.804506
G03 X163.758918 Y136.429883 Z-0.125000 I1.097873 J-4.808894
G02 X162.843375 Y136.055082 Z-0.125000 I-1.663775 J2.758548
G02 X162.390010 Y136.102991 Z-0.125000 I-0.158897 J0.665408
G03 X161.270232 Y136.424853 Z-0.125000 I-1.525895 J-3.199865
G03 X159.813886 Y136.400064 Z-0.125000 I-0.634699 J-5.503927
G03 X158.635741 Y135.887521 Z-0.125000 I0.368517 J-2.457410
G03 X157.837500 Y134.828340 Z-0.125000 I1.648171 J-2.072511
G02 X157.469616 Y134.504162 Z-0.125000 I-0.514618 J0.213170
G02 X156.321084 Y134.414252 Z-0.125000 I-0.809989 J2.966229
G03 X154.469206 Y134.345938 Z-0.125000 I-0.695571 J-6.279031
G03 X153.464489 Y133.882413 Z-0.125000 I0.412238 J-2.214200
G03 X152.650242 Y132.856373 Z-0.125000 I1.891771 J-2.337383
G03 X152.258407 Y131.393614 Z-0.125000 I3.616783 J-1.752702
G02 X151.962792 Y130.643159 Z-0.125000 I-1.347844 J0.097484
G02 X151.227901 Y130.114823 Z-0.125000 I-1.325012 J1.067761
G03 X150.161149 Y129.471452 Z-0.125000 I1.152263 J-3.116590
G03 X149.289215 Y128.375405 Z-0.125000 I2.804887 J-3.126207
G03 X149.010695 Y127.617317 Z-0.125000 I2.328584 J-1.285724
G03 X148.893263 Y126.418964 Z-0.125000 I5.794960 J-1.172807
G03 X148.978726 Y125.206256 Z-0.125000 I9.208273 J0.039569
G03 X149.136431 Y124.647323 Z-0.125000 I2.082446 J0.285855
G01 X149.374296 Y124.105383 Z-0.125000
G01 X148.693791 Y123.485933 Z-0.125000
G03 X147.748851 Y122.225366 Z-0.125000 I2.820953 J-3.099080
G03 X147.343998 Y120.721109 Z-0.125000 I3.682094 J-1.797602
G03 X147.466558 Y119.203483 Z-0.125000 I5.006705 J-0.359432
G03 X148.022686 Y117.859035 Z-0.125000 I4.459953 J1.057605
G02 X148.314183 Y117.147685 Z-0.125000 I-2.021298 J-1.243686
G02 X148.281690 Y116.733741 Z-0.125000 I-0.674669 J-0.155289
G03 X147.882559 Y113.653532 Z-0.125000 I5.731687 J-2.308671
G03 X148.940335 Y111.500054 Z-0.125000 I3.658226 J0.460373
G03 X149.558708 Y110.995267 Z-0.125000 I2.870911 J2.885763
G03 X150.156910 Y110.691826 Z-0.125000 I1.590288 J2.393722
G02 X150.784741 Y110.433385 Z-0.125000 I-3.082437 J-8.379976
G02 X150.932293 Y110.337601 Z-0.125000 I-0.249108 J-0.545282
G02 X151.008209 Y110.192845 Z-0.125000 I-0.151635 J-0.171808
G02 X151.071728 Y109.164637 Z-0.125000 I-9.036383 J-1.074300
G03 X151.160834 Y108.129680 Z-0.125000 I6.435450 J0.032759
G03 X151.338902 Y107.576677 Z-0.125000 I1.984728 J0.333913
G03 X152.595152 Y106.146036 Z-0.125000 I3.271881 J1.606169
G03 X154.652453 Y105.377376 Z-0.125000 I2.681965 J4.040728
G02 X155.253441 Y105.122821 Z-0.125000 I-0.156788 J-1.206893
G02 X155.825634 Y104.443878 Z-0.125000 I-1.402431 J-1.762512
G03 X156.361261 Y103.668441 Z-0.125000 I4.033030 J2.213076
G03 X156.953713 Y103.123732 Z-0.125000 I2.550000 J2.178962
G03 X157.668129 Y102.784289 Z-0.125000 I1.291813 J1.797308
G03 X158.903682 Y102.596804 Z-0.125000 I1.441427 J5.334237
G03 X160.157352 Y102.675739 Z-0.125000 I0.234060 J6.277646
G03 X160.868945 Y102.920053 Z-0.125000 I-0.365805 J2.223906
G01 X161.550774 Y103.291152 Z-0.125000
G01 X162.197450 Y102.654205 Z-0.125000
G03 X163.345958 Y101.882065 Z-0.125000 I2.626611 J2.666677
G03 X164.598232 Y101.622276 Z-0.125000 I1.262344 J2.936853
G03 X165.532745 Y101.794346 Z-0.125000 I0.008093 J2.579753
G03 X166.192574 Y102.235748 Z-0.125000 I-0.646583 J1.680415
G02 X166.531439 Y102.525187 Z-0.125000 I1.542611 J-1.462954
G02 X166.684933 Y102.573972 Z-0.125000 I0.157266 J-0.228944
G02 X166.850608 Y102.541007 Z-0.125000 I0.005947 J-0.402916
G02 X167.945766 Y102.029800 Z-0.125000 I-8.219128 J-19.036501
G03 X169.324656 Y101.585140 Z-0.125000 I2.122318 J4.221009
G03 X170.320068 Y101.651475 Z-0.125000 I0.352493 J2.212204
G03 X171.116481 Y102.080979 Z-0.125000 I-0.642612 J2.144704
G03 X172.283333 Y103.298626 Z-0.125000 I-4.998889 J5.958269
G02 X172.490601 Y103.404561 Z-0.125000 I0.215314 J-0.165539
G02 X173.103137 Y103.322925 Z-0.125000 I0.056705 J-1.913357
G03 X174.342540 Y103.141959 Z-0.125000 I1.219900 J4.020165
G03 X175.484926 Y103.333988 Z-0.125000 I-0.016681 J3.593293
G03 X176.425289 Y103.930332 Z-0.125000 I-0.765558 J2.246784
G03 X177.078709 Y104.981345 Z-0.125000 I-2.107232 J2.038700
G02 X177.380659 Y105.557122 Z-0.125000 I2.202451 J-0.787949
G02 X177.550779 Y105.639250 Z-0.125000 I0.160474 J-0.115150
G03 X177.783450 Y105.628433 Z-0.125000 I2.128448 J43.274307
G03 X178.329947 Y105.605092 Z-0.125000 I11.014538 J251.488316
G02 X178.772901 Y105.482961 Z-0.125000 I-0.042409 J-1.018148
G02 X178.876484 Y105.309047 Z-0.125000 I-0.094208 J-0.173914
G02 X178.772223 Y105.140033 Z-0.125000 I-0.189121 J-0.000000
G02 X178.332244 Y105.035780 Z-0.125000 I-0.439979 J0.876289
G03 X177.881441 Y104.883691 Z-0.125000 I0.000000 J-0.744151
G03 X177.446117 Y104.361079 Z-0.125000 I0.921400 J-1.210121
G02 X176.751150 Y103.453173 Z-0.125000 I-2.782665 J1.410081
G02 X175.696779 Y102.785540 Z-0.125000 I-2.487170 J2.761524
G02 X174.349797 Y102.494650 Z-0.125000 I-1.459055 J3.492148
G02 X173.082436 Y102.708095 Z-0.125000 I-0.097481 J3.290477
G03 X172.769073 Y102.685274 Z-0.125000 I-0.132191 J-0.347686
G03 X172.001322 Y102.105184 Z-0.125000 I1.699446 J-3.047330
G01 X171.266681 Y101.370531 Z-0.125000
G01 X171.842922 Y100.812081 Z-0.125000
G02 X172.357521 Y100.075406 Z-0.125000 I-1.644328 J-1.696706
G02 X172.798622 Y98.662869 Z-0.125000 I-5.854353 J-2.603314
G03 X173.835465 Y96.971347 Z-0.125000 I2.745416 J0.519308
G03 X175.630198 Y96.474580 Z-0.125000 I1.505226 J1.947706
G03 X177.564897 Y97.697000 Z-0.125000 I-0.312244 J2.636397
G03 X177.654648 Y99.691628 Z-0.125000 I-1.710331 J1.076292
G03 X176.137950 Y100.698690 Z-0.125000 I-1.652430 J-0.843011
G03 X174.697738 Y99.908561 Z-0.125000 I-0.110505 J-1.506218
G03 X174.589183 Y99.438300 Z-0.125000 I0.804882 J-0.433459
G03 X174.741023 Y98.834234 Z-0.125000 I1.521352 J0.061295
G03 X175.091648 Y98.291597 Z-0.125000 I2.399144 J1.165614
G03 X175.323303 Y98.135980 Z-0.125000 I0.382195 J0.318711
G03 X175.992649 Y98.225477 Z-0.125000 I0.239681 J0.755183
G03 X176.280438 Y98.753758 Z-0.125000 I-0.340977 J0.528281
G03 X176.108602 Y98.964284 Z-0.125000 I-0.214882 J-0.000000
G03 X175.761228 Y98.859922 Z-0.125000 I-0.076687 J-0.375050
G02 X175.475195 Y98.868850 Z-0.125000 I-0.138822 J0.138822
G02 X175.387848 Y99.283077 Z-0.125000 I0.322148 J0.284254
G02 X175.787865 Y99.647796 Z-0.125000 I0.515426 J-0.163586
G02 X176.476015 Y99.520807 Z-0.125000 I0.192867 J-0.882887
G02 X176.776219 Y98.401736 Z-0.125000 I-0.476809 J-0.727712
G02 X175.523772 Y97.630218 Z-0.125000 I-1.252447 J0.630824
G02 X174.560135 Y98.096060 Z-0.125000 I0.000000 J1.229605
G02 X174.094293 Y99.433784 Z-0.125000 I1.687802 J1.337724
G02 X174.642457 Y100.712871 Z-0.125000 I1.766393 J-0.000000
G02 X176.007170 Y101.255650 Z-0.125000 I1.356945 J-1.424732
G02 X177.609404 Y100.629471 Z-0.125000 I-0.009491 J-2.387232
G02 X178.421068 Y99.046386 Z-0.125000 I-1.723651 J-1.883349
G02 X177.710559 Y96.943516 Z-0.125000 I-2.567274 J-0.304047
G02 X175.460633 Y95.990608 Z-0.125000 I-2.249926 J2.179715
G02 X174.184393 Y96.228169 Z-0.125000 I-0.000000 J3.546925
G02 X173.157462 Y96.878826 Z-0.125000 I1.119210 J2.902176
G03 X172.724608 Y97.126658 Z-0.125000 I-0.719701 J-0.755086
G03 X172.542610 Y97.054673 Z-0.125000 I-0.044163 J-0.154408
G02 X172.192957 Y96.601942 Z-0.125000 I-2.073172 J1.239760
G02 X171.577495 Y96.071880 Z-0.125000 I-3.474511 J3.411962
G01 X171.180902 Y95.784225 Z-0.125000
G01 X171.534250 Y95.320392 Z-0.125000
G02 X172.036843 Y94.248163 Z-0.125000 I-2.231387 J-1.699839
G02 X172.137094 Y92.694315 Z-0.125000 I-4.727050 J-1.085136
G02 X171.791611 Y90.696110 Z-0.125000 I-13.572532 J1.317673
G02 X171.176435 Y88.862126 Z-0.125000 I-12.038395 J3.017895
G03 X170.969623 Y88.329410 Z-0.125000 I8.389124 J-3.563340
G03 X170.951712 Y88.224744 Z-0.125000 I0.296869 J-0.104666
G03 X170.991003 Y88.136314 Z-0.125000 I0.119161 J-0.000000
G03 X171.600725 Y87.638583 Z-0.125000 I5.281937 J5.848071
G02 X172.225920 Y87.133232 Z-0.125000 I-5.282081 J-7.174142
G02 X173.001221 Y86.398030 Z-0.125000 I-10.439649 J-11.785437
G03 X173.762583 Y85.658547 Z-0.125000 I17.188537 J16.935404
G03 X173.822694 Y85.634531 Z-0.125000 I0.061131 J0.065775
G01 X173.858518 Y85.668617 Z-0.125000
G03 X173.892307 Y87.034252 Z-0.125000 I-27.305149 J1.358823
G02 X174.526779 Y90.097481 Z-0.125000 I7.711869 J0.000000
G02 X176.174971 Y92.306383 Z-0.125000 I5.487188 J-2.374957
G02 X177.489680 Y93.213599 Z-0.125000 I5.511577 J-6.580978
G02 X178.500739 Y93.609897 Z-0.125000 I1.939810 J-3.461074
G02 X178.756690 Y93.548302 Z-0.125000 I0.067710 J-0.281223
G02 X178.876484 Y93.287853 Z-0.125000 I-0.223228 J-0.260449
G02 X178.808150 Y92.943157 Z-0.125000 I-0.903536 J0.000000
G02 X178.705692 Y92.874014 Z-0.125000 I-0.103341 J0.042650
G03 X177.939449 Y92.663234 Z-0.125000 I0.012194 J-1.542468
G03 X176.380305 Y91.514657 Z-0.125000 I4.621244 J-7.905664
G03 X174.566996 Y86.652858 Z-0.125000 I3.844233 J-4.202842
G03 X177.879861 Y78.640074 Z-0.125000 I15.796831 J1.839921
G03 X178.617292 Y77.745097 Z-0.125000 I21.627360 J17.068918
G03 X178.738633 Y77.641417 Z-0.125000 I0.395764 J0.340330
G02 X179.122316 Y76.925300 Z-0.125000 I-0.425766 J-0.688962
G02 X178.705692 Y76.658513 Z-0.125000 I-0.300180 J0.010070
G03 X172.168664 Y79.026920 Z-0.125000 I-26.679679 J-63.432840
G03 X167.057644 Y80.224142 Z-0.125000 I-11.481819 J-37.508370
G03 X163.235121 Y80.722245 Z-0.125000 I-9.331741 J-56.696919
G03 X160.543797 Y80.851565 Z-0.125000 I-2.691324 J-27.940506
G03 X159.390244 Y80.569579 Z-0.125000 I0.000000 J-2.500482
G03 X159.346390 Y80.228951 Z-0.125000 I0.096485 J-0.185558
G02 X160.573933 Y78.794411 Z-0.125000 I-4.984060 J-5.507363
G02 X163.081706 Y74.532050 Z-0.125000 I-42.611574 J-27.939549
G02 X164.783428 Y70.682732 Z-0.125000 I-27.823657 J-14.601207
G02 X168.865802 Y58.648544 Z-0.125000 I-269.176216 J-98.022546
G03 X169.110434 Y57.977447 Z-0.125000 I7.623095 J2.398672
G03 X169.469713 Y57.196985 Z-0.125000 I10.676315 J4.441821
G02 X169.829797 Y56.421716 Z-0.125000 I-11.298563 J-5.719038
G02 X169.858640 Y56.279816 Z-0.125000 I-0.334635 J-0.141900
G03 X170.061776 Y55.386613 Z-0.125000 I2.065309 J0.000000
G03 X172.294224 Y51.201978 Z-0.125000 I49.931203 J23.949831
G03 X175.049318 Y47.451638 Z-0.125000 I19.942484 J11.763099
G03 X177.885887 Y45.006974 Z-0.125000 I11.128942 J10.045049
G02 X178.760188 Y44.286917 Z-0.125000 I-3.050887 J-4.595244
G02 X178.876484 Y44.003590 Z-0.125000 I-0.286983 J-0.283328
G02 X178.789075 Y43.792404 Z-0.125000 I-0.298824 J-0.000000
G02 X178.637374 Y43.764209 Z-0.125000 I-0.096361 J0.096256
G03 X178.387967 Y43.823558 Z-0.125000 I-0.283148 J-0.636169
G03 X175.802218 Y43.901764 Z-0.125000 I-3.436620 J-70.840196
G02 X168.777633 Y44.604098 Z-0.125000 I0.484120 J40.322357
G02 X163.300211 Y46.271104 Z-0.125000 I4.938975 J26.060726
G02 X158.975445 Y48.897907 Z-0.125000 I7.007621 J16.410890
G02 X156.948997 Y51.492667 Z-0.125000 I4.797518 J5.835435
G02 X155.953655 Y55.703140 Z-0.125000 I9.320405 J4.426196
G02 X156.784696 Y59.349900 Z-0.125000 I7.709394 J0.161219
G02 X157.781329 Y60.692909 Z-0.125000 I4.424444 J-2.242034
G02 X159.269507 Y61.725731 Z-0.125000 I4.021508 J-4.205973
G02 X159.976460 Y61.952504 Z-0.125000 I1.157918 J-2.394426
G02 X161.195747 Y62.057136 Z-0.125000 I1.225304 J-7.121980
G02 X162.407409 Y61.923556 Z-0.125000 I0.006681 J-5.501490
G02 X163.475442 Y61.545851 Z-0.125000 I-1.044136 J-4.651381
G02 X165.717340 Y59.627392 Z-0.125000 I-2.654666 J-5.371386
G02 X166.268884 Y57.584532 Z-0.125000 I-2.518188 J-1.775760
G02 X165.653786 Y55.642052 Z-0.125000 I-4.653431 J0.404909
G02 X164.489568 Y54.523468 Z-0.125000 I-2.535582 J1.473875
G02 X163.317089 Y54.241941 Z-0.125000 I-1.135411 J2.146375
G02 X162.048834 Y54.560727 Z-0.125000 I0.043599 J2.855651
G02 X160.821077 Y55.819241 Z-0.125000 I1.281721 J2.478531
G02 X161.148224 Y56.413183 Z-0.125000 I0.373269 J0.181470
G02 X161.319305 Y56.421157 Z-0.125000 I0.146773 J-1.309743
G02 X161.840823 Y56.400483 Z-0.125000 I-0.227313 J-12.322302
G03 X162.839754 Y56.609389 Z-0.125000 I0.117530 J1.930761
G03 X163.301001 Y57.147951 Z-0.125000 I-0.425482 J0.831197
G03 X162.766728 Y58.934706 Z-0.125000 I-1.547190 J0.510617
G03 X160.887021 Y59.063998 Z-0.125000 I-1.033894 J-1.302565
G03 X159.829099 Y57.771680 Z-0.125000 I1.234450 J-2.089731
G03 X159.736548 Y55.756664 Z-0.125000 I3.343993 J-1.163225
G03 X160.766657 Y54.104953 Z-0.125000 I3.052383 J0.756580
G03 X162.820692 Y53.166871 Z-0.125000 I2.721269 J3.240711
G03 X163.764534 Y53.140443 Z-0.125000 I0.572701 J3.586035
G03 X164.635029 Y53.353251 Z-0.125000 I-0.334367 J3.254534
G03 X165.425493 Y53.787967 Z-0.125000 I-1.325214 J3.345719
G03 X166.240478 Y54.520056 Z-0.125000 I-3.120366 J4.293373
G03 X166.907965 Y55.378898 Z-0.125000 I-5.391125 J4.878755
G03 X166.989326 Y55.648683 Z-0.125000 I-0.406605 J0.269784
G02 X167.023280 Y55.943987 Z-0.125000 I1.301133 J0.000000
G02 X167.196040 Y56.535696 Z-0.125000 I5.448734 J-1.269778
G03 X167.333058 Y57.589637 Z-0.125000 I-2.405010 J0.848541
G03 X166.978452 Y59.228423 Z-0.125000 I-6.326518 J-0.511192
G03 X165.385847 Y61.517729 Z-0.125000 I-5.060594 J-1.821894
G03 X162.480406 Y63.022720 Z-0.125000 I-4.774109 J-5.659566
G03 X158.924923 Y62.714650 Z-0.125000 I-1.344456 J-5.154638
G03 X156.099641 Y60.111776 Z-0.125000 I2.561821 J-5.615506
G03 X154.928133 Y55.417589 Z-0.125000 I8.051477 J-4.502649
G03 X156.297512 Y50.583663 Z-0.125000 I9.945716 J0.206547
G03 X157.938411 Y48.298079 Z-0.125000 I13.299581 J7.816404
G03 X159.151674 Y47.289650 Z-0.125000 I3.665796 J3.176330
G02 X159.704331 Y46.915474 Z-0.125000 I-2.593950 J-4.426482
G02 X159.747727 Y46.826833 Z-0.125000 I-0.068829 J-0.088640
G03 X159.796679 Y46.743860 Z-0.125000 I0.094795 J-0.000000
G03 X161.558126 Y45.826581 Z-0.125000 I19.480310 J35.258075
G03 X163.721456 Y44.890571 Z-0.125000 I11.007213 J22.472157
G03 X166.511109 Y43.955251 Z-0.125000 I13.783759 J36.483131
G03 X168.396351 Y43.527419 Z-0.125000 I4.352594 J14.812142
G03 X172.390264 Y43.003343 Z-0.125000 I10.718996 J66.207491
G03 X176.828461 Y42.750665 Z-0.125000 I5.117333 J50.780066
G03 X178.432422 Y42.922938 Z-0.125000 I0.089433 J6.720353
G02 X178.747621 Y42.863565 Z-0.125000 I0.089935 J-0.388902
G02 X178.876484 Y42.619380 Z-0.125000 I-0.166924 J-0.244185
G01 X178.876484 Y42.213121 Z-0.125000
G01 X177.612620 Y42.117109 Z-0.125000
G03 X174.015701 Y41.629522 Z-0.125000 I2.334342 J-30.731394
G03 X170.063593 Y40.636684 Z-0.125000 I7.476812 J-38.124660
G02 X168.676417 Y40.349391 Z-0.125000 I-2.210807 J7.182150
G02 X165.964572 Y40.184677 Z-0.125000 I-3.029904 J27.477968
G02 X163.515996 Y40.213437 Z-0.125000 I-0.605733 J52.677380
G01 X163.505160 Y40.270952 Z-0.125000
G01 X163.502529 Y40.333887 Z-0.125000
G03 X163.125032 Y40.398291 Z-0.125000 I-0.395888 J-1.181925
G02 X162.005436 Y40.610287 Z-0.125000 I0.049310 J3.322833
G02 X161.331998 Y41.072209 Z-0.125000 I0.599842 J1.596375
G03 X161.029571 Y41.267515 Z-0.125000 I-0.504692 J-0.449703
G03 X160.443876 Y41.350706 Z-0.125000 I-0.546125 J-1.741561
G03 X159.373420 Y41.086532 Z-0.125000 I0.054919 J-2.523408
G03 X159.020711 Y40.641736 Z-0.125000 I0.298246 J-0.598740
G02 X158.815100 Y40.242908 Z-0.125000 I-0.904620 J0.213953
G02 X158.576144 Y40.134611 Z-0.125000 I-0.238956 J0.209479
G02 X158.401647 Y40.238149 Z-0.125000 I0.000000 J0.198812
G02 X158.384774 Y40.485103 Z-0.125000 I0.259705 J0.141797
G03 X158.487719 Y41.841307 Z-0.125000 I-2.241263 J0.852136
G03 X157.862313 Y42.914838 Z-0.125000 I-1.956070 J-0.420609
G03 X157.548978 Y42.924410 Z-0.125000 I-0.162383 J-0.182327
G03 X157.482047 Y42.615711 Z-0.125000 I0.153262 J-0.194835
G02 X157.872909 Y40.753382 Z-0.125000 I-3.164171 J-1.636271
G02 X157.325916 Y40.160462 Z-0.125000 I-0.638884 J0.040626
G02 X157.168428 Y40.259030 Z-0.125000 I-0.020621 J0.142151
G02 X157.108066 Y40.844597 Z-0.125000 I1.373985 J0.437529
G03 X156.938053 Y42.277778 Z-0.125000 I-3.275645 J0.338097
G03 X156.491193 Y42.594036 Z-0.125000 I-0.446860 J-0.157568
G03 X155.728224 Y41.992658 Z-0.125000 I0.000000 J-0.784678
G03 X155.987886 Y40.499016 Z-0.125000 I1.858026 J-0.446383
G01 X156.226669 Y40.134611 Z-0.125000
G01 X155.822984 Y40.134611 Z-0.125000
G02 X155.365471 Y40.397909 Z-0.125000 I0.000000 J0.529142
G02 X155.102171 Y41.375119 Z-0.125000 I1.681761 J0.977210
G02 X155.358417 Y42.437841 Z-0.125000 I2.331829 J0.000000
G02 X156.073544 Y43.272301 Z-0.125000 I2.097673 J-1.074032
G02 X157.408627 Y43.849656 Z-0.125000 I1.966123 J-2.714178
G02 X160.731531 Y44.165309 Z-0.125000 I3.322904 J-17.332442
G03 X163.132896 Y44.228976 Z-0.125000 I-0.000000 J45.318403
G01 X163.157852 Y44.294058 Z-0.125000
G03 X162.442017 Y44.697414 Z-0.125000 I-1.080818 J-1.081254
G03 X160.635847 Y44.914016 Z-0.125000 I-1.788514 J-7.274984
G03 X158.016831 Y44.727805 Z-0.125000 I0.044521 J-19.137234
G03 X156.331876 Y44.309073 Z-0.125000 I1.164475 J-8.285224
G03 X154.291411 Y42.733840 Z-0.125000 I1.439203 J-3.973427
G03 X153.863761 Y40.727955 Z-0.125000 I2.202773 J-1.518156
G01 X153.969080 Y40.159954 Z-0.125000
G01 X152.832134 Y40.147537 Z-0.125000
G02 X151.838758 Y40.235001 Z-0.125000 I-0.054370 J5.067346
G02 X151.776363 Y40.346785 Z-0.125000 I0.015448 J0.081929
G03 X151.772450 Y40.541607 Z-0.125000 I-0.241346 J0.092602
G03 X151.539644 Y40.896667 Z-0.125000 I-1.127429 J-0.485380
G02 X151.237755 Y41.757499 Z-0.125000 I0.820962 J0.771257
G02 X151.675884 Y42.604479 Z-0.125000 I1.226965 J-0.097880
G03 X151.975071 Y43.026457 Z-0.125000 I-0.648613 J0.776927
G03 X151.979524 Y43.415275 Z-0.125000 I-0.535565 J0.200568
G02 X151.915157 Y43.844340 Z-0.125000 I1.104459 J0.385048
G02 X152.012304 Y44.285563 Z-0.125000 I1.267309 J-0.047726
G02 X153.006514 Y45.132515 Z-0.125000 I1.331943 J-0.556514
G02 X154.706056 Y44.933800 Z-0.125000 I0.579716 J-2.409040
G03 X155.334107 Y44.756424 Z-0.125000 I0.766206 J1.512390
G03 X155.780668 Y44.845944 Z-0.125000 I0.067283 J0.822935
G03 X155.838793 Y45.111091 Z-0.125000 I-0.081042 J0.156711
G03 X155.307121 Y45.453709 Z-0.125000 I-0.755665 J-0.588804
G02 X154.109634 Y46.126094 Z-0.125000 I0.589843 J2.453011
G02 X153.735832 Y47.030937 Z-0.125000 I0.908249 J0.904842
G02 X154.007315 Y47.866950 Z-0.125000 I1.422965 J0.000000
G02 X154.678087 Y48.328736 Z-0.125000 I0.988345 J-0.717570
G02 X155.514743 Y48.398815 Z-0.125000 I0.611526 J-2.271487
G02 X156.922462 Y48.112920 Z-0.125000 I-0.658870 J-6.852900
G03 X157.009420 Y48.168514 Z-0.125000 I0.020203 J0.064203
G03 X156.962403 Y48.422659 Z-0.125000 I-0.418595 J0.053981
G03 X156.729210 Y48.794155 Z-0.125000 I-2.910355 J-1.567928
G03 X156.298661 Y49.338865 Z-0.125000 I-6.706206 J-4.858197
G01 X155.843984 Y49.867044 Z-0.125000
G01 X154.824067 Y49.379703 Z-0.125000
G03 X152.306963 Y47.482743 Z-0.125000 I3.418628 J-7.154696
G03 X150.421787 Y44.409741 Z-0.125000 I7.765862 J-6.878824
G03 X150.112335 Y43.322189 Z-0.125000 I5.353784 J-2.111166
G03 X149.939238 Y41.739947 Z-0.125000 I11.221046 J-2.028172
G02 X149.764340 Y40.251032 Z-0.125000 I-9.635767 J0.377150
G02 X149.622576 Y40.134498 Z-0.125000 I-0.141764 J0.027962
G02 X149.365247 Y40.346752 Z-0.125000 I0.000000 J0.262115
G02 X149.268488 Y41.961943 Z-0.125000 I6.054843 J1.173210
G02 X151.006092 Y47.007083 Z-0.125000 I10.352739 J-0.743806
G02 X154.735542 Y50.098043 Z-0.125000 I7.099288 J-4.770371
G03 X155.277633 Y50.436824 Z-0.125000 I-0.823178 J1.920283
