%
(Header)
(Generated by gcodetools from Inkscape.)
(Using default header. To add your own header create file "header" in the output dir.)
M3
(Header end.)
G21 (All units in mm)

(Start cutting path id: path3080)
(Change tool to Default tool)

G00 Z5.000000
G00 X216.464457 Y0.250040

G01 Z-0.125000 F100.0(Penetrate)
G02 X216.564466 Y0.549588 Z-0.125000 I0.498606 J0.000000 F400.000000
G02 X217.329502 Y1.401112 Z-0.125000 I5.236876 J-3.935542
G02 X218.284910 Y1.965242 Z-0.125000 I1.751082 J-1.874524
G02 X219.622712 Y2.149340 Z-0.125000 I1.178708 J-3.612615
G03 X220.813890 Y2.439584 Z-0.125000 I0.092575 J2.209519
G03 X221.438067 Y3.188454 Z-0.125000 I-0.694628 J1.213525
G02 X221.930355 Y4.228021 Z-0.125000 I5.249194 J-1.849411
G02 X222.884304 Y5.569760 Z-0.125000 I9.743595 J-5.917509
G03 X223.908815 Y6.877008 Z-0.125000 I-25.041297 J20.680338
G03 X224.507790 Y7.754132 Z-0.125000 I-10.655542 J7.919600
G02 X226.565109 Y10.729603 Z-0.125000 I33.489243 J-20.956363
G02 X227.281352 Y11.396915 Z-0.125000 I2.301851 J-1.752597
G02 X230.792636 Y11.377588 Z-0.125000 I1.741070 J-2.657198
G02 X234.001322 Y6.887314 Z-0.125000 I-4.373093 J-6.516528
G03 X234.984204 Y3.972770 Z-0.125000 I23.192989 J6.198450
G03 X235.396889 Y3.486057 Z-0.125000 I0.955945 J0.392233
G03 X236.001807 Y3.532466 Z-0.125000 I0.270642 J0.437921
G03 X237.066679 Y4.911731 Z-0.125000 I-2.757507 J3.229659
G02 X238.230672 Y6.083445 Z-0.125000 I2.285430 J-1.106352
G02 X239.050617 Y5.888389 Z-0.125000 I0.292045 J-0.593254
G03 X239.605341 Y5.529638 Z-0.125000 I0.768049 J0.579356
G03 X240.829573 Y5.483852 Z-0.125000 I0.733631 J3.226178
G03 X242.153081 Y5.976682 Z-0.125000 I-0.508164 J3.388258
G03 X242.151282 Y6.319991 Z-0.125000 I-0.108234 J0.171092
G02 X241.993579 Y6.868468 Z-0.125000 I0.223168 J0.361078
G02 X243.400276 Y8.858467 Z-0.125000 I6.945052 J-3.417155
G03 X244.843941 Y10.486801 Z-0.125000 I-16.204355 J15.820759
G03 X245.112626 Y10.987749 Z-0.125000 I-1.204176 J0.968391
G02 X245.543005 Y11.442770 Z-0.125000 I0.685881 J-0.217692
G02 X245.815568 Y11.254732 Z-0.125000 I0.071419 J-0.188038
G03 X246.366473 Y10.537931 Z-0.125000 I0.741779 J-0.000000
G03 X247.994792 Y10.674426 Z-0.125000 I0.623579 J2.341772
G02 X248.431196 Y10.646244 Z-0.125000 I0.191914 J-0.421173
G02 X248.637790 Y10.274404 Z-0.125000 I-0.231332 J-0.371840
G02 X248.016522 Y9.139478 Z-0.125000 I-1.347271 J0.000000
G02 X246.418096 Y8.854488 Z-0.125000 I-1.143270 J1.787221
G03 X245.619413 Y8.680220 Z-0.125000 I-0.209858 J-0.955549
G03 X244.259372 Y7.227533 Z-0.125000 I3.489273 J-4.629738
G03 X244.001328 Y6.246055 Z-0.125000 I1.337633 J-0.876343
G03 X244.341197 Y5.985643 Z-0.125000 I0.284040 J0.018715
G03 X249.791529 Y8.215022 Z-0.125000 I-3.043595 J15.218018
G03 X250.493184 Y10.008749 Z-0.125000 I-0.908700 J1.389555
G02 X251.075734 Y11.231389 Z-0.125000 I1.031137 J0.258799
G02 X252.675733 Y11.024551 Z-0.125000 I0.636558 J-1.367719
G03 X253.167414 Y10.836137 Z-0.125000 I0.523796 J0.631140
G03 X254.107627 Y10.968445 Z-0.125000 I0.104423 J2.664789
G03 X255.228322 Y11.665786 Z-0.125000 I-0.878009 J2.660250
G03 X255.781489 Y12.672842 Z-0.125000 I-1.514454 J1.487331
G02 X256.882571 Y15.538822 Z-0.125000 I10.825757 J-2.514649
G02 X257.545418 Y15.860881 Z-0.125000 I0.560285 J-0.310004
G03 X258.327915 Y15.987558 Z-0.125000 I0.200996 J1.238544
G03 X258.914599 Y16.576963 Z-0.125000 I-0.640017 J1.223753
G03 X259.207655 Y17.754491 Z-0.125000 I-2.330830 J1.205312
G03 X258.930037 Y18.035064 Z-0.125000 I-0.277618 J0.002940
G02 X258.388988 Y18.482936 Z-0.125000 I0.000000 J0.550742
G02 X258.660859 Y19.450804 Z-0.125000 I1.108466 J0.210753
G03 X258.823975 Y19.908415 Z-0.125000 I-0.470131 J0.425456
G03 X258.624531 Y20.166209 Z-0.125000 I-0.285038 J-0.014474
G02 X257.720667 Y21.058528 Z-0.125000 I0.417001 J1.326335
G02 X258.092226 Y21.786193 Z-0.125000 I0.546584 J0.179599
G03 X259.982502 Y22.923779 Z-0.125000 I-1.455726 J4.558197
G03 X260.491115 Y24.132786 Z-0.125000 I-1.182636 J1.209007
G03 X260.036934 Y26.039355 Z-0.125000 I-4.228800 J-0.000000
G03 X259.295458 Y26.499953 Z-0.125000 I-0.748720 J-0.378180
G03 X259.144034 Y26.415450 Z-0.125000 I-0.000000 J-0.177923
G03 X258.646988 Y25.447236 Z-0.125000 I5.905449 J-3.643336
G02 X257.405986 Y23.515329 Z-0.125000 I-6.077086 J2.539202
G02 X256.490810 Y23.115064 Z-0.125000 I-0.915176 J0.846108
G02 X255.909983 Y23.656538 Z-0.125000 I0.000000 J0.582257
G02 X256.398893 Y24.424124 Z-0.125000 I0.762906 J0.053568
G03 X256.670626 Y24.911062 Z-0.125000 I-0.155906 J0.406291
G03 X256.257782 Y25.172379 Z-0.125000 I-0.328316 J-0.061916
G02 X255.915243 Y25.543361 Z-0.125000 I-0.072382 J0.276796
G02 X256.755814 Y26.600904 Z-0.125000 I1.933721 J-0.674157
G03 X258.126967 Y28.410292 Z-0.125000 I-1.723677 J2.730424
G03 X257.601103 Y29.441216 Z-0.125000 I-0.804241 J0.239346
G03 X256.887659 Y29.364682 Z-0.125000 I-0.276491 J-0.786173
G03 X256.895133 Y29.006538 Z-0.125000 I0.108911 J-0.176878
G02 X257.141860 Y28.464838 Z-0.125000 I-0.245625 J-0.438913
G02 X256.665570 Y27.906943 Z-0.125000 I-0.747733 J0.156102
G03 X255.950685 Y27.617930 Z-0.125000 I6.568050 J-17.274968
G03 X254.765656 Y27.092365 Z-0.125000 I20.623544 J-48.100186
G02 X253.592540 Y26.737059 Z-0.125000 I-1.887087 J4.116304
G02 X253.079962 Y26.823210 Z-0.125000 I-0.128384 J0.804073
G02 X252.942954 Y27.284265 Z-0.125000 I0.159660 J0.298329
G02 X254.193910 Y28.854053 Z-0.125000 I5.166703 J-2.833986
G03 X254.934810 Y30.050818 Z-0.125000 I-1.637306 J1.841355
G03 X254.627246 Y30.452842 Z-0.125000 I-0.307564 J0.083362
G02 X252.890496 Y31.581478 Z-0.125000 I0.000000 J1.900577
G02 X253.435560 Y33.133953 Z-0.125000 I1.095974 J0.487133
G03 X253.822163 Y33.794027 Z-0.125000 I-0.328791 J0.635825
G03 X253.393446 Y34.376352 Z-0.125000 I-0.639276 J-0.021669
G03 X252.282604 Y34.473143 Z-0.125000 I-0.746140 J-2.140416
G03 X251.886168 Y34.130649 Z-0.125000 I0.080510 J-0.493873
G02 X250.815858 Y32.524162 Z-0.125000 I-3.324546 J1.055168
G02 X247.367782 Y30.303885 Z-0.125000 I-10.174541 J12.013436
G02 X241.073440 Y27.798459 Z-0.125000 I-23.117502 J48.918428
G02 X240.285251 Y27.986841 Z-0.125000 I-0.240733 J0.735855
G02 X240.301219 Y28.075470 Z-0.125000 I0.038770 J0.038768
G02 X242.215468 Y28.869575 Z-0.125000 I12.076574 J-26.407188
G03 X248.174163 Y31.492062 Z-0.125000 I-19.972638 J53.461691
G03 X249.333759 Y32.500364 Z-0.125000 I-1.444752 J2.832481
G03 X249.681878 Y33.145171 Z-0.125000 I-2.593434 J1.816523
G03 X249.766671 Y33.587174 Z-0.125000 I-1.109632 J0.442002
G02 X249.911522 Y33.944032 Z-0.125000 I0.512005 J0.000000
G02 X250.377527 Y34.215654 Z-0.125000 I0.720152 J-0.699958
G03 X250.673460 Y34.476670 Z-0.125000 I-0.110854 J0.423953
G03 X250.619532 Y34.819836 Z-0.125000 I-0.315262 J0.126277
G02 X250.575597 Y35.299040 Z-0.125000 I0.327267 J0.271621
G02 X251.243339 Y35.935319 Z-0.125000 I1.363692 J-0.762604
G03 X251.774149 Y36.360573 Z-0.125000 I-0.713946 J1.435071
G03 X252.411265 Y37.374963 Z-0.125000 I-3.861097 J3.132344
G02 X253.001509 Y38.457575 Z-0.125000 I9.445465 J-4.447496
G02 X253.760739 Y39.535826 Z-0.125000 I10.127339 J-6.324549
G03 X254.308862 Y40.663313 Z-0.125000 I-2.292165 J1.811304
G03 X254.488858 Y42.560147 Z-0.125000 I-6.560662 J1.579517
G03 X254.320355 Y44.511631 Z-0.125000 I-25.030369 J-1.178261
G03 X254.216494 Y44.723747 Z-0.125000 I-0.361465 J-0.045503
G03 X253.752723 Y44.739003 Z-0.125000 I-0.240032 J-0.240022
G03 X253.435568 Y44.039302 Z-0.125000 I0.613255 J-0.699701
G02 X253.106785 Y43.199408 Z-0.125000 I-1.237168 J-0.000000
G02 X252.354996 Y42.870620 Z-0.125000 I-0.751790 J0.695105
G03 X251.993545 Y42.762030 Z-0.125000 I-0.000000 J-0.655856
G03 X250.855614 Y41.880330 Z-0.125000 I5.258601 J-7.961968
G02 X243.980388 Y37.458589 Z-0.125000 I-16.866084 J18.668635
G02 X241.659671 Y37.901336 Z-0.125000 I-0.834600 J1.928886
G02 X241.758177 Y38.456951 Z-0.125000 I0.243381 J0.243391
G02 X243.854013 Y38.919509 Z-0.125000 I2.095837 J-4.516814
G03 X245.083226 Y39.254181 Z-0.125000 I0.000000 J2.424715
G03 X249.597879 Y42.297652 Z-0.125000 I-22.451537 J38.174600
G03 X251.096008 Y43.710496 Z-0.125000 I-6.190228 J8.064597
G03 X251.914593 Y44.975377 Z-0.125000 I-4.115997 J3.561046
G03 X252.157053 Y46.103980 Z-0.125000 I-2.356861 J1.096673
G03 X251.899720 Y46.186279 Z-0.125000 I-0.142386 J-0.001749
G02 X251.477293 Y46.109653 Z-0.125000 I-0.251526 J0.183921
G02 X251.361209 Y46.539509 Z-0.125000 I0.183821 J0.280244
G02 X251.886238 Y47.220243 Z-0.125000 I1.992750 J-0.994110
G02 X252.327355 Y47.386175 Z-0.125000 I0.441116 J-0.503366
G03 X252.679034 Y47.578274 Z-0.125000 I-0.000000 J0.417964
G03 X252.871129 Y48.232842 Z-0.125000 I-1.019183 J0.654568
G03 X252.315420 Y48.841236 Z-0.125000 I-0.610892 J0.000000
G03 X251.343192 Y48.371413 Z-0.125000 I-0.094762 J-1.044756
G02 X250.794683 Y47.748630 Z-0.125000 I-2.451653 J1.606330
G02 X249.405734 Y46.717252 Z-0.125000 I-8.271541 J9.688286
G02 X242.926353 Y42.754245 Z-0.125000 I-93.981343 J146.377963
G02 X242.311706 Y42.588398 Z-0.125000 I-0.614647 J1.056053
G03 X242.139327 Y42.546508 Z-0.125000 I0.000000 J-0.375621
G03 X241.438324 Y42.137265 Z-0.125000 I3.608153 J-6.985508
G03 X241.079243 Y41.599657 Z-0.125000 I0.452895 J-0.691221
G03 X241.191422 Y40.832185 Z-0.125000 I1.168730 J-0.221105
G02 X241.391534 Y40.015727 Z-0.125000 I-1.590906 J-0.822682
G02 X241.195909 Y39.541103 Z-0.125000 I-0.667945 J-0.002321
G02 X240.840398 Y39.484928 Z-0.125000 I-0.216385 J0.216384
G02 X240.447306 Y39.923232 Z-0.125000 I0.372256 J0.729280
G03 X240.067212 Y40.686059 Z-0.125000 I-4.032850 J-1.533342
G03 X239.800710 Y40.951847 Z-0.125000 I-0.712434 J-0.447845
G02 X239.741333 Y41.492977 Z-0.125000 I0.183666 J0.293976
G02 X242.182434 Y43.293953 Z-0.125000 I7.547162 J-7.674804
G03 X251.531872 Y49.580069 Z-0.125000 I-27.399235 J50.847153
G03 X252.239180 Y51.587561 Z-0.125000 I-1.311647 J1.590489
G03 X251.457221 Y52.168506 Z-0.125000 I-0.716774 J-0.148052
G03 X249.645081 Y51.355603 Z-0.125000 I0.270962 J-3.030313
G02 X248.975069 Y50.923460 Z-0.125000 I-1.513330 J1.610850
G02 X248.586392 Y50.918582 Z-0.125000 I-0.200465 J0.485639
G03 X248.203563 Y50.896368 Z-0.125000 I-0.166834 J-0.434721
G03 X247.343073 Y50.267580 Z-0.125000 I1.668508 J-3.186514
G02 X245.215321 Y48.566455 Z-0.125000 I-9.108914 J9.212103
G02 X242.419066 Y47.117726 Z-0.125000 I-9.329294 J14.583920
G02 X240.134853 Y46.452506 Z-0.125000 I-4.342545 J10.656977
G02 X239.888921 Y46.657760 Z-0.125000 I-0.037314 J0.205253
G02 X240.050631 Y46.927400 Z-0.125000 I0.305657 J0.000000
G02 X241.138189 Y47.324679 Z-0.125000 I1.952080 J-3.656604
G03 X242.824553 Y48.060125 Z-0.125000 I-0.960575 J4.503708
G03 X245.980005 Y50.725711 Z-0.125000 I-13.343259 J18.995865
G03 X248.246695 Y54.377007 Z-0.125000 I-6.854501 J6.784427
G03 X248.343565 Y57.606543 Z-0.125000 I-5.155326 J1.770855
G03 X247.679290 Y58.223772 Z-0.125000 I-0.834163 J-0.231676
G03 X246.971387 Y57.881145 Z-0.125000 I-0.127796 J-0.638575
G02 X246.311234 Y56.860146 Z-0.125000 I-5.307262 J2.707623
G02 X245.026054 Y55.456630 Z-0.125000 I-11.383819 J9.133840
G02 X240.585379 Y51.691602 Z-0.125000 I-33.093738 J34.531219
G02 X239.520381 Y51.337286 Z-0.125000 I-1.064998 J1.423423
G02 X239.357263 Y51.610663 Z-0.125000 I0.000000 J0.185353
G02 X240.042534 Y52.304914 Z-0.125000 I1.531688 J-0.826550
G03 X240.544598 Y52.654851 Z-0.125000 I-1.477630 J2.655120
G03 X240.942750 Y53.078033 Z-0.125000 I-1.784263 J2.077622
G02 X241.348063 Y53.495488 Z-0.125000 I1.905162 J-1.444260
G02 X242.276433 Y54.152481 Z-0.125000 I5.730340 J-7.112892
G03 X243.174169 Y54.848905 Z-0.125000 I-2.817141 J4.558309
G03 X244.957756 Y56.731710 Z-0.125000 I-19.358397 J20.124474
G03 X246.420417 Y58.797137 Z-0.125000 I-10.026756 J8.651200
G03 X246.662254 Y59.705345 Z-0.125000 I-1.584442 J0.908208
G02 X246.859323 Y60.551297 Z-0.125000 I1.914235 J-0.000000
G02 X247.226699 Y60.851082 Z-0.125000 I0.511717 J-0.252094
G03 X247.557404 Y61.179160 Z-0.125000 I-0.117438 J0.449095
G03 X247.791143 Y62.941305 Z-0.125000 I-6.525484 J1.762144
G03 X247.602273 Y64.695081 Z-0.125000 I-8.236867 J-0.000000
G03 X247.367810 Y64.883953 Z-0.125000 I-0.234463 J-0.051093
G03 X247.030489 Y64.797919 Z-0.125000 I-0.000000 J-0.704301
G03 X246.944477 Y64.653011 Z-0.125000 I0.079061 J-0.144909
G02 X246.877024 Y64.447720 Z-0.125000 I-0.346124 J-0.000000
G02 X245.956919 Y63.312455 Z-0.125000 I-12.744261 J9.388420
G03 X245.105423 Y62.151028 Z-0.125000 I5.693177 J-5.066782
G03 X244.969141 Y61.657081 Z-0.125000 I0.828420 J-0.494337
G02 X244.810709 Y61.178592 Z-0.125000 I-0.802753 J0.000325
G02 X243.540061 Y59.734047 Z-0.125000 I-9.386210 J6.975170
G03 X242.242166 Y58.266411 Z-0.125000 I8.537508 J-8.857804
G03 X241.587862 Y57.135909 Z-0.125000 I4.371661 J-3.284798
G02 X240.999671 Y55.970886 Z-0.125000 I-9.590104 J4.110810
G02 X240.763195 Y55.728805 Z-0.125000 I-0.605318 J0.354764
G02 X240.466545 Y55.942380 Z-0.125000 I-0.104026 J0.168316
G02 X241.477465 Y58.768819 Z-0.125000 I12.990217 J-3.052150
G03 X242.031712 Y60.159256 Z-0.125000 I-8.746424 J4.292123
G03 X242.146699 Y60.913905 Z-0.125000 I-2.418851 J0.754649
G02 X242.209462 Y61.685486 Z-0.125000 I4.774114 J-0.000000
G02 X242.408660 Y62.513512 Z-0.125000 I5.702823 J-0.933955
G03 X242.615842 Y63.343421 Z-0.125000 I-6.249860 J2.001053
G03 X242.854312 Y64.970595 Z-0.125000 I-23.867395 J4.328942
G02 X243.168644 Y66.405045 Z-0.125000 I7.021846 J-0.787039
G02 X243.361397 Y66.501651 Z-0.125000 I0.144585 J-0.047886
G02 X243.574064 Y66.208029 Z-0.125000 I-0.098348 J-0.295059
G02 X243.381097 Y62.237019 Z-0.125000 I-37.400726 J-0.172740
G03 X243.383410 Y60.840561 Z-0.125000 I6.730569 J-0.687081
G03 X243.509972 Y60.768550 Z-0.125000 I0.089113 J0.009395
G03 X243.695013 Y60.958473 Z-0.125000 I-0.154321 J0.335458
G03 X244.294687 Y62.657305 Z-0.125000 I-12.592851 J5.400427
G02 X244.932599 Y64.246645 Z-0.125000 I7.639619 J-2.143620
G02 X245.435587 Y64.797198 Z-0.125000 I1.327473 J-0.707742
G03 X245.955175 Y65.308169 Z-0.125000 I-1.020262 J1.557130
G03 X246.097813 Y65.771937 Z-0.125000 I-0.682624 J0.463768
G02 X246.227745 Y66.223474 Z-0.125000 I0.849548 J-0.000000
G02 X246.544810 Y66.484294 Z-0.125000 I0.549376 J-0.344716
G03 X246.711891 Y66.689673 Z-0.125000 I-0.095231 J0.248124
G03 X246.615366 Y66.917280 Z-0.125000 I-0.228725 J0.037272
G01 X246.624963 Y66.996982 Z-0.125000
G02 X246.850172 Y67.007619 Z-0.125000 I0.128649 J-0.334370
G03 X247.468739 Y67.249606 Z-0.125000 I0.148722 J0.531420
G03 X247.962898 Y68.813954 Z-0.125000 I-2.866181 J1.765617
G02 X248.044447 Y70.104760 Z-0.125000 I197.477836 J-11.827981
G02 X248.231574 Y72.856720 Z-0.125000 I898.458941 J-59.710809
G03 X248.224255 Y75.423059 Z-0.125000 I-17.726261 J1.232627
G03 X248.024454 Y75.608386 Z-0.125000 I-0.199801 J-0.015039
G02 X247.748080 Y75.767419 Z-0.125000 I0.000000 J0.319663
G02 X247.286318 Y76.878386 Z-0.125000 I3.934601 J2.286822
G03 X246.821981 Y77.985992 Z-0.125000 I-4.290423 J-1.147523
G03 X246.537761 Y78.148386 Z-0.125000 I-0.284221 J-0.167522
G03 X246.204269 Y78.004561 Z-0.125000 I-0.000000 J-0.458550
G03 X245.006304 Y76.525609 Z-0.125000 I9.158606 J-8.643210
G02 X243.859786 Y74.920904 Z-0.125000 I-53.365256 J36.916101
G02 X243.154703 Y74.015581 Z-0.125000 I-17.678198 J13.040883
G03 X242.004966 Y71.882579 Z-0.125000 I4.870136 J-4.001485
G03 X241.914709 Y70.020528 Z-0.125000 I3.563049 J-1.105920
G02 X241.908527 Y69.827178 Z-0.125000 I-0.405203 J-0.083817
G02 X241.666746 Y69.117287 Z-0.125000 I-5.994026 J1.645376
G03 X241.457183 Y68.392128 Z-0.125000 I3.261560 J-1.335413
G03 X241.177906 Y66.336749 Z-0.125000 I26.210781 J-4.608089
G02 X240.932901 Y64.272378 Z-0.125000 I-46.910975 J4.520795
G02 X240.831089 Y63.879073 Z-0.125000 I-1.781991 J0.251462
G02 X239.483099 Y62.367162 Z-0.125000 I-2.671864 J1.025305
G02 X237.623263 Y62.205354 Z-0.125000 I-1.124445 J2.155008
G02 X237.358764 Y62.662875 Z-0.125000 I0.118630 J0.373798
G02 X237.842813 Y63.210037 Z-0.125000 I0.732123 J-0.159986
G03 X239.113281 Y64.393754 Z-0.125000 I-0.716708 J2.042880
G03 X240.195256 Y68.651084 Z-0.125000 I-12.716227 J5.497909
G02 X240.492879 Y71.509720 Z-0.125000 I101.711651 J-9.144752
G02 X240.617878 Y72.221720 Z-0.125000 I6.415528 J-0.759343
G03 X240.758047 Y72.931612 Z-0.125000 I-10.120136 J2.367008
G03 X240.914152 Y74.056164 Z-0.125000 I-25.256541 J4.079119
G02 X241.084973 Y75.177585 Z-0.125000 I15.909374 J-1.849682
G02 X241.332569 Y76.272568 Z-0.125000 I15.412009 J-2.909458
G03 X241.539101 Y77.367821 Z-0.125000 I-7.513099 J1.983842
G03 X241.559970 Y78.248124 Z-0.125000 I-4.818306 J0.554625
G02 X241.764311 Y80.400569 Z-0.125000 I6.693476 J0.450481
G02 X242.287446 Y81.021804 Z-0.125000 I0.915612 J-0.240146
G03 X243.635052 Y82.255922 Z-0.125000 I-1.226685 J2.692313
G03 X244.593461 Y85.092803 Z-0.125000 I-6.912919 J3.915789
G02 X244.922011 Y86.349067 Z-0.125000 I5.391717 J-0.738999
G02 X245.339287 Y86.985413 Z-0.125000 I1.738825 J-0.685226
G03 X245.596073 Y87.627398 Z-0.125000 I-0.620582 J0.620573
G03 X245.273222 Y89.692630 Z-0.125000 I-8.018708 J-0.195688
G03 X244.551018 Y91.784478 Z-0.125000 I-22.747122 J-6.682777
G03 X244.241756 Y92.281709 Z-0.125000 I-1.542179 J-0.614397
G02 X243.941321 Y92.766190 Z-0.125000 I1.191417 J1.074210
G02 X243.840035 Y93.297934 Z-0.125000 I1.345168 J0.531744
G03 X243.451238 Y95.257364 Z-0.125000 I-5.131897 J0.000000
G03 X242.869950 Y95.646164 Z-0.125000 I-0.581289 J-0.240137
G03 X242.596767 Y95.526100 Z-0.125000 I-0.000000 J-0.370819
G03 X242.174128 Y94.888087 Z-0.125000 I1.796645 J-1.649144
G02 X241.778960 Y94.160068 Z-0.125000 I-5.406996 J2.463655
G02 X241.050835 Y93.124198 Z-0.125000 I-11.710137 J7.457346
G03 X240.539194 Y92.054034 Z-0.125000 I2.226103 J-1.721679
G03 X240.509248 Y90.848387 Z-0.125000 I2.830085 J-0.673490
G02 X240.654699 Y89.580667 Z-0.125000 I-9.002673 J-1.675116
G02 X240.594084 Y88.943387 Z-0.125000 I-2.302392 J-0.102533
G03 X240.940312 Y88.622186 Z-0.125000 I0.263741 J-0.062911
G03 X241.967208 Y89.381903 Z-0.125000 I-0.603437 J1.889531
G03 X242.578050 Y90.496985 Z-0.125000 I-4.991349 J3.459110
G03 X242.711146 Y91.159903 Z-0.125000 I-1.584364 J0.662918
G02 X243.036391 Y92.216462 Z-0.125000 I1.878737 J0.000000
G02 X243.650960 Y92.541720 Z-0.125000 I0.614569 J-0.417980
G02 X243.781111 Y92.423469 Z-0.125000 I0.000000 J-0.130750
G02 X243.771712 Y91.284307 Z-0.125000 I-5.462151 J-0.524551
G02 X243.421080 Y90.112575 Z-0.125000 I-3.422179 J0.385731
G02 X242.233335 Y88.250418 Z-0.125000 I-10.016480 J5.078973
G02 X239.167207 Y85.107223 Z-0.125000 I-16.202611 J12.738275
G02 X237.867911 Y84.639498 Z-0.125000 I-1.299296 J1.570796
G02 X237.597594 Y84.987121 Z-0.125000 I0.000000 J0.278913
G02 X238.081141 Y85.478375 Z-0.125000 I0.662362 J-0.168363
G03 X240.204874 Y86.825963 Z-0.125000 I-1.110889 J4.097951
G03 X240.160529 Y87.923887 Z-0.125000 I-0.617346 J0.524923
G02 X239.996149 Y88.235192 Z-0.125000 I0.421749 J0.421749
G02 X239.829191 Y89.682329 Z-0.125000 I10.035843 J1.891047
G03 X239.683616 Y91.127035 Z-0.125000 I-12.744629 J-0.554520
G03 X239.573749 Y91.292096 Z-0.125000 I-0.234934 J-0.037279
G03 X239.379859 Y91.317317 Z-0.125000 I-0.124877 J-0.202123
G03 X238.577742 Y90.989752 Z-0.125000 I1.355287 J-4.464584
G02 X237.137425 Y90.636604 Z-0.125000 I-1.440768 J2.762438
G02 X236.784479 Y90.989498 Z-0.125000 I-0.000051 J0.352894
G02 X236.933814 Y91.263510 Z-0.125000 I0.326058 J0.000000
G02 X237.440841 Y91.412831 Z-0.125000 I0.507026 J-0.786155
G03 X238.767049 Y91.970254 Z-0.125000 I0.000000 J1.856355
G03 X239.324479 Y93.336034 Z-0.125000 I-1.394460 J1.365781
G02 X239.484615 Y93.793322 Z-0.125000 I0.732989 J0.000000
G02 X239.818368 Y93.954750 Z-0.125000 I0.335423 J-0.267756
G03 X240.793397 Y94.506914 Z-0.125000 I-0.004609 J1.145090
G03 X241.696097 Y97.057275 Z-0.125000 I-5.710034 J3.456000
G03 X241.669934 Y98.285209 Z-0.125000 I-3.881157 J0.531550
G03 X241.298463 Y99.258468 Z-0.125000 I-2.773282 J-0.500979
G03 X240.514948 Y99.688690 Z-0.125000 I-0.769078 J-0.472061
G03 X239.640373 Y99.231939 Z-0.125000 I0.017590 J-1.099363
G02 X238.503563 Y98.255859 Z-0.125000 I-2.587916 J1.864023
G02 X237.041208 Y97.903914 Z-0.125000 I-1.462355 J2.862118
G02 X236.900700 Y98.233421 Z-0.125000 I0.000000 J0.194712
G02 X238.009411 Y98.913141 Z-0.125000 I1.851892 J-1.776592
G03 X239.689701 Y99.925188 Z-0.125000 I-1.155978 J3.820161
G03 X240.170917 Y101.096327 Z-0.125000 I-1.181735 J1.170004
G03 X240.121425 Y101.422572 Z-0.125000 I-1.105036 J-0.000761
G03 X239.629869 Y102.842803 Z-0.125000 I-21.899223 J-6.784355
G03 X238.648456 Y103.844011 Z-0.125000 I-1.644317 J-0.630199
G03 X237.608924 Y103.663985 Z-0.125000 I-0.375373 J-0.923792
G02 X237.236132 Y103.705786 Z-0.125000 I-0.167683 J0.187788
G02 X237.278368 Y104.128410 Z-0.125000 I0.262936 J0.187145
G03 X238.061770 Y105.044868 Z-0.125000 I-3.738058 J3.988407
G03 X238.188303 Y105.467667 Z-0.125000 I-0.605919 J0.411671
G03 X237.809306 Y107.568539 Z-0.125000 I-6.565200 J-0.099741
G03 X236.461583 Y110.321692 Z-0.125000 I-12.754596 J-4.537183
G02 X236.073179 Y111.057887 Z-0.125000 I4.218575 J2.696207
G02 X235.230869 Y113.214470 Z-0.125000 I35.643024 J15.164107
G03 X234.396162 Y115.323397 Z-0.125000 I-31.045755 J-11.068167
G03 X234.277231 Y115.400873 Z-0.125000 I-0.118321 J-0.051608
G03 X234.137756 Y115.336900 Z-0.125000 I0.000000 J-0.184028
G03 X233.538924 Y114.543877 Z-0.125000 I5.894012 J-5.073334
G02 X231.386488 Y112.232291 Z-0.125000 I-7.936339 J5.232013
G02 X229.894275 Y111.749398 Z-0.125000 I-1.426178 J1.860079
G02 X229.749663 Y111.883762 Z-0.125000 I0.004244 J0.149570
G02 X229.858238 Y112.102175 Z-0.125000 I0.227271 J0.023215
G03 X230.376405 Y112.482564 Z-0.125000 I-1.928782 J3.170509
G03 X231.763238 Y113.772874 Z-0.125000 I-21.248112 J24.228047
G03 X232.899277 Y115.473326 Z-0.125000 I-3.561406 J3.609015
G03 X233.156970 Y117.203201 Z-0.125000 I-3.435764 J1.395945
G02 X233.197019 Y117.707329 Z-0.125000 I1.492939 J0.135054
G02 X233.372709 Y118.052549 Z-0.125000 I0.852568 J-0.216576
G03 X233.708110 Y119.540846 Z-0.125000 I-1.293407 J1.073423
G03 X232.767915 Y120.426969 Z-0.125000 I-1.168092 J-0.297525
G03 X231.849502 Y119.936578 Z-0.125000 I-0.156427 J-0.812247
G03 X231.524444 Y117.483081 Z-0.125000 I4.305867 J-1.818756
G02 X231.219618 Y116.813124 Z-0.125000 I-0.682914 J-0.093603
G02 X230.731211 Y116.962719 Z-0.125000 I-0.182093 J0.277580
G03 X230.185217 Y117.567573 Z-0.125000 I-1.131974 J-0.472962
G03 X229.672096 Y117.538537 Z-0.125000 I-0.233119 J-0.428785
G02 X229.008442 Y117.192825 Z-0.125000 I-1.646336 J2.350566
G02 X228.466682 Y117.099230 Z-0.125000 I-0.530370 J1.455229
G02 X228.365793 Y117.274075 Z-0.125000 I0.000845 J0.117017
G02 X229.001377 Y118.039877 Z-0.125000 I2.472478 J-1.405400
G01 X230.108276 Y118.976318 Z-0.125000
G01 X229.739284 Y120.715090 Z-0.125000
G03 X229.281679 Y122.414145 Z-0.125000 I-15.952268 J-3.385255
G03 X229.006127 Y122.949443 Z-0.125000 I-1.814116 J-0.595271
G03 X228.608496 Y123.103052 Z-0.125000 I-0.319058 J-0.234452
G03 X227.844887 Y122.714324 Z-0.125000 I0.317496 J-1.568053
G02 X225.459246 Y120.911898 Z-0.125000 I-10.655761 J11.623678
G02 X224.919369 Y120.912307 Z-0.125000 I-0.269608 J0.437694
G02 X224.813037 Y121.472324 Z-0.125000 I0.203128 J0.328672
G02 X225.652365 Y121.892803 Z-0.125000 I0.839328 J-0.627462
G03 X226.912505 Y122.501548 Z-0.125000 I-0.000000 J1.608656
G03 X228.189991 Y125.090832 Z-0.125000 I-5.363833 J4.256161
G03 X228.261701 Y125.874854 Z-0.125000 I-2.478063 J0.621942
G03 X228.100375 Y126.500645 Z-0.125000 I-1.718025 J-0.109208
G02 X227.856546 Y127.130356 Z-0.125000 I4.264215 J2.013193
G02 X227.326544 Y129.022160 Z-0.125000 I38.158044 J11.710399
G03 X226.771247 Y130.878339 Z-0.125000 I-22.282233 J-5.654830
G03 X226.619199 Y131.068299 Z-0.125000 I-0.342697 J-0.118471
G03 X226.439837 Y131.036262 Z-0.125000 I-0.071790 J-0.116182
G03 X225.538985 Y129.687329 Z-0.125000 I8.524928 J-6.668437
G02 X223.714815 Y127.454797 Z-0.125000 I-7.365955 J4.157096
G02 X222.423641 Y126.985362 Z-0.125000 I-1.258467 J1.451001
G01 X221.685590 Y126.998062 Z-0.125000
G01 X222.343329 Y127.479364 Z-0.125000
G03 X224.218892 Y129.429050 Z-0.125000 I-4.639719 J6.340295
G03 X224.997491 Y131.417916 Z-0.125000 I-4.060819 J2.736561
G02 X225.511195 Y133.233577 Z-0.125000 I7.634696 J-1.179579
G02 X225.858133 Y133.464027 Z-0.125000 I0.346938 J-0.145930
G03 X226.161893 Y133.624268 Z-0.125000 I0.000000 J0.368031
G03 X226.195984 Y133.957916 Z-0.125000 I-0.289689 J0.198165
G02 X225.012879 Y138.868708 Z-0.125000 I14.634147 J6.123562
G02 X225.757786 Y139.672916 Z-0.125000 I0.744907 J0.057115
G02 X226.408306 Y139.199481 Z-0.125000 I0.000000 J-0.683638
G02 X226.911742 Y136.101704 Z-0.125000 I-9.898206 J-3.198408
G03 X227.734147 Y130.469847 Z-0.125000 I21.091270 J0.203928
G03 X228.875842 Y129.279857 Z-0.125000 I1.701684 J0.489947
G02 X229.666042 Y128.572867 Z-0.125000 I-0.422411 J-1.267224
G02 X229.929846 Y126.998485 Z-0.125000 I-2.748524 J-1.269836
G03 X230.005741 Y124.973918 Z-0.125000 I7.314559 J-0.739505
G03 X231.032483 Y120.787395 Z-0.125000 I32.768956 J5.817395
G03 X231.381666 Y120.769660 Z-0.125000 I0.177890 J0.056064
G03 X231.822375 Y122.620795 Z-0.125000 I-5.073906 J2.185997
G03 X231.686481 Y124.662297 Z-0.125000 I-8.054746 J0.489102
G03 X229.573030 Y134.094765 Z-0.125000 I-176.748841 J-34.649559
G02 X229.224608 Y135.720738 Z-0.125000 I22.296442 J5.628116
G02 X229.164479 Y136.406448 Z-0.125000 I3.879872 J0.685710
G03 X229.074058 Y137.049174 Z-0.125000 I-2.329501 J-0.000000
G03 X228.922595 Y137.249107 Z-0.125000 I-0.334392 J-0.095987
G02 X228.770128 Y137.455864 Z-0.125000 I0.181191 J0.293209
G02 X228.497808 Y138.888536 Z-0.125000 I10.752839 J2.786098
G03 X228.287450 Y140.374086 Z-0.125000 I-40.212045 J-4.936487
G03 X228.009403 Y141.930694 Z-0.125000 I-44.423127 J-7.131874
G02 X227.748740 Y143.486818 Z-0.125000 I27.294378 J5.371914
G02 X227.716366 Y144.046779 Z-0.125000 I3.482559 J0.482261
G03 X227.657708 Y144.600952 Z-0.125000 I-2.189645 J0.048420
G03 X227.046565 Y146.869001 Z-0.125000 I-37.864229 J-8.986427
G02 X225.868124 Y152.513601 Z-0.125000 I31.557901 J9.533759
G02 X226.347727 Y152.751359 Z-0.125000 I0.282119 J0.033516
G02 X226.643605 Y152.282187 Z-0.125000 I-0.812261 J-0.840126
G02 X228.150983 Y147.364555 Z-0.125000 I-95.287287 J-31.897788
G03 X228.570735 Y146.218178 Z-0.125000 I7.436197 J2.072768
G03 X228.863142 Y145.812333 Z-0.125000 I1.177960 J0.540448
G03 X229.014105 Y145.837150 Z-0.125000 I0.065938 J0.070459
G03 X229.051946 Y146.164038 Z-0.125000 I-0.393386 J0.211174
G02 X228.866164 Y146.870521 Z-0.125000 I70.465883 J18.907918
G02 X227.961346 Y150.397372 Z-0.125000 I1754.888868 J452.098314
G03 X227.032778 Y153.912530 Z-0.125000 I-216.643744 J-55.348616
G03 X226.960310 Y154.065809 Z-0.125000 I-0.469061 J-0.127996
G03 X226.859625 Y154.079546 Z-0.125000 I-0.056771 J-0.040251
G03 X226.460294 Y153.659099 Z-0.125000 I1.429948 J-1.757991
G02 X226.234794 Y153.646779 Z-0.125000 I-0.117792 J0.086132
G02 X226.060035 Y154.096995 Z-0.125000 I0.492545 J0.450216
G02 X226.171694 Y155.036021 Z-0.125000 I4.004343 J0.000000
G02 X226.373279 Y155.395499 Z-0.125000 I0.739367 J-0.178356
G03 X226.512415 Y155.762637 Z-0.125000 I-0.338030 J0.338038
G03 X226.193422 Y158.344721 Z-0.125000 I-20.952892 J-1.277794
G03 X224.341835 Y164.704556 Z-0.125000 I-33.144890 J-6.200273
G03 X223.379666 Y165.355150 Z-0.125000 I-0.962169 J-0.386183
G02 X222.800356 Y165.539972 Z-0.125000 I-0.000000 J1.000310
G02 X222.286176 Y166.131938 Z-0.125000 I0.963270 J1.355984
G03 X221.022382 Y167.827969 Z-0.125000 I-5.783950 J-2.991026
G03 X220.532106 Y167.823522 Z-0.125000 I-0.242873 J-0.251841
G03 X220.475605 Y167.645610 Z-0.125000 I0.143507 J-0.143502
G03 X220.650111 Y167.137609 Z-0.125000 I1.656060 J0.284909
G02 X220.868160 Y166.591308 Z-0.125000 I-2.327698 J-1.245734
G02 X221.373986 Y164.502895 Z-0.125000 I-33.972222 J-9.333740
G03 X221.842187 Y162.397882 Z-0.125000 I89.939236 J18.899897
G03 X222.120416 Y161.323436 Z-0.125000 I23.704705 J5.565099
G02 X222.355829 Y160.249846 Z-0.125000 I-8.770269 J-2.485717
G02 X222.363810 Y159.771214 Z-0.125000 I-1.708304 J-0.267869
G03 X222.356495 Y159.292686 Z-0.125000 I2.226126 J-0.273349
G03 X222.447161 Y158.864038 Z-0.125000 I1.871381 J0.171917
G02 X223.678436 Y154.639046 Z-0.125000 I-50.029385 J-16.871795
G02 X224.675286 Y149.832927 Z-0.125000 I-63.772436 J-15.733653
G03 X225.000864 Y148.298425 Z-0.125000 I18.449903 J3.112758
G03 X225.326570 Y147.292927 Z-0.125000 I8.227791 J2.109689
G02 X226.586069 Y143.314619 Z-0.125000 I-28.191699 J-11.113781
G02 X226.427339 Y142.749573 Z-0.125000 I-0.582607 J-0.141155
G02 X226.168149 Y142.738656 Z-0.125000 I-0.135533 J0.135523
G02 X225.677093 Y143.383077 Z-0.125000 I1.206223 J1.428461
G02 X223.827116 Y148.133208 Z-0.125000 I37.739916 J17.433423
G02 X221.983307 Y154.912927 Z-0.125000 I75.207279 J24.093924
G03 X221.484822 Y157.023846 Z-0.125000 I-97.463839 J-21.901365
G03 X221.074749 Y158.581816 Z-0.125000 I-53.489724 J-13.246076
G02 X220.552639 Y160.696487 Z-0.125000 I35.050889 J9.775808
G02 X219.859141 Y164.226261 Z-0.125000 I97.021283 J20.894874
G03 X219.057844 Y168.590682 Z-0.125000 I-383.347599 J-68.125904
G03 X218.699019 Y170.348451 Z-0.125000 I-62.523599 J-11.847863
G02 X218.498293 Y171.538082 Z-0.125000 I12.203483 J2.670838
G02 X218.440035 Y172.517301 Z-0.125000 I8.200359 J0.979218
G03 X218.355589 Y173.486853 Z-0.125000 I-5.608130 J-0.000000
G03 X218.127595 Y174.297333 Z-0.125000 I-4.134073 J-0.725639
G02 X217.881482 Y175.109877 Z-0.125000 I4.908332 J1.930236
G02 X217.435149 Y177.490705 Z-0.125000 I41.955404 J9.097626
G03 X217.051835 Y179.889057 Z-0.125000 I-870.252513 J-137.857292
G03 X216.640230 Y182.420826 Z-0.125000 I-970.910715 J-156.547370
G02 X216.308768 Y184.935525 Z-0.125000 I39.847041 J6.531425
G02 X216.364646 Y185.177516 Z-0.125000 I0.385176 J0.038507
G03 X216.422035 Y185.420931 Z-0.125000 I-0.336023 J0.207695
G03 X215.876980 Y190.548493 Z-0.125000 I-167.246397 J-15.185368
G03 X215.048904 Y195.573967 Z-0.125000 I-60.127726 J-7.326633
G03 X214.728344 Y196.062827 Z-0.125000 I-0.781198 J-0.162723
G02 X214.348409 Y196.504888 Z-0.125000 I0.691508 J0.978626
G02 X214.206679 Y197.104422 Z-0.125000 I1.197182 J0.599534
G03 X214.106610 Y197.721525 Z-0.125000 I-1.952804 J-0.000000
G03 X213.924457 Y197.951740 Z-0.125000 I-0.408533 J-0.136073
G03 X213.763892 Y197.861346 Z-0.125000 I-0.055328 J-0.089523
G03 X213.940459 Y196.018857 Z-0.125000 I10.618946 J0.087915
G02 X214.214476 Y194.402114 Z-0.125000 I-54.090508 J-9.999243
G02 X214.350976 Y193.356468 Z-0.125000 I-22.484390 J-3.466882
G03 X214.485961 Y192.310559 Z-0.125000 I24.140277 J2.583865
G03 X214.744329 Y190.755074 Z-0.125000 I53.658412 J8.113542
G02 X214.990427 Y189.197795 Z-0.125000 I-34.643042 J-6.272738
G02 X215.316487 Y186.521740 Z-0.125000 I-102.005960 J-13.786668
G03 X215.638239 Y183.844880 Z-0.125000 I116.793539 J12.680537
G03 X215.893278 Y182.147287 Z-0.125000 I47.220519 J6.226266
G02 X216.112272 Y180.448265 Z-0.125000 I-21.687464 J-3.659004
G02 X216.183660 Y178.901732 Z-0.125000 I-17.892040 J-1.600810
G03 X216.289714 Y177.364431 Z-0.125000 I11.699541 J0.034809
G03 X216.566288 Y176.079509 Z-0.125000 I8.440448 J1.144549
G02 X216.828958 Y174.791513 Z-0.125000 I-7.162555 J-2.131489
G02 X216.995850 Y172.298099 Z-0.125000 I-26.835741 J-3.048496
G03 X217.128607 Y169.810651 Z-0.125000 I38.007445 J0.781225
G03 X217.239382 Y169.476159 Z-0.125000 I0.757907 J0.065409
G02 X217.442792 Y168.925033 Z-0.125000 I-1.257609 J-0.777259
G02 X217.996263 Y164.586066 Z-0.125000 I-81.000576 J-12.537073
G03 X218.252404 Y163.161771 Z-0.125000 I9.268944 J0.931722
G03 X219.050369 Y160.553618 Z-0.125000 I32.017877 J8.369725
G02 X219.228648 Y159.829896 Z-0.125000 I-3.645576 J-1.281860
G02 X219.413369 Y158.066620 Z-0.125000 I-21.632679 J-3.157547
G03 X219.660048 Y156.333255 Z-0.125000 I11.278273 J0.720807
G03 X219.953770 Y155.637505 Z-0.125000 I2.052471 J0.456608
G02 X220.256165 Y154.950325 Z-0.125000 I-1.906115 J-1.248915
G02 X220.362061 Y154.032281 Z-0.125000 I-3.346228 J-0.851115
G03 X220.829635 Y150.924969 Z-0.125000 I9.353474 J-0.181369
G03 X222.544799 Y147.403389 Z-0.125000 I13.808350 J4.546804
G02 X223.019785 Y146.478945 Z-0.125000 I-3.809341 J-2.541514
G02 X223.500274 Y144.871940 Z-0.125000 I-11.158989 J-4.211833
G03 X223.956758 Y143.254222 Z-0.125000 I14.956931 J3.347250
G03 X224.281454 Y142.590512 Z-0.125000 I2.801385 J0.959197
G02 X224.566946 Y141.935531 Z-0.125000 I-1.776736 J-1.164152
G02 X224.597144 Y141.311922 Z-0.125000 I-1.574669 J-0.388791
G02 X224.377758 Y141.229146 Z-0.125000 I-0.132631 J0.019405
G02 X223.446491 Y142.288873 Z-0.125000 I3.140440 J3.698808
G02 X222.445889 Y143.933333 Z-0.125000 I28.391940 J18.402239
G02 X222.391129 Y144.139941 Z-0.125000 I0.362381 J0.206607
G03 X222.336486 Y144.343292 Z-0.125000 I-0.405699 J-0.000000
G03 X221.944755 Y144.910577 Z-0.125000 I-3.764306 J-2.180494
G03 X221.730966 Y145.028002 Z-0.125000 I-0.251864 J-0.205225
G03 X221.661551 Y144.943992 Z-0.125000 I-0.007600 J-0.064403
G02 X221.528215 Y143.324515 Z-0.125000 I-2.040490 J-0.647229
G02 X219.415643 Y140.538435 Z-0.125000 I-8.829957 J4.501421
G03 X218.543633 Y139.324821 Z-0.125000 I2.511581 J-2.724717
G03 X218.498963 Y138.485833 Z-0.125000 I1.069477 J-0.477625
G03 X218.829646 Y137.568015 Z-0.125000 I14.428254 J4.679925
G03 X219.148274 Y136.850609 Z-0.125000 I9.124395 J3.623036
G02 X219.935084 Y134.404233 Z-0.125000 I-7.879958 J-3.884090
G02 X219.616450 Y134.028387 Z-0.125000 I-0.318634 J-0.052858
G02 X218.723703 Y134.594302 Z-0.125000 I0.000000 J0.987125
G02 X218.157796 Y137.119962 Z-0.125000 I5.353094 J2.525660
G03 X218.035510 Y137.269047 Z-0.125000 I-0.152022 J0.000000
G03 X217.478848 Y137.255400 Z-0.125000 I-0.248015 J-1.243453
G02 X216.737308 Y137.639796 Z-0.125000 I-0.153460 J0.611412
G02 X216.755408 Y139.129441 Z-0.125000 I1.870845 J0.722200
G03 X216.938450 Y139.933611 Z-0.125000 I-2.266519 J0.938813
G03 X216.820192 Y140.308085 Z-0.125000 I-0.555368 J0.030526
G02 X216.613351 Y140.691971 Z-0.125000 I0.998174 J0.785492
G02 X216.373496 Y141.648387 Z-0.125000 I6.161458 J2.053484
G03 X216.184813 Y142.631909 Z-0.125000 I-24.912568 J-4.269472
G03 X216.013720 Y143.341731 Z-0.125000 I-13.143732 J-2.792602
G02 X216.253542 Y143.469210 Z-0.125000 I0.134491 J0.036311
G02 X217.059105 Y142.133933 Z-0.125000 I-3.472538 J-3.005590
G03 X217.621821 Y141.061082 Z-0.125000 I5.101572 J1.991803
G03 X217.911526 Y140.871486 Z-0.125000 I0.370699 J0.250298
G03 X219.485938 Y141.526743 Z-0.125000 I0.283358 J1.538244
G03 X220.415573 Y144.532766 Z-0.125000 I-4.395243 J3.006022
G02 X220.600483 Y145.227354 Z-0.125000 I1.397019 J0.000000
G02 X220.980018 Y145.517749 Z-0.125000 I0.535777 J-0.307022
G03 X221.301814 Y145.876508 Z-0.125000 I-0.110583 J0.422890
G03 X221.154031 Y146.690947 Z-0.125000 I-1.275491 J0.189184
G03 X220.810187 Y146.979472 Z-0.125000 I-0.547854 J-0.303748
G03 X220.600398 Y146.881645 Z-0.125000 I-0.054255 J-0.157510
G02 X220.138454 Y146.859855 Z-0.125000 I-0.235754 J0.090468
G02 X217.595005 Y152.937287 Z-0.125000 I45.904841 J22.782443
G02 X217.268135 Y153.929337 Z-0.125000 I35.916027 J12.383846
G02 X217.018405 Y154.771732 Z-0.125000 I25.646706 J8.061222
G03 X216.757910 Y155.610523 Z-0.125000 I-14.456638 J-4.029810
G03 X215.905338 Y158.017287 Z-0.125000 I-119.988266 J-41.150265
G02 X213.005051 Y167.275936 Z-0.125000 I97.094249 J35.498519
G02 X211.128555 Y176.220621 Z-0.125000 I88.726949 J23.283109
G03 X210.307267 Y181.107093 Z-0.125000 I-255.856732 J-40.490555
G03 X209.371055 Y186.098407 Z-0.125000 I-267.889586 J-47.664093
G02 X209.119654 Y187.513544 Z-0.125000 I37.254624 J7.348238
G02 X208.991577 Y188.497296 Z-0.125000 I17.866333 J2.826286
G03 X208.869054 Y189.482141 Z-0.125000 I-22.720832 J-2.326613
G03 X208.598698 Y191.178407 Z-0.125000 I-67.693405 J-9.919500
G02 X208.256478 Y193.309558 Z-0.125000 I93.413248 J16.093348
G02 X207.148699 Y200.915074 Z-0.125000 I1188.754817 J177.031045
G02 X206.880430 Y203.035213 Z-0.125000 I67.925024 J9.671865
G02 X206.742409 Y204.583963 Z-0.125000 I36.097384 J3.997424
G03 X206.584575 Y206.124258 Z-0.125000 I-22.303086 J-1.507173
G03 X206.470548 Y206.559518 Z-0.125000 I-1.870072 J-0.257346
G02 X206.360243 Y206.995188 Z-0.125000 I1.641453 J0.647389
G02 X206.212670 Y208.693177 Z-0.125000 I25.195729 J3.045177
G03 X206.061862 Y210.385417 Z-0.125000 I-23.714258 J-1.260517
G03 X205.965113 Y210.668733 Z-0.125000 I-0.731706 J-0.091691
G02 X205.867627 Y210.952625 Z-0.125000 I0.641874 J0.379097
G02 X205.622063 Y213.332851 Z-0.125000 I46.985936 J6.050241
G03 X205.408576 Y215.729109 Z-0.125000 I-106.053187 J-8.240843
G03 X205.040601 Y219.118407 Z-0.125000 I-212.527837 J-21.359472
G02 X204.700077 Y222.509131 Z-0.125000 I105.565416 J12.314206
G02 X204.576901 Y224.621740 Z-0.125000 I40.837843 J3.440938
G03 X204.211434 Y226.748247 Z-0.125000 I-7.850830 J-0.254608
G03 X203.868487 Y226.848739 Z-0.125000 I-0.205336 J-0.065318
G02 X203.318950 Y226.970054 Z-0.125000 I-0.227615 J0.274258
G02 X202.211360 Y230.336740 Z-0.125000 I12.768128 J6.066058
G03 X201.961666 Y230.993090 Z-0.125000 I-2.020931 J-0.393150
G03 X201.751498 Y231.112852 Z-0.125000 I-0.210167 J-0.124529
G03 X201.607292 Y230.982482 Z-0.125000 I0.000000 J-0.144941
G03 X201.658814 Y230.195629 Z-0.125000 I2.372656 J-0.239755
G02 X201.788934 Y229.268117 Z-0.125000 I-4.956099 J-1.168170
G02 X201.902513 Y225.045074 Z-0.125000 I-103.476884 J-4.896067
G03 X202.043283 Y220.845467 Z-0.125000 I77.791777 J0.505411
G03 X202.182790 Y220.419404 Z-0.125000 I0.883941 J0.053560
G02 X202.338953 Y219.996628 Z-0.125000 I-0.873904 J-0.563027
G02 X202.513225 Y217.992541 Z-0.125000 I-20.520712 J-2.794062
G03 X202.662345 Y215.967883 Z-0.125000 I28.685106 J1.094903
G03 X202.855989 Y214.857100 Z-0.125000 I8.802713 J0.962315
G02 X203.558279 Y211.065340 Z-0.125000 I-35.275510 J-8.494462
G02 X203.766037 Y207.894836 Z-0.125000 I-24.424552 J-3.192563
G03 X203.853778 Y206.147895 Z-0.125000 I17.744201 J0.015532
G03 X204.040154 Y205.148407 Z-0.125000 I5.967816 J0.595709
G02 X204.235960 Y204.148164 Z-0.125000 I-6.478703 J-1.787550
G02 X204.439634 Y201.761740 Z-0.125000 I-36.856340 J-4.347473
G03 X204.654973 Y199.373340 Z-0.125000 I32.324249 J1.710454
G03 X205.142161 Y196.258407 Z-0.125000 I55.498975 J7.084707
G02 X205.629277 Y193.143315 Z-0.125000 I-54.957993 J-10.189575
G02 X205.859395 Y190.637167 Z-0.125000 I-35.323769 J-4.507114
G03 X206.130028 Y188.197108 Z-0.125000 I22.607112 J1.272372
G03 X206.309370 Y187.929832 Z-0.125000 I0.383934 J0.063812
G02 X206.825091 Y187.213627 Z-0.125000 I-0.605704 J-0.979933
G02 X207.636069 Y182.288398 Z-0.125000 I-35.870277 J-8.435704
G03 X207.866359 Y180.769144 Z-0.125000 I13.906525 J1.330889
G03 X208.021740 Y180.437783 Z-0.125000 I0.775819 J0.161682
G02 X208.344442 Y179.819485 Z-0.125000 I-1.442261 J-1.146107
G02 X209.409474 Y175.797287 Z-0.125000 I-62.817001 J-18.785333
G03 X210.528721 Y171.600865 Z-0.125000 I63.104286 J14.583357
G03 X211.271119 Y169.652689 Z-0.125000 I14.283385 J4.327477
G02 X211.623010 Y168.705070 Z-0.125000 I-5.852778 J-2.712532
G02 X211.993622 Y167.112689 Z-0.125000 I-16.231625 J-4.617074
G03 X212.411066 Y165.536587 Z-0.125000 I10.200856 J1.858451
G03 X213.254647 Y163.520620 Z-0.125000 I17.576180 J6.170273
G02 X214.106577 Y161.519191 Z-0.125000 I-18.591704 J-9.095786
G02 X214.213926 Y160.891523 Z-0.125000 I-1.666402 J-0.608017
G03 X214.285744 Y160.257313 Z-0.125000 I2.583657 J-0.028601
G03 X214.506628 Y159.677516 Z-0.125000 I2.373507 J0.572257
G02 X214.703278 Y159.100044 Z-0.125000 I-1.655313 J-0.885915
G02 X214.703311 Y158.496613 Z-0.125000 I-1.812157 J-0.301813
G02 X214.526774 Y158.430422 Z-0.125000 I-0.107378 J0.017871
G02 X214.085295 Y159.005065 Z-0.125000 I1.021628 J1.241791
G03 X213.559354 Y160.128505 Z-0.125000 I-56.292085 J-25.668423
G03 X213.183056 Y160.883056 Z-0.125000 I-25.782467 J-12.386733
G02 X212.849746 Y161.645361 Z-0.125000 I5.674655 J2.935203
G02 X212.795573 Y161.954428 Z-0.125000 I0.854556 J0.309067
G03 X212.735407 Y162.263339 Z-0.125000 I-0.823093 J0.000000
G03 X211.830071 Y164.338952 Z-0.125000 I-39.497079 J-15.992475
G02 X210.926396 Y166.425901 Z-0.125000 I35.230079 J16.494197
G02 X210.119229 Y168.629774 Z-0.125000 I38.488461 J15.346116
G03 X209.360660 Y170.853543 Z-0.125000 I-185.850857 J-62.155969
G03 X209.147733 Y171.422843 Z-0.125000 I-12.388893 J-4.309167
G02 X208.715918 Y172.644034 Z-0.125000 I14.595161 J5.847803
G02 X207.714016 Y176.079509 Z-0.125000 I114.678438 J35.308008
G03 X207.359269 Y177.348139 Z-0.125000 I-166.706839 J-45.932281
G03 X206.993311 Y178.619509 Z-0.125000 I-167.694923 J-47.581927
G02 X206.012574 Y182.289823 Z-0.125000 I79.436518 J23.192258
G02 X205.280510 Y185.675074 Z-0.125000 I66.841743 J16.226378
G02 X203.021494 Y198.377327 Z-0.125000 I537.616391 J102.163695
G02 X202.474529 Y202.608407 Z-0.125000 I59.034458 J9.782456
G03 X202.300384 Y204.155242 Z-0.125000 I-40.355685 J-3.760083
G03 X202.213606 Y204.583963 Z-0.125000 I-3.172446 J-0.418996
G02 X202.125774 Y205.012883 Z-0.125000 I3.194890 J0.877685
G02 X201.673470 Y208.535074 Z-0.125000 I215.963650 J29.523269
G03 X201.238416 Y212.061367 Z-0.125000 I-554.157433 J-66.578691
G03 X201.066034 Y213.332851 Z-0.125000 I-72.187236 J-9.139391
G02 X200.919518 Y214.606499 Z-0.125000 I21.854499 J3.159322
G02 X200.763673 Y216.860629 Z-0.125000 I68.340108 J5.857329
G03 X200.616292 Y219.115569 Z-0.125000 I-88.774454 J-4.669940
G03 X200.521111 Y219.965074 Z-0.125000 I-12.684110 J-0.991073
G02 X199.840891 Y226.036243 Z-0.125000 I89.950488 J13.151838
G02 X199.087919 Y238.309518 Z-0.125000 I367.174277 J28.686075
G03 X198.834598 Y241.651239 Z-0.125000 I-53.864538 J-2.402766
G03 X198.699519 Y241.934318 Z-0.125000 I-0.469609 J-0.050319
G03 X198.432172 Y242.073594 Z-0.125000 I-0.353464 J-0.352261
G03 X197.938329 Y242.067680 Z-0.125000 I-0.231154 J-1.319382
G03 X197.605004 Y241.814871 Z-0.125000 I0.094024 J-0.470116
G03 X197.458461 Y241.123991 Z-0.125000 I1.217930 J-0.619318
G02 X197.640084 Y234.731394 Z-0.125000 I-133.087384 J-6.980085
G02 X197.507291 Y230.047384 Z-0.125000 I-71.550392 J-0.315415
G03 X197.455919 Y228.022258 Z-0.125000 I28.299201 J-1.731093
G03 X197.530123 Y227.845709 Z-0.125000 I0.253381 J0.002628
G02 X197.608446 Y227.667873 Z-0.125000 I-0.189726 J-0.189726
G02 X197.714470 Y223.690066 Z-0.125000 I-112.403280 J-4.986299
G03 X197.849994 Y219.690892 Z-0.125000 I80.318650 J0.719947
G03 X198.074888 Y217.566185 Z-0.125000 I22.860039 J1.345411
G02 X198.379589 Y215.446839 Z-0.125000 I-113.425185 J-17.388837
G02 X198.681149 Y213.050629 Z-0.125000 I-144.684037 J-19.425427
G03 X199.738764 Y204.164880 Z-0.125000 I2871.052557 J337.217333
G03 X200.280757 Y199.786185 Z-0.125000 I697.715161 J84.139998
G02 X200.689413 Y196.256678 Z-0.125000 I-159.881046 J-20.299893
G02 X200.707550 Y195.706970 Z-0.125000 I-3.841233 J-0.401891
G03 X200.759339 Y195.178395 Z-0.125000 I1.957382 J-0.075042
G03 X200.909040 Y194.860303 Z-0.125000 I0.835153 J0.198767
G02 X201.052302 Y194.533069 Z-0.125000 I-0.616563 J-0.464906
G02 X201.473885 Y191.742851 Z-0.125000 I-47.415232 J-8.591084
G03 X201.842213 Y188.924430 Z-0.125000 I152.117669 J18.446342
G03 X202.116110 Y187.159816 Z-0.125000 I59.895346 J8.393185
G02 X202.317271 Y185.408796 Z-0.125000 I-15.986314 J-2.723613
G02 X202.248193 Y184.961446 Z-0.125000 I-1.067635 J-0.064147
G03 X202.200046 Y184.530428 Z-0.125000 I0.802179 J-0.307806
G03 X202.401990 Y183.900037 Z-0.125000 I1.980890 J0.287032
G02 X202.720849 Y183.274742 Z-0.125000 I-68.702741 J-35.427853
G02 X202.971173 Y182.771204 Z-0.125000 I-44.240088 J-22.307049
G02 X203.130315 Y182.244809 Z-0.125000 I-1.530000 J-0.749810
G02 X203.251131 Y180.654529 Z-0.125000 I-14.206504 J-1.879025
G03 X203.408360 Y179.073705 Z-0.125000 I10.065179 J0.202848
G03 X203.685570 Y178.241247 Z-0.125000 I3.022556 J0.544134
G02 X203.961761 Y177.433484 Z-0.125000 I-2.827415 J-1.417853
G02 X203.925925 Y177.018547 Z-0.125000 I-0.738726 J-0.145215
G03 X203.881074 Y176.590756 Z-0.125000 I0.775384 J-0.297541
G03 X204.358834 Y174.292365 Z-0.125000 I24.430854 J3.879525
G02 X204.923127 Y171.981051 Z-0.125000 I-88.956672 J-22.942750
G02 X205.085195 Y171.140621 Z-0.125000 I-11.583737 J-2.669644
G03 X205.258621 Y170.304037 Z-0.125000 I8.459866 J1.317483
G03 X205.619645 Y169.084660 Z-0.125000 I18.358267 J4.772245
G02 X205.932875 Y167.860846 Z-0.125000 I-8.471955 J-2.820354
G02 X206.022240 Y166.869300 Z-0.125000 I-5.456119 J-0.991546
G03 X206.117439 Y165.875702 Z-0.125000 I5.232720 J-0.000000
G03 X206.734592 Y163.185990 Z-0.125000 I39.270406 J7.594905
G02 X207.385001 Y160.505607 Z-0.125000 I-60.593092 J-16.122350
G02 X207.394303 Y160.180238 Z-0.125000 I-0.852916 J-0.187201
G03 X207.419742 Y159.862007 Z-0.125000 I0.666707 J-0.106838
G03 X207.953146 Y158.484986 Z-0.125000 I13.720109 J4.522810
G02 X208.517797 Y157.102554 Z-0.125000 I-20.699620 J-9.261244
G02 X208.737413 Y156.368319 Z-0.125000 I-5.600934 J-2.075251
G03 X208.934817 Y155.625239 Z-0.125000 I11.277620 J2.598212
G03 X209.577687 Y153.581826 Z-0.125000 I86.031677 J25.943264
G02 X210.115371 Y151.548484 Z-0.125000 I-17.178805 J-5.630410
G02 X210.079072 Y151.112382 Z-0.125000 I-0.766977 J-0.155723
G03 X210.071234 Y150.788304 Z-0.125000 I0.450932 J-0.173039
G03 X210.221591 Y150.679509 Z-0.125000 I0.150357 J0.049501
G02 X210.457933 Y150.566108 Z-0.125000 I0.000000 J-0.302982
G02 X210.957339 Y149.762287 Z-0.125000 I-3.080058 J-2.470660
G03 X212.066714 Y147.611352 Z-0.125000 I27.179786 J12.656801
G03 X213.172413 Y145.862456 Z-0.125000 I19.054066 J10.822521
G02 X213.073978 Y145.065309 Z-0.125000 I-0.491132 J-0.344004
G02 X212.299077 Y145.105620 Z-0.125000 I-0.366498 J0.422913
G02 X208.951022 Y150.073714 Z-0.125000 I13.738631 J12.870815
G02 X207.997790 Y154.405492 Z-0.125000 I9.365854 J4.331778
G03 X207.927994 Y154.831212 Z-0.125000 I-1.333226 J0.000000
G03 X207.576195 Y155.656696 Z-0.125000 I-5.466561 J-1.841991
G02 X207.227393 Y156.483036 Z-0.125000 I4.896293 J2.553538
G02 X207.152862 Y156.942303 Z-0.125000 I1.411130 J0.464682
G03 X207.067729 Y157.372814 Z-0.125000 I-1.149859 J-0.003709
G03 X206.893458 Y157.578770 Z-0.125000 I-0.403136 J-0.164408
G02 X206.720961 Y157.795342 Z-0.125000 I0.215507 J0.348629
G02 X206.435230 Y158.925140 Z-0.125000 I6.873039 J2.339254
G03 X206.184631 Y160.095726 Z-0.125000 I-13.561364 J-2.291100
G03 X206.013593 Y160.546422 Z-0.125000 I-2.158579 J-0.561374
G02 X205.205463 Y162.751337 Z-0.125000 I8.766256 J4.463499
G02 X203.880603 Y169.588398 Z-0.125000 I84.204551 J19.863738
G03 X203.647751 Y170.850371 Z-0.125000 I-20.258865 J-3.085568
G03 X203.145371 Y172.975065 Z-0.125000 I-57.960596 J-12.582938
G02 X202.649377 Y175.101491 Z-0.125000 I49.350926 J12.632282
G02 X202.193664 Y177.490621 Z-0.125000 I61.845567 J13.034719
G03 X201.148928 Y183.059054 Z-0.125000 I-172.118509 J-29.410257
G03 X200.866458 Y183.981740 Z-0.125000 I-4.962776 J-1.014717
G02 X200.741612 Y184.417544 Z-0.125000 I1.849588 J0.765640
G02 X200.560007 Y185.816185 Z-0.125000 I19.111257 J3.192596
G03 X200.395998 Y187.223088 Z-0.125000 I-30.226598 J-2.810634
G03 X199.966104 Y190.049518 Z-0.125000 I-122.472366 J-17.181878
G02 X198.974023 Y196.613978 Z-0.125000 I261.956796 J42.946513
G02 X198.547446 Y200.302778 Z-0.125000 I82.262358 J11.381959
G03 X198.359260 Y201.790997 Z-0.125000 I-22.625414 J-2.104998
G03 X198.271221 Y202.027625 Z-0.125000 I-0.635612 J-0.101790
G02 X198.007136 Y202.780864 Z-0.125000 I1.581332 J0.977328
G02 X197.395342 Y209.240629 Z-0.125000 I121.956948 J14.809203
G03 X197.227531 Y211.212047 Z-0.125000 I-58.394470 J-3.977801
G03 X197.106984 Y212.062851 Z-0.125000 I-10.982482 J-1.122118
G02 X196.979568 Y212.913010 Z-0.125000 I13.686316 J2.485850
G02 X196.822930 Y214.461740 Z-0.125000 I45.293814 J5.363262
G03 X196.681118 Y216.012858 Z-0.125000 I-104.290914 J-8.752852
G03 X196.404107 Y218.695074 Z-0.125000 I-312.151595 J-30.882652
G02 X196.190090 Y221.381107 Z-0.125000 I48.360688 J5.204813
G02 X195.979710 Y226.879518 Z-0.125000 I202.566654 J10.503837
G03 X195.721533 Y232.370066 Z-0.125000 I-123.166099 J-3.040164
G03 X195.450828 Y234.499518 Z-0.125000 I-18.745444 J-1.301071
G02 X195.089110 Y236.620874 Z-0.125000 I71.929810 J13.356450
G02 X194.880632 Y238.168407 Z-0.125000 I38.063733 J5.915626
G03 X194.327344 Y241.049878 Z-0.125000 I-19.180261 J-2.189060
G03 X194.035560 Y241.272852 Z-0.125000 I-0.291784 J-0.079428
G03 X193.652350 Y240.932521 Z-0.125000 I0.000000 J-0.385911
G03 X193.170142 Y233.997123 Z-0.125000 I70.510582 J-8.386953
G02 X192.969654 Y227.694651 Z-0.125000 I-277.570418 J5.675367
G02 X192.886269 Y227.423521 Z-0.125000 I-0.561299 J0.024239
G03 X192.837397 Y227.170119 Z-0.125000 I0.309084 J-0.191026
G03 X193.025554 Y226.624313 Z-0.125000 I1.791067 J0.312106
G02 X193.241912 Y226.056026 Z-0.125000 I-2.106174 J-1.127191
G02 X193.315597 Y225.419035 Z-0.125000 I-2.582714 J-0.621515
G03 X193.318135 Y224.762921 Z-0.125000 I35.112703 J-0.192206
G03 X193.336368 Y223.863282 Z-0.125000 I63.793839 J0.842904
G02 X193.264595 Y222.986489 Z-0.125000 I-4.040085 J-0.110618
G02 X193.050810 Y222.384167 Z-0.125000 I-2.095007 J0.404490
G03 X192.931068 Y221.803269 Z-0.125000 I0.920208 J-0.492475
G03 X193.170820 Y220.972751 Z-0.125000 I2.209003 J0.187823
G02 X193.511737 Y220.119110 Z-0.125000 I-4.202862 J-2.173386
G02 X193.601911 Y219.488536 Z-0.125000 I-2.182032 J-0.633774
G03 X193.789306 Y215.661584 Z-0.125000 I40.328477 J0.056710
G03 X194.470507 Y210.510629 Z-0.125000 I73.823604 J7.142455
G02 X194.770668 Y208.388208 Z-0.125000 I-40.615027 J-6.826377
G02 X194.885890 Y206.897623 Z-0.125000 I-19.903648 J-2.288291
G03 X195.267700 Y201.801477 Z-0.125000 I73.054207 J2.910942
G03 X195.528888 Y201.061784 Z-0.125000 I1.712313 J0.188664
G02 X195.637953 Y200.750852 Z-0.125000 I-0.604182 J-0.386523
G02 X195.768763 Y198.798407 Z-0.125000 I-25.154177 J-2.665876
G02 X195.621608 Y197.411166 Z-0.125000 I-5.223101 J-0.147375
G02 X195.420029 Y197.370681 Z-0.125000 I-0.110264 J0.026933
G02 X195.127135 Y197.955231 Z-0.125000 I1.541423 J1.137998
G02 X195.015568 Y198.711237 Z-0.125000 I2.505660 J0.756006
G03 X194.889658 Y199.378054 Z-0.125000 I-1.828677 J-0.000000
G03 X194.705132 Y199.503962 Z-0.125000 I-0.184526 J-0.072262
G03 X194.552772 Y199.358771 Z-0.125000 I0.000000 J-0.152537
G03 X194.592887 Y197.175629 Z-0.125000 I16.399486 J-0.790603
G02 X194.767478 Y194.845792 Z-0.125000 I-115.020885 J-9.790781
G02 X194.880781 Y192.730629 Z-0.125000 I-94.695942 J-6.133236
G03 X195.064048 Y190.625544 Z-0.125000 I23.736835 J1.005981
G03 X195.495854 Y188.073962 Z-0.125000 I35.328922 J4.666411
G01 X196.021219 Y185.533962 Z-0.125000
G01 X197.493950 Y185.593765 Z-0.125000
G02 X198.564299 Y185.170112 Z-0.125000 I0.057599 J-1.418408
G02 X198.532091 Y184.536843 Z-0.125000 I-0.307285 J-0.301825
G02 X198.061418 Y184.356515 Z-0.125000 I-0.501297 J0.604019
G02 X197.103987 Y184.481076 Z-0.125000 I-0.112375 J2.878144
G03 X196.261011 Y184.230888 Z-0.125000 I-0.233158 J-0.759649
G03 X196.174736 Y183.368782 Z-0.125000 I0.592053 J-0.494620
G02 X196.462321 Y182.687819 Z-0.125000 I-3.357999 J-1.819362
G02 X196.732441 Y181.582843 Z-0.125000 I-8.634455 J-2.696264
G03 X196.972161 Y180.462474 Z-0.125000 I16.612334 J2.968624
G03 X197.965905 Y176.643954 Z-0.125000 I194.197850 J48.500111
G02 X198.958681 Y172.825103 Z-0.125000 I-188.245057 J-50.976001
G02 X199.231818 Y171.563954 Z-0.125000 I-20.239683 J-5.043631
G03 X199.511995 Y170.306415 Z-0.125000 I17.186107 J3.169049
G03 X199.822989 Y169.306176 Z-0.125000 I11.174238 J2.925822
G03 X200.583213 Y167.236568 Z-0.125000 I198.269019 J71.655225
G03 X200.910679 Y166.392260 Z-0.125000 I33.314763 J12.435524
G02 X201.126593 Y165.603964 Z-0.125000 I-3.293748 J-1.325872
G02 X201.072286 Y165.337172 Z-0.125000 I-0.389438 J-0.059650
G03 X201.033381 Y165.071061 Z-0.125000 I0.288061 J-0.178013
G03 X201.498294 Y163.756078 Z-0.125000 I8.794409 J2.369596
G02 X201.869643 Y162.499059 Z-0.125000 I-4.651239 J-2.057432
G02 X201.742755 Y162.222088 Z-0.125000 I-0.271342 J-0.043242
G03 X201.594559 Y161.977832 Z-0.125000 I0.165196 J-0.267314
G03 X201.699713 Y161.637126 Z-0.125000 I0.488158 J-0.035917
G02 X201.941973 Y161.233361 Z-0.125000 I-1.402233 J-1.115903
G02 X202.350659 Y160.133954 Z-0.125000 I-10.204610 J-4.419054
G03 X202.757355 Y159.036107 Z-0.125000 I10.825204 J3.385927
G03 X202.951883 Y158.736954 Z-0.125000 I0.967837 J0.416524
G02 X203.125526 Y158.439659 Z-0.125000 I-0.583948 J-0.540428
G02 X203.200012 Y157.963806 Z-0.125000 I-1.482733 J-0.475853
G03 X203.272266 Y157.472255 Z-0.125000 I1.708184 J-0.000000
G03 X203.882652 Y155.691917 Z-0.125000 I23.475413 J7.053706
G03 X204.565653 Y153.925210 Z-0.125000 I4242.962373 J1639.299521
G03 X205.312003 Y151.996894 Z-0.125000 I5204.339991 J2013.212648
G03 X206.114246 Y150.096110 Z-0.125000 I32.176849 J12.460833
G03 X206.603864 Y149.174672 Z-0.125000 I8.025375 J3.673588
G02 X207.050685 Y148.252917 Z-0.125000 I-4.552742 J-2.776120
G02 X207.150068 Y147.702065 Z-0.125000 I-1.492962 J-0.553747
G03 X207.233083 Y147.156927 Z-0.125000 I1.852988 J0.003287
G03 X207.412380 Y146.855398 Z-0.125000 I0.716603 J0.222039
G02 X207.634656 Y146.559081 Z-0.125000 I-1.032304 J-1.005888
G02 X208.964602 Y144.110928 Z-0.125000 I-70.963905 J-40.136078
G02 X209.870383 Y141.656606 Z-0.125000 I-9.157214 J-4.773823
G02 X209.564739 Y141.507276 Z-0.125000 I-0.170141 J-0.039217
G02 X207.311604 Y144.981891 Z-0.125000 I15.033600 J12.216463
G02 X206.868901 Y146.838324 Z-0.125000 I3.671038 J1.856432
G03 X206.764369 Y147.188314 Z-0.125000 I-0.638176 J-0.000000
G03 X206.570810 Y147.292843 Z-0.125000 I-0.193559 J-0.126946
G02 X206.351011 Y147.411815 Z-0.125000 I0.000000 J0.262522
G02 X205.695297 Y148.633398 Z-0.125000 I6.763830 J4.417426
G03 X205.107502 Y149.969312 Z-0.125000 I-86.042790 J-37.061141
G03 X204.300058 Y151.738605 Z-0.125000 I-151.827358 J-68.219808
G02 X203.541189 Y153.517052 Z-0.125000 I28.597627 J13.253835
G02 X203.472659 Y153.855271 Z-0.125000 I0.935063 J0.365514
G03 X203.406597 Y154.193544 Z-0.125000 I-1.044955 J-0.028485
G03 X202.917790 Y155.336176 Z-0.125000 I-12.722526 J-4.766700
G02 X202.430433 Y156.479116 Z-0.125000 I11.926143 J5.760761
G02 X202.362922 Y156.827777 Z-0.125000 I1.014005 J0.377210
G03 X202.290312 Y157.171240 Z-0.125000 I-0.970047 J-0.025665
G03 X201.956615 Y157.815555 Z-0.125000 I-3.832831 J-1.576495
G02 X201.646963 Y158.475850 Z-0.125000 I2.429755 J1.542209
G02 X201.210236 Y160.133954 Z-0.125000 I15.143031 J4.875088
G03 X200.785981 Y161.798224 Z-0.125000 I-18.298256 J-3.778368
G03 X200.522740 Y162.391732 Z-0.125000 I-2.554268 J-0.777775
G02 X199.434179 Y164.879453 Z-0.125000 I9.207041 J5.510779
G02 X198.326757 Y169.870621 Z-0.125000 I36.494047 J10.715605
G03 X198.191907 Y170.570204 Z-0.125000 I-8.953931 J-1.363146
G03 X197.897692 Y171.705065 Z-0.125000 I-23.880313 J-5.585462
G02 X196.898343 Y175.567532 Z-0.125000 I78.664254 J22.413577
G02 X196.386118 Y178.196176 Z-0.125000 I35.895775 J8.358980
G03 X196.050803 Y179.867584 Z-0.125000 I-20.112123 J-3.165526
G03 X195.828904 Y180.474443 Z-0.125000 I-2.841209 J-0.694892
G02 X195.629328 Y181.082689 Z-0.125000 I1.995404 J0.991593
G02 X195.483879 Y182.450007 Z-0.125000 I10.127042 J1.768661
G03 X195.362600 Y183.819931 Z-0.125000 I-13.957093 J-0.545285
G03 X195.252321 Y184.122851 Z-0.125000 I-0.760247 J-0.105237
G02 X195.140216 Y184.427521 Z-0.125000 I0.665168 J0.417713
G02 X194.739250 Y187.650629 Z-0.125000 I77.805627 J11.315791
G03 X193.769880 Y192.189776 Z-0.125000 I-21.557706 J-2.230733
G03 X192.983461 Y192.990276 Z-0.125000 I-1.203422 J-0.395711
G03 X191.668407 Y192.597577 Z-0.125000 I-0.385734 J-1.106518
G03 X191.455637 Y191.001205 Z-0.125000 I1.279668 J-0.982924
G02 X191.767638 Y190.028994 Z-0.125000 I-5.949430 J-2.445455
G02 X192.014744 Y188.624945 Z-0.125000 I-12.206621 J-2.872080
G03 X192.238028 Y187.210531 Z-0.125000 I18.128662 J2.137017
G03 X192.738331 Y184.976799 Z-0.125000 I45.759097 J9.076058
G02 X193.197461 Y182.768278 Z-0.125000 I-27.423629 J-6.853091
G02 X193.148053 Y182.517120 Z-0.125000 I-0.359041 J-0.059807
G03 X193.100184 Y182.267680 Z-0.125000 I0.303488 J-0.187553
G03 X193.474827 Y180.661923 Z-0.125000 I14.806636 J2.607981
G02 X193.887616 Y179.031062 Z-0.125000 I-22.332980 J-6.520398
G02 X194.065540 Y177.913954 Z-0.125000 I-10.283709 J-2.210634
G03 X194.251072 Y176.804310 Z-0.125000 I9.100971 J0.951341
G03 X194.456988 Y176.220621 Z-0.125000 I2.698428 J0.623796
G02 X195.219216 Y174.136631 Z-0.125000 I-9.953143 J-4.821793
G02 X196.331816 Y168.882843 Z-0.125000 I-62.762683 J-16.036015
G03 X196.534284 Y168.053938 Z-0.125000 I5.820536 J0.982542
G03 X196.968803 Y166.907287 Z-0.125000 I11.601655 J3.740747
G02 X197.401402 Y165.757102 Z-0.125000 I-10.666736 J-4.668345
G02 X198.086998 Y163.379509 Z-0.125000 I-45.001731 J-14.264213
G03 X198.727840 Y160.985471 Z-0.125000 I170.879335 J44.458600
G03 X198.975106 Y160.152552 Z-0.125000 I20.931695 J5.760772
G02 X199.176609 Y159.339706 Z-0.125000 I-6.084344 J-1.939698
G02 X199.141112 Y159.226525 Z-0.125000 I-0.126105 J-0.022607
G02 X198.672950 Y159.326036 Z-0.125000 I-0.201769 J0.201772
G02 X195.596827 Y168.459509 Z-0.125000 I108.012129 J41.462863
G03 X194.973633 Y170.574032 Z-0.125000 I-310.922595 J-90.486389
G03 X194.291386 Y172.833954 Z-0.125000 I-355.811784 J-106.182918
G02 X193.686675 Y175.104289 Z-0.125000 I31.165310 J9.516682
G02 X193.603201 Y175.851192 Z-0.125000 I3.250437 J0.741384
G03 X193.513958 Y176.560307 Z-0.125000 I-2.831483 J0.003826
G03 X193.370464 Y176.755262 Z-0.125000 I-0.313854 J-0.080721
G02 X193.214153 Y176.954406 Z-0.125000 I0.193119 J0.312499
G02 X192.792848 Y178.535802 Z-0.125000 I14.602980 J4.737246
G03 X192.443520 Y180.170487 Z-0.125000 I-234.516293 J-49.260853
G03 X192.038569 Y182.006176 Z-0.125000 I-296.026052 J-64.340439
G02 X190.386533 Y190.030205 Z-0.125000 I232.731004 J52.098162
G02 X190.107283 Y192.276652 Z-0.125000 I17.895447 J3.365117
G03 X189.862625 Y193.283664 Z-0.125000 I-2.939453 J-0.180928
G03 X189.391918 Y193.899430 Z-0.125000 I-1.507403 J-0.664505
G03 X188.566364 Y193.724444 Z-0.125000 I-0.341841 J-0.422156
G03 X188.361473 Y191.882853 Z-0.125000 I2.332063 J-1.191652
G02 X188.720977 Y190.134236 Z-0.125000 I-18.011780 J-4.614366
G02 X188.806679 Y189.028788 Z-0.125000 I-7.086632 J-1.105449
G03 X189.916749 Y177.800385 Z-0.125000 I57.342900 J0.000000
G03 X191.945227 Y173.310684 Z-0.125000 I10.721026 J2.140742
G02 X192.328266 Y172.607085 Z-0.125000 I-2.088293 J-1.592929
G02 X192.757714 Y171.052906 Z-0.125000 I-10.012118 J-3.602950
G03 X193.145597 Y169.469312 Z-0.125000 I17.226253 J3.380067
G03 X193.620829 Y168.124963 Z-0.125000 I12.877446 J3.796049
G02 X194.092221 Y166.787374 Z-0.125000 I-12.113664 J-5.020949
G02 X194.168901 Y166.252391 Z-0.125000 I-1.827897 J-0.534984
G03 X194.395444 Y164.741733 Z-0.125000 I5.150038 J0.000000
G03 X195.618908 Y161.526523 Z-0.125000 I24.972061 J7.662081
G02 X196.072595 Y160.363402 Z-0.125000 I-9.860972 J-4.516415
G02 X196.144457 Y159.909926 Z-0.125000 I-1.394882 J-0.453476
G03 X196.227801 Y159.459314 Z-0.125000 I1.259826 J0.000000
G03 X197.132235 Y157.330979 Z-0.125000 I29.960458 J11.475334
G02 X198.061905 Y155.208224 Z-0.125000 I-41.856291 J-19.596119
G02 X198.120012 Y154.912250 Z-0.125000 I-0.724734 J-0.295974
G03 X198.174710 Y154.615866 Z-0.125000 I0.830334 J-0.000000
G03 X198.684457 Y153.435099 Z-0.125000 I14.123864 J5.396967
G02 X199.177889 Y152.250546 Z-0.125000 I-10.439569 J-5.043713
G02 X199.248901 Y151.836028 Z-0.125000 I-1.174331 J-0.414518
G02 X198.971955 Y151.749256 Z-0.125000 I-0.152066 J0.000000
G02 X197.699307 Y154.066176 Z-0.125000 I10.360226 J7.198697
G03 X196.903524 Y155.888480 Z-0.125000 I-63.667320 J-26.718013
G03 X196.418170 Y156.888398 Z-0.125000 I-19.644505 J-8.917555
G02 X195.529897 Y158.877343 Z-0.125000 I16.793652 J8.692963
G02 X194.599127 Y161.686176 Z-0.125000 I32.625960 J12.369978
G03 X194.086219 Y162.714382 Z-0.125000 I-3.001398 J-0.855178
G03 X193.709198 Y162.862027 Z-0.125000 I-0.309005 J-0.233866
G02 X193.505513 Y162.940015 Z-0.125000 I-0.037091 J0.208110
G02 X193.514767 Y163.111003 Z-0.125000 I0.102665 J0.080188
G03 X193.617020 Y163.469732 Z-0.125000 I-0.282148 J0.274362
G03 X193.266806 Y164.240795 Z-0.125000 I-1.981368 J-0.434863
G02 X192.869403 Y165.063892 Z-0.125000 I1.978348 J1.462659
G02 X192.863646 Y165.738407 Z-0.125000 I1.293912 J0.348326
G03 X192.897363 Y166.390599 Z-0.125000 I-1.640597 J0.411782
G03 X192.734239 Y166.639628 Z-0.125000 I-0.347911 J-0.049955
G02 X192.559283 Y166.883067 Z-0.125000 I0.205269 J0.332111
G02 X192.565670 Y167.362483 Z-0.125000 I0.972495 J0.226795
G03 X192.582434 Y167.800471 Z-0.125000 I-0.982396 J0.256915
G03 X192.469156 Y167.895065 Z-0.125000 I-0.113278 J-0.020529
G02 X192.321241 Y168.001348 Z-0.125000 I0.000000 J0.156068
G02 X191.922951 Y169.517843 Z-0.125000 I10.961424 J3.689442
G03 X190.897734 Y173.899000 Z-0.125000 I-54.081749 J-10.344929
G03 X190.577556 Y174.365207 Z-0.125000 I-0.838303 J-0.232675
G02 X189.937347 Y175.285961 Z-0.125000 I1.044722 J1.409354
G02 X189.814111 Y176.997945 Z-0.125000 I3.946959 J1.144546
G03 X189.818180 Y177.783195 Z-0.125000 I-2.925011 J0.407793
G03 X189.709454 Y177.810096 Z-0.125000 I-0.059591 J-0.007679
G02 X189.414558 Y177.692698 Z-0.125000 I-0.237295 J0.166990
G02 X188.884584 Y177.977172 Z-0.125000 I0.206855 J1.021281
G03 X186.495727 Y179.152460 Z-0.125000 I-2.920321 J-2.920354
G03 X185.303915 Y178.441822 Z-0.125000 I-0.144373 J-1.112587
G03 X185.258736 Y178.021621 Z-0.125000 I0.769442 J-0.295258
G03 X185.461747 Y177.412643 Z-0.125000 I1.879723 J0.288304
G02 X185.735962 Y176.791969 Z-0.125000 I-3.972157 J-2.125814
G02 X186.179752 Y175.386964 Z-0.125000 I-20.020797 J-7.096437
G03 X186.577255 Y173.963259 Z-0.125000 I709.083148 J197.211104
G03 X187.013987 Y172.410621 Z-0.125000 I840.156345 J235.484262
G02 X187.376544 Y170.848409 Z-0.125000 I-16.397456 J-4.628690
G02 X187.442366 Y170.069305 Z-0.125000 I-3.983902 J-0.728911
G03 X187.544794 Y169.298982 Z-0.125000 I2.696051 J-0.033486
G03 X188.564843 Y166.118194 Z-0.125000 I47.928818 J13.616376
G02 X189.672616 Y162.948149 Z-0.125000 I-206.067172 J-73.788848
G02 X190.075561 Y161.686176 Z-0.125000 I-32.238444 J-10.988975
G03 X190.456308 Y160.416866 Z-0.125000 I351.647020 J104.789395
G03 X191.055502 Y158.440620 Z-0.125000 I852.409309 J257.370051
G02 X191.643947 Y156.461366 Z-0.125000 I-150.520787 J-45.827911
G02 X191.897249 Y155.539856 Z-0.125000 I-32.387644 J-9.398199
G03 X192.201014 Y154.647164 Z-0.125000 I6.179139 J1.604602
G03 X192.451130 Y154.236723 Z-0.125000 I1.526679 J0.648906
G02 X192.550831 Y153.878723 Z-0.125000 I-0.349783 J-0.290295
G02 X192.341275 Y153.507404 Z-0.125000 I-0.591673 J0.089123
G02 X191.982235 Y153.389689 Z-0.125000 I-0.328645 J0.395985
G02 X191.781725 Y153.540509 Z-0.125000 I0.013403 J0.226515
G03 X191.003718 Y155.346185 Z-0.125000 I-13.898367 J-4.917904
G03 X190.789220 Y155.477287 Z-0.125000 I-0.214498 J-0.109921
G03 X190.547617 Y155.177509 Z-0.125000 I0.000000 J-0.247248
G03 X191.354753 Y152.876214 Z-0.125000 I9.693331 J2.107566
G02 X192.047794 Y151.112891 Z-0.125000 I-9.869641 J-4.896928
G02 X192.250123 Y149.858158 Z-0.125000 I-4.753397 J-1.410179
G03 X192.407126 Y148.605882 Z-0.125000 I6.765830 J0.212278
G03 X192.631005 Y148.139509 Z-0.125000 I1.110221 J0.246031
G02 X192.896908 Y147.681871 Z-0.125000 I-1.374210 J-1.104532
G02 X193.131918 Y146.869509 Z-0.125000 I-4.187043 J-1.651453
G03 X194.296751 Y142.219307 Z-0.125000 I40.683594 J7.719874
G03 X195.294514 Y139.960670 Z-0.125000 I10.484216 J3.281746
G02 X196.310905 Y137.990792 Z-0.125000 I-18.325364 J-10.702432
G02 X196.426679 Y137.453012 Z-0.125000 I-1.191130 J-0.537780
G03 X196.521366 Y136.936718 Z-0.125000 I1.454926 J0.000000
G03 X196.708901 Y136.709498 Z-0.125000 I0.428461 J0.162627
G02 X196.898946 Y136.483686 Z-0.125000 I-0.248388 J-0.401922
G02 X196.991124 Y136.006906 Z-0.125000 I-1.186963 J-0.476780
G03 X197.150719 Y135.616380 Z-0.125000 I0.557602 J-0.000000
G03 X197.597808 Y135.388585 Z-0.125000 I0.563073 J0.552491
G02 X198.698121 Y134.665793 Z-0.125000 I-0.230380 J-1.549613
G02 X199.399250 Y132.489316 Z-0.125000 I-4.014509 J-2.494400
G03 X199.616685 Y131.213360 Z-0.125000 I6.374447 J0.429761
G03 X199.936110 Y130.551494 Z-0.125000 I1.984727 J0.549842
G02 X201.635905 Y127.955215 Z-0.125000 I-25.449323 J-18.516365
G02 X201.788901 Y127.391847 Z-0.125000 I-0.960734 J-0.563369
G03 X201.868780 Y126.976806 Z-0.125000 I1.118193 J0.000000
G03 X202.238766 Y126.266401 Z-0.125000 I3.729196 J1.490656
G02 X202.393233 Y125.493415 Z-0.125000 I-0.882605 J-0.578298
G02 X202.071124 Y125.373393 Z-0.125000 I-0.197210 J0.037022
G02 X201.493125 Y126.038555 Z-0.125000 I1.502861 J1.889635
G02 X199.344645 Y130.006720 Z-0.125000 I54.569675 J32.111311
G03 X197.961782 Y132.463166 Z-0.125000 I-24.226782 J-12.021073
G03 X197.695547 Y132.618521 Z-0.125000 I-0.283162 J-0.179456
G03 X197.547667 Y132.463564 Z-0.125000 I-0.007140 J-0.141227
G03 X197.949141 Y130.077276 Z-0.125000 I17.357477 J1.693338
G03 X198.394905 Y128.548671 Z-0.125000 I16.255392 J3.911020
G03 X199.237432 Y126.333005 Z-0.125000 I35.039425 J12.056030
G02 X200.021453 Y124.139052 Z-0.125000 I-20.623416 J-8.606954
G02 X200.007280 Y123.763174 Z-0.125000 I-0.558022 J-0.167166
G03 X199.981995 Y123.020325 Z-0.125000 I1.063365 J-0.408051
G03 X201.484082 Y118.961107 Z-0.125000 I36.915703 J11.352884
G02 X201.936538 Y117.574018 Z-0.125000 I-7.037988 J-3.063068
G02 X201.913356 Y117.042560 Z-0.125000 I-0.995758 J-0.222800
G03 X201.867093 Y116.527868 Z-0.125000 I1.140289 J-0.361918
G03 X202.026922 Y116.160531 Z-0.125000 I0.713047 J0.091808
G02 X202.242550 Y115.782822 Z-0.125000 I-0.966558 J-0.802197
G02 X202.655417 Y114.410189 Z-0.125000 I-12.840265 J-4.610559
G03 X203.062460 Y113.033455 Z-0.125000 I14.578618 J3.561760
G03 X203.264063 Y112.663600 Z-0.125000 I1.220069 J0.425168
G02 X203.408665 Y112.302773 Z-0.125000 I-0.551230 J-0.430295
G02 X203.353194 Y111.770846 Z-0.125000 I-1.317169 J-0.131497
G03 X203.316989 Y111.218600 Z-0.125000 I1.101089 J-0.349498
G03 X203.760255 Y109.487528 Z-0.125000 I11.855791 J2.113558
G02 X204.269387 Y107.740679 Z-0.125000 I-20.863276 J-7.028382
G02 X204.516046 Y106.429142 Z-0.125000 I-11.497927 J-2.841359
G03 X204.759796 Y105.130104 Z-0.125000 I11.717830 J1.526337
G03 X204.914507 Y104.810936 Z-0.125000 I0.826363 J0.203483
G02 X205.053533 Y104.488225 Z-0.125000 I-0.550499 J-0.428461
G02 X205.293932 Y102.337004 Z-0.125000 I-26.168900 J-4.013422
G03 X205.589208 Y100.193206 Z-0.125000 I16.247351 J1.145595
G03 X205.932544 Y99.240010 Z-0.125000 I3.496530 J0.721001
G02 X206.248392 Y98.280375 Z-0.125000 I-2.635448 J-1.399210
G02 X206.614944 Y94.658387 Z-0.125000 I-38.322192 J-5.707812
G03 X206.890419 Y90.999229 Z-0.125000 I86.091668 J4.641364
G03 X207.119955 Y89.437275 Z-0.125000 I15.883828 J1.536354
G02 X207.357308 Y87.878817 Z-0.125000 I-17.477997 J-3.459199
G02 X207.407618 Y86.756164 Z-0.125000 I-9.002221 J-0.965879
G03 X207.467916 Y85.638749 Z-0.125000 I7.861019 J-0.136139
G03 X207.658570 Y84.761164 Z-0.125000 I5.024331 J0.632026
G02 X208.174816 Y80.691731 Z-0.125000 I-11.147925 J-3.481680
G02 X207.322345 Y78.088555 Z-0.125000 I-5.201198 J0.262086
G03 X207.042564 Y77.293391 Z-0.125000 I1.455177 J-0.958812
G03 X207.154104 Y76.304911 Z-0.125000 I2.416121 J-0.227897
G03 X207.602239 Y75.398590 Z-0.125000 I3.429825 J1.131942
G03 X207.955643 Y75.132362 Z-0.125000 I0.571054 J0.390369
G02 X209.604309 Y74.196246 Z-0.125000 I-1.528912 J-4.612537
G02 X209.853842 Y73.491720 Z-0.125000 I-0.493836 J-0.571363
G03 X209.973105 Y72.744016 Z-0.125000 I1.132092 J-0.202788
G03 X210.799791 Y71.733504 Z-0.125000 I3.011387 J1.620168
G03 X211.933712 Y70.879858 Z-0.125000 I9.501950 J11.441762
G03 X212.628710 Y70.488762 Z-0.125000 I2.642216 J3.882292
G02 X213.166025 Y70.030779 Z-0.125000 I-0.532669 J-1.169124
G02 X213.360012 Y69.388446 Z-0.125000 I-0.966456 J-0.642334
G03 X213.569442 Y68.761260 Z-0.125000 I1.043843 J-0.000000
G03 X214.197295 Y68.274515 Z-0.125000 I1.204466 J0.905335
G02 X214.921069 Y67.823481 Z-0.125000 I-0.996053 J-2.404602
G02 X215.206477 Y67.386079 Z-0.125000 I-0.645046 J-0.732714
G03 X216.062536 Y66.360552 Z-0.125000 I1.681735 J0.533768
G03 X217.492906 Y66.175374 Z-0.125000 I0.962491 J1.817672
G03 X219.740100 Y67.022629 Z-0.125000 I-2.091007 J8.949798
G03 X223.140737 Y69.199329 Z-0.125000 I-12.260595 J22.899348
G02 X224.812375 Y70.410502 Z-0.125000 I30.874537 J-40.853287
G02 X225.387787 Y70.759301 Z-0.125000 I3.101311 J-4.467193
G03 X225.777521 Y71.173193 Z-0.125000 I-0.404662 J0.771482
G03 X225.849446 Y71.784896 Z-0.125000 I-0.932408 J0.419714
G02 X225.916972 Y72.376365 Z-0.125000 I0.981181 J0.187571
G02 X226.239449 Y72.667123 Z-0.125000 I0.486051 J-0.214867
G03 X228.972458 Y74.014639 Z-0.125000 I-3.242032 J10.020711
G03 X230.178874 Y75.381028 Z-0.125000 I-2.138017 J3.103483
G02 X230.629165 Y76.104655 Z-0.125000 I4.878835 J-2.534038
G02 X231.990015 Y77.843163 Z-0.125000 I29.724075 J-21.865213
G03 X233.325156 Y79.592239 Z-0.125000 I-20.094170 J16.722823
G03 X233.677232 Y80.257744 Z-0.125000 I-2.509417 J1.753457
G02 X234.217587 Y80.631408 Z-0.125000 I0.541830 J-0.206005
G02 X234.694384 Y80.260566 Z-0.125000 I0.001248 J-0.490328
G02 X234.614313 Y78.849613 Z-0.125000 I-2.299876 J-0.577231
G02 X233.617619 Y77.393668 Z-0.125000 I-3.460124 J1.299566
G03 X232.780628 Y76.471390 Z-0.125000 I3.985486 J-4.457867
G03 X231.275868 Y74.199561 Z-0.125000 I23.085283 J-16.924931
G02 X229.564794 Y72.221961 Z-0.125000 I-6.420014 J3.825740
G02 X227.671572 Y71.275034 Z-0.125000 I-3.085128 J3.802140
G03 X227.098095 Y70.974800 Z-0.125000 I0.336354 J-1.340289
G03 X226.826601 Y70.535865 Z-0.125000 I0.578401 J-0.661188
G02 X226.560552 Y70.078149 Z-0.125000 I-0.957568 J0.250410
G02 X225.974691 Y69.703931 Z-0.125000 I-1.192347 J1.220983
G03 X225.331787 Y69.355616 Z-0.125000 I0.978334 J-2.573249
G03 X224.889047 Y68.912873 Z-0.125000 I1.188960 J-1.631691
G02 X224.457186 Y68.442054 Z-0.125000 I-2.298264 J1.674620
G02 X223.520012 Y67.721895 Z-0.125000 I-6.387525 J7.342492
G03 X222.563433 Y67.015084 Z-0.125000 I7.940275 J-11.746871
G03 X221.544457 Y66.129880 Z-0.125000 I11.462846 J-14.224186
G02 X219.113073 Y64.534963 Z-0.125000 I-5.815731 J6.215108
G02 X216.717678 Y64.038274 Z-0.125000 I-2.395395 J5.527830
G02 X215.422008 Y64.369142 Z-0.125000 I0.000000 J2.702340
G02 X213.538475 Y65.775239 Z-0.125000 I4.003154 J7.326999
G03 X212.342054 Y66.606235 Z-0.125000 I-2.942205 J-2.959256
G03 X211.182262 Y66.860497 Z-0.125000 I-1.159793 J-2.518012
G02 X210.017668 Y67.090946 Z-0.125000 I-0.000000 J3.057912
G02 X209.126679 Y67.707163 Z-0.125000 I0.969748 J2.354407
G03 X208.301478 Y68.474859 Z-0.125000 I-5.877455 J-5.490362
G03 X208.077941 Y68.553830 Z-0.125000 I-0.223536 J-0.276887
G02 X207.882403 Y68.652554 Z-0.125000 I0.000000 J0.243009
G02 X207.349071 Y69.541596 Z-0.125000 I4.380566 J3.232370
G03 X206.576346 Y69.874675 Z-0.125000 I-0.576688 J-0.275005
G03 X206.022235 Y69.113843 Z-0.125000 I0.245281 J-0.760832
G03 X206.529550 Y65.998950 Z-0.125000 I9.816319 J0.000000
G03 X207.304943 Y65.280419 Z-0.125000 I1.044480 J0.349494
G02 X208.014460 Y64.775549 Z-0.125000 I-0.292926 J-1.162655
G02 X208.833106 Y62.951549 Z-0.125000 I-5.284049 J-3.467294
G03 X209.805719 Y61.749546 Z-0.125000 I1.842045 J0.496008
G03 X212.119211 Y61.268969 Z-0.125000 I2.030374 J3.965345
G02 X213.562275 Y61.096426 Z-0.125000 I0.254324 J-3.993762
G02 X213.750309 Y60.761561 Z-0.125000 I-0.083010 J-0.266837
G03 X214.040566 Y60.272577 Z-0.125000 I0.391484 J-0.098257
G03 X217.231260 Y59.859749 Z-0.125000 I3.240318 J12.507327
G02 X219.807983 Y59.764040 Z-0.125000 I-0.144793 J-38.631946
G02 X220.149381 Y59.653924 Z-0.125000 I-0.052831 J-0.748085
G02 X220.317421 Y59.392355 Z-0.125000 I-0.189358 J-0.306410
G02 X220.291099 Y58.524414 Z-0.125000 I-2.788121 J-0.349816
G03 X220.353463 Y57.732787 Z-0.125000 I1.495138 J-0.280484
G03 X220.689086 Y57.408818 Z-0.125000 I0.494437 J0.176391
G03 X222.414720 Y57.626036 Z-0.125000 I0.627589 J1.977311
G03 X224.292488 Y59.656803 Z-0.125000 I-2.776948 J4.451265
G03 X224.670646 Y60.519648 Z-0.125000 I-6.293707 J3.272620
G03 X225.203939 Y62.180321 Z-0.125000 I-22.868430 J8.259723
G02 X226.054312 Y63.706197 Z-0.125000 I3.631942 J-1.024191
G02 X226.521443 Y63.617425 Z-0.125000 I0.206095 J-0.188942
G02 X226.572015 Y62.081583 Z-0.125000 I-2.191363 J-0.840911
G02 X225.590174 Y60.613000 Z-0.125000 I-2.962966 J0.918428
G03 X225.329964 Y60.244549 Z-0.125000 I0.553499 J-0.667005
G03 X225.203344 Y59.558730 Z-0.125000 I1.945355 J-0.713764
G02 X224.339270 Y57.416906 Z-0.125000 I-3.193308 J0.043064
G02 X221.697291 Y55.821064 Z-0.125000 I-4.160037 J3.902234
G02 X219.951368 Y55.902141 Z-0.125000 I-0.748896 J2.712160
G02 X218.485075 Y57.038288 Z-0.125000 I1.123052 J2.963655
G03 X217.988882 Y57.327938 Z-0.125000 I-0.565705 J-0.399264
G03 X215.074704 Y57.382402 Z-0.125000 I-1.788956 J-17.729799
G02 X212.091613 Y57.383189 Z-0.125000 I-1.485348 J23.474884
G02 X211.360750 Y57.619384 Z-0.125000 I0.099284 J1.556079
G03 X210.646883 Y57.965087 Z-0.125000 I-1.915119 J-3.044759
G03 X209.633124 Y58.231467 Z-0.125000 I-2.097371 J-5.919704
G01 X208.587347 Y58.414686 Z-0.125000
G01 X208.678640 Y57.397303 Z-0.125000
G03 X208.869204 Y56.426327 Z-0.125000 I4.732866 J0.424686
G03 X209.089417 Y56.060417 Z-0.125000 I0.846064 J0.259961
G02 X209.338060 Y55.711582 Z-0.125000 I-0.915688 J-0.915718
G02 X209.408901 Y55.404250 Z-0.125000 I-0.631235 J-0.307332
G03 X209.695633 Y55.011671 Z-0.125000 I0.412116 J0.000000
G03 X211.535821 Y54.724941 Z-0.125000 I1.840188 J5.761654
G02 X212.685953 Y54.522257 Z-0.125000 I-0.000000 J-3.364562
G02 X213.475467 Y54.019385 Z-0.125000 I-0.738853 J-2.031215
G03 X214.269339 Y53.527037 Z-0.125000 I1.447023 J1.447008
G03 X215.570405 Y53.313830 Z-0.125000 I1.301066 J3.863171
G02 X216.882649 Y53.149593 Z-0.125000 I-0.000000 J-5.324506
G02 X217.331469 Y52.865971 Z-0.125000 I-0.211465 J-0.831564
G03 X217.788998 Y52.627181 Z-0.125000 I0.513511 J0.426187
G03 X219.976580 Y52.643298 Z-0.125000 I1.005826 J11.947600
G02 X222.251497 Y52.807461 Z-0.125000 I4.210496 J-42.503175
G02 X223.527093 Y52.804419 Z-0.125000 I0.605949 J-13.357363
G03 X225.796696 Y53.371039 Z-0.125000 I0.201761 J4.020617
G03 X227.688666 Y55.295877 Z-0.125000 I-2.752705 J4.597950
G03 X228.273426 Y56.571491 Z-0.125000 I-6.590539 J3.793037
G03 X228.200086 Y56.737993 Z-0.125000 I-0.125617 J0.044072
G03 X227.971432 Y56.715472 Z-0.125000 I-0.093799 J-0.219675
G03 X226.710718 Y55.713453 Z-0.125000 I6.349993 J-9.283497
G02 X223.410205 Y53.812810 Z-0.125000 I-5.885414 J6.404136
G02 X221.695344 Y54.152369 Z-0.125000 I-0.544595 J1.749678
G02 X221.511406 Y54.861322 Z-0.125000 I0.400174 J0.482163
G02 X222.136804 Y55.289385 Z-0.125000 I0.625399 J-0.242820
G03 X223.872624 Y55.736156 Z-0.125000 I0.000000 J3.595436
G03 X226.454186 Y57.669507 Z-0.125000 I-5.620376 J10.195002
G02 X227.936853 Y59.041144 Z-0.125000 I20.182075 J-20.328592
G02 X228.441028 Y59.381608 Z-0.125000 I1.696589 J-1.968852
G03 X230.561612 Y61.445165 Z-0.125000 I-2.333625 J4.519487
G03 X231.422235 Y64.788449 Z-0.125000 I-6.063564 J3.343284
G02 X231.845437 Y65.159608 Z-0.125000 I0.374358 J0.000000
G02 X232.297496 Y64.673274 Z-0.125000 I-0.067963 J-0.516440
G02 X232.114551 Y62.566751 Z-0.125000 I-7.331737 J-0.424466
G02 X231.450835 Y61.074941 Z-0.125000 I-4.262842 J1.003015
G03 X229.241220 Y57.257194 Z-0.125000 I22.273160 J-15.439450
G03 X228.882235 Y55.663810 Z-0.125000 I3.356692 J-1.593384
G02 X228.110663 Y53.238742 Z-0.125000 I-4.196810 J0.000000
G02 X226.619001 Y52.467163 Z-0.125000 I-1.491662 J1.056096
G03 X226.197413 Y52.354665 Z-0.125000 I0.000000 J-0.846203
G03 X225.636679 Y51.902719 Z-0.125000 I1.148517 J-1.998802
G02 X225.049724 Y51.509856 Z-0.125000 I-1.077793 J0.975372
G02 X224.063293 Y51.338274 Z-0.125000 I-0.986431 J2.749725
G03 X223.112095 Y51.069397 Z-0.125000 I0.000000 J-1.816950
G03 X221.307390 Y49.644941 Z-0.125000 I5.146107 J-8.375282
G02 X219.587473 Y48.015786 Z-0.125000 I-30.917534 J30.917534
G02 X219.419826 Y47.951608 Z-0.125000 I-0.167647 J0.186877
G03 X217.019891 Y47.396132 Z-0.125000 I-0.000000 J-5.462204
G03 X216.464457 Y46.506150 Z-0.125000 I0.435300 J-0.889982
G03 X216.695613 Y46.125159 Z-0.125000 I0.429552 J0.000000
G03 X218.863346 Y45.256978 Z-0.125000 I5.447226 J10.460634
G02 X220.523198 Y44.693917 Z-0.125000 I-5.386073 J-18.605717
G02 X221.204715 Y44.342634 Z-0.125000 I-1.348193 J-3.452347
G03 X223.708255 Y43.671668 Z-0.125000 I2.272017 J3.471308
G03 X227.442574 Y44.691292 Z-0.125000 I-0.516424 J9.239559
G02 X228.289972 Y44.837275 Z-0.125000 I0.654218 J-1.265119
G02 X228.368206 Y44.564574 Z-0.125000 I-0.021029 J-0.153605
G02 X227.663212 Y44.124375 Z-0.125000 I-1.952715 J2.342707
G02 X226.745429 Y43.836977 Z-0.125000 I-1.670912 J3.726790
G03 X226.165643 Y43.367842 Z-0.125000 I0.144766 J-0.771745
G03 X226.342235 Y42.871608 Z-0.125000 I0.361387 J-0.150934
G02 X226.788903 Y42.498960 Z-0.125000 I-0.677754 J-1.266399
G02 X226.906679 Y42.161508 Z-0.125000 I-0.424545 J-0.337451
G03 X227.051495 Y41.867112 Z-0.125000 I0.371647 J-0.000000
G03 X227.682790 Y41.563536 Z-0.125000 I1.033937 J1.341914
G02 X227.987607 Y40.758693 Z-0.125000 I-0.124120 J-0.507150
G02 X226.631933 Y40.049385 Z-0.125000 I-1.355674 J0.940871
G02 X225.063443 Y40.240949 Z-0.125000 I0.000000 J6.517032
G02 X223.632602 Y40.793097 Z-0.125000 I1.477712 J5.959375
G03 X222.188629 Y41.339452 Z-0.125000 I-2.782704 J-5.173142
G03 X218.863346 Y41.909427 Z-0.125000 I-6.393451 J-27.314932
G02 X215.480338 Y42.307156 Z-0.125000 I24.983500 J227.091445
G02 X214.568067 Y42.446891 Z-0.125000 I2.083204 J16.648126
G01 X213.659458 Y42.611737 Z-0.125000
G01 X213.776781 Y41.432387 Z-0.125000
G03 X214.529818 Y39.590495 Z-0.125000 I3.474592 J0.345666
G03 X216.393901 Y38.176389 Z-0.125000 I3.762859 J3.024549
G02 X217.193677 Y37.706514 Z-0.125000 I-1.440234 J-3.367013
G02 X217.311123 Y37.467250 Z-0.125000 I-0.184994 J-0.239264
G03 X217.450084 Y37.309736 Z-0.125000 I0.158752 J0.000000
G03 X218.516892 Y37.315724 Z-0.125000 I0.510609 J4.063884
G02 X219.928787 Y37.125308 Z-0.125000 I0.362294 J-2.643317
G02 X220.537660 Y36.451052 Z-0.125000 I-0.426822 J-0.997476
G03 X220.859907 Y35.982585 Z-0.125000 I0.918209 J0.286548
G03 X221.351809 Y35.808404 Z-0.125000 I0.501978 J0.635949
G02 X221.966647 Y35.779787 Z-0.125000 I-0.113067 J-9.048633
G02 X224.591125 Y35.546953 Z-0.125000 I-13.312156 J-164.960783
G02 X227.151812 Y35.077944 Z-0.125000 I-1.481426 J-15.313156
G02 X229.168343 Y34.300547 Z-0.125000 I-2.785642 J-10.229916
G03 X231.176885 Y33.477981 Z-0.125000 I6.049016 J11.906974
G03 X233.388897 Y32.960923 Z-0.125000 I4.425550 J13.942722
G02 X235.161724 Y32.061104 Z-0.125000 I-0.481384 J-3.144750
G02 X235.139457 Y31.203130 Z-0.125000 I-0.420102 J-0.418373
G02 X234.160911 Y30.799970 Z-0.125000 I-1.050624 J1.160927
G02 X233.426983 Y31.124220 Z-0.125000 I-0.041427 J0.898964
G03 X233.043388 Y31.416782 Z-0.125000 I-0.826612 J-0.686064
G03 X231.769650 Y31.874452 Z-0.125000 I-3.486045 J-7.700683
G02 X230.460984 Y32.305851 Z-0.125000 I3.364010 J12.405502
G02 X229.023346 Y32.946162 Z-0.125000 I6.094167 J15.616787
G03 X226.407185 Y33.897269 Z-0.125000 I-5.345494 J-10.629949
G03 X223.943346 Y34.143377 Z-0.125000 I-2.159500 J-9.163148
G02 X217.585672 Y34.652941 Z-0.125000 I-0.919798 J28.440153
G02 X215.983206 Y35.693172 Z-0.125000 I0.487902 J2.506015
G03 X215.439362 Y36.384579 Z-0.125000 I-6.553426 J-4.595172
G03 X214.183912 Y37.738578 Z-0.125000 I-26.492059 J-23.304843
G02 X213.080730 Y39.174240 Z-0.125000 I5.470111 J5.344987
G02 X212.349468 Y40.823098 Z-0.125000 I6.523651 J3.879802
G03 X211.691719 Y42.428483 Z-0.125000 I-9.172880 J-2.820818
G03 X211.432587 Y42.586986 Z-0.125000 I-0.261038 J-0.135689
G03 X211.242767 Y42.439758 Z-0.125000 I-0.002050 J-0.193339
G03 X211.234682 Y41.782173 Z-0.125000 I1.409696 J-0.346175
G02 X211.229282 Y41.004152 Z-0.125000 I-1.716977 J-0.377114
G02 X210.804375 Y39.945161 Z-0.125000 I-3.680967 J0.862203
G03 X210.439236 Y38.752360 Z-0.125000 I2.297753 J-1.355674
G03 X210.577716 Y36.239385 Z-0.125000 I10.839445 J-0.662982
G02 X210.577284 Y35.960617 Z-0.125000 I-0.798959 J-0.138147
G02 X210.408942 Y35.280959 Z-0.125000 I-5.038352 J0.887260
G03 X210.557722 Y34.919023 Z-0.125000 I0.288680 J-0.092880
G03 X211.352363 Y34.790400 Z-0.125000 I0.592024 J1.138578
G02 X212.346094 Y34.779940 Z-0.125000 I0.466233 J-2.915247
G02 X212.513346 Y34.579580 Z-0.125000 I-0.036384 J-0.200360
G02 X212.405141 Y34.257504 Z-0.125000 I-0.533437 J-0.000000
G02 X212.090012 Y34.020667 Z-0.125000 I-0.572388 J0.433533
G03 X211.784809 Y33.467756 Z-0.125000 I0.175618 J-0.457631
G03 X212.372234 Y32.596461 Z-0.125000 I1.331134 J0.263780
G02 X212.977664 Y32.080037 Z-0.125000 I-1.733229 J-2.645050
G02 X213.077790 Y31.821281 Z-0.125000 I-0.284288 J-0.258756
G02 X212.911984 Y31.666831 Z-0.125000 I-0.154839 J0.000000
G02 X210.075730 Y32.034443 Z-0.125000 I1.747015 J24.603908
G03 X208.293688 Y31.783085 Z-0.125000 I-0.520531 J-2.752323
G03 X207.715568 Y30.843974 Z-0.125000 I0.473697 J-0.939112
G02 X207.278451 Y29.861080 Z-0.125000 I-1.323619 J-0.000000
G02 X204.232181 Y27.702163 Z-0.125000 I-10.680769 J11.842128
G02 X203.034309 Y27.197878 Z-0.125000 I-3.093276 J5.672881
G02 X202.162699 Y27.067163 Z-0.125000 I-0.871610 J2.840597
G03 X201.318301 Y26.958594 Z-0.125000 I0.000000 J-3.337958
G03 X201.083346 Y26.784941 Z-0.125000 I0.099445 J-0.380325
G02 X200.850657 Y26.607223 Z-0.125000 I-0.348904 J0.215635
G02 X200.128108 Y26.502719 Z-0.125000 I-0.722548 J2.445615
G03 X198.647901 Y25.974842 Z-0.125000 I0.000000 J-2.339248
G03 X198.120012 Y24.861737 Z-0.125000 I0.909601 J-1.113105
G02 X198.031324 Y24.615857 Z-0.125000 I-0.385183 J0.000000
G02 X197.842546 Y24.527163 Z-0.125000 I-0.188778 J0.156552
G03 X197.632147 Y24.417983 Z-0.125000 I-0.000000 J-0.257318
G03 X196.852583 Y23.121132 Z-0.125000 I8.573420 J-6.036388
G02 X196.033049 Y21.810862 Z-0.125000 I-7.676317 J3.889874
G02 X195.436720 Y21.254232 Z-0.125000 I-1.910178 J1.448668
G03 X194.836174 Y20.737802 Z-0.125000 I1.672216 J-2.551981
G03 X194.733346 Y20.468864 Z-0.125000 I0.300278 J-0.268938
G02 X194.672090 Y20.159744 Z-0.125000 I-0.810593 J-0.000000
G02 X194.152132 Y19.059926 Z-0.125000 I-11.168487 J4.607278
G03 X194.023263 Y18.118679 Z-0.125000 I1.201412 J-0.643934
G03 X194.394103 Y17.977265 Z-0.125000 I0.232171 J0.051889
G02 X195.810183 Y18.234411 Z-0.125000 I0.979268 J-1.365052
G02 X196.426679 Y17.429951 Z-0.125000 I-0.216618 J-0.804460
G03 X196.495141 Y16.534412 Z-0.125000 I5.891416 J0.000000
G03 X196.699323 Y15.657201 Z-0.125000 I5.855187 J0.900497
G03 X196.972248 Y14.790567 Z-0.125000 I1316.847384 J414.231558
G03 X197.545989 Y12.971800 Z-0.125000 I5922.669174 J1867.354523
G02 X197.980923 Y11.131690 Z-0.125000 I-12.255536 J-3.868208
G02 X198.120012 Y9.379986 Z-0.125000 I-10.960985 J-1.751704
G02 X197.872588 Y7.740531 Z-0.125000 I-5.555303 J-0.000000
G02 X197.433383 Y7.156950 Z-0.125000 I-1.030047 J0.318153
G02 X196.737684 Y6.911414 Z-0.125000 I-0.847844 J1.293914
G02 X196.144169 Y7.029526 Z-0.125000 I-0.102373 J1.035840
G02 X195.852574 Y7.431338 Z-0.125000 I0.268410 J0.501497
G02 X195.970292 Y8.006326 Z-0.125000 I0.782633 J0.139315
G03 X196.696005 Y10.138021 Z-0.125000 I-3.778289 J2.475657
G03 X196.314078 Y12.508024 Z-0.125000 I-5.118657 J0.390902
G02 X195.937555 Y13.604535 Z-0.125000 I8.231445 J3.439442
G02 X195.862235 Y14.168055 Z-0.125000 I2.070384 J0.563521
G03 X195.304224 Y16.205914 Z-0.125000 I-4.000144 J0.000000
G03 X194.188544 Y16.995075 Z-0.125000 I-1.439941 J-0.852493
G03 X193.114390 Y16.641149 Z-0.125000 I-0.223164 J-1.129681
G03 X192.361186 Y14.990507 Z-0.125000 I2.190224 J-1.996588
G02 X191.984105 Y13.560086 Z-0.125000 I-5.236115 J0.615408
G02 X191.481197 Y12.900454 Z-0.125000 I-1.527743 J0.643235
G03 X190.718352 Y11.286294 Z-0.125000 I1.236179 J-1.571552
G03 X191.558346 Y9.280898 Z-0.125000 I2.964695 J0.063191
G02 X192.312166 Y8.464066 Z-0.125000 I-14.920136 J-14.525429
G02 X193.138364 Y7.474337 Z-0.125000 I-21.078033 J-18.435056
G03 X194.057196 Y6.703383 Z-0.125000 I2.359706 J1.879313
G03 X194.994980 Y6.464941 Z-0.125000 I0.937784 J1.724909
G02 X195.993986 Y6.286633 Z-0.125000 I-0.000000 J-2.887727
G02 X197.369513 Y5.589403 Z-0.125000 I-2.306958 J-6.256734
G03 X198.835549 Y5.466755 Z-0.125000 I0.844855 J1.275494
G03 X199.412393 Y6.497029 Z-0.125000 I-0.400159 J0.900668
G02 X199.528991 Y7.849970 Z-0.125000 I3.114195 J0.413109
G02 X200.317838 Y9.384953 Z-0.125000 I4.841661 J-1.517999
G03 X201.312812 Y10.887329 Z-0.125000 I-11.871712 J8.942904
G03 X201.605654 Y11.611940 Z-0.125000 I-2.420330 J1.399625
G02 X201.930609 Y12.289043 Z-0.125000 I1.802279 J-0.448421
G02 X202.569494 Y12.877030 Z-0.125000 I1.974413 J-1.504238
G03 X203.294726 Y13.419261 Z-0.125000 I-3.300569 J5.170605
G03 X203.711032 Y13.869972 Z-0.125000 I-1.847781 J2.124353
G02 X204.136314 Y14.305412 Z-0.125000 I1.791537 J-1.324345
G02 X204.903503 Y14.795746 Z-0.125000 I3.056323 J-3.936650
G02 X206.590034 Y15.116985 Z-0.125000 I1.383414 J-2.675201
G02 X209.787362 Y14.470552 Z-0.125000 I-1.666300 J-16.472072
G02 X212.751966 Y13.194722 Z-0.125000 I-4.388577 J-14.279881
G02 X213.540824 Y12.141276 Z-0.125000 I-0.806237 J-1.425824
G03 X213.829355 Y11.466741 Z-0.125000 I2.053637 J0.479463
G03 X214.699112 Y10.369626 Z-0.125000 I6.427506 J4.202201
G02 X215.364187 Y9.200254 Z-0.125000 I-2.011270 J-1.917717
G02 X215.785944 Y6.482721 Z-0.125000 I-11.184186 J-3.127260
G02 X215.635997 Y4.032186 Z-0.125000 I-12.745537 J-0.449963
G02 X215.376233 Y3.903181 Z-0.125000 I-0.175780 J0.027919
G02 X214.642723 Y4.669752 Z-0.125000 I0.805376 J1.504866
G02 X214.097741 Y6.568065 Z-0.125000 I5.332313 J2.558226
G03 X213.714626 Y8.139869 Z-0.125000 I-6.333476 J-0.711144
G03 X213.071496 Y9.242910 Z-0.125000 I-3.706442 J-1.422034
G02 X212.365350 Y10.310617 Z-0.125000 I4.710769 J3.882917
G02 X212.231123 Y10.859959 Z-0.125000 I1.057023 J0.549342
G03 X211.934240 Y11.660529 Z-0.125000 I-1.227841 J-0.000000
G03 X210.820013 Y12.500884 Z-0.125000 I-2.487033 J-2.138704
G02 X210.402994 Y12.708164 Z-0.125000 I3.309927 J7.182247
G02 X209.691124 Y13.104077 Z-0.125000 I11.408110 J21.350236
G03 X208.946883 Y13.368665 Z-0.125000 I-1.087685 J-1.880469
G03 X207.116280 Y13.516348 Z-0.125000 I-1.856883 J-11.597575
G03 X205.337805 Y13.242180 Z-0.125000 I-0.013378 J-5.818632
G03 X203.804456 Y12.462163 Z-0.125000 I1.614059 J-5.070026
G03 X202.572677 Y11.295909 Z-0.125000 I4.020157 J-5.479647
G03 X202.355773 Y10.698274 Z-0.125000 I0.737806 J-0.605957
G02 X202.234198 Y10.028023 Z-0.125000 I-2.004815 J0.017497
G02 X201.788901 Y9.146052 Z-0.125000 I-3.961502 J1.446715
G03 X201.388861 Y8.250875 Z-0.125000 I2.492997 J-1.651055
G03 X201.226317 Y6.992837 Z-0.125000 I4.842256 J-1.265161
G03 X201.520284 Y5.826069 Z-0.125000 I2.448825 J-0.003436
G03 X202.492803 Y4.646950 Z-0.125000 I3.476837 J1.877022
G03 X203.839628 Y3.892260 Z-0.125000 I2.798784 J3.415607
G03 X204.962248 Y3.787188 Z-0.125000 I0.774404 J2.224233
G02 X206.139293 Y3.780566 Z-0.125000 I0.567190 J-3.794911
G02 X207.553962 Y3.369951 Z-0.125000 I-0.955075 J-5.932717
G03 X208.959419 Y2.927489 Z-0.125000 I2.899594 J6.756993
G03 X209.670629 Y2.930672 Z-0.125000 I0.348105 J1.677332
G02 X210.394110 Y2.966632 Z-0.125000 I0.470395 J-2.168015
G02 X212.036444 Y2.659061 Z-0.125000 I-1.347269 J-11.732554
G03 X213.660933 Y2.375662 Z-0.125000 I2.510291 J9.591761
G03 X214.153110 Y2.469154 Z-0.125000 I0.081781 J0.911721
G02 X216.382296 Y2.860969 Z-0.125000 I1.768697 J-3.525540
G02 X217.026728 Y2.131418 Z-0.125000 I-0.085182 J-0.724642
G02 X216.427473 Y1.123111 Z-0.125000 I-1.161046 J0.007803
G02 X214.150765 Y0.541322 Z-0.125000 I-2.254881 J4.078398
G02 X213.510762 Y0.609043 Z-0.125000 I0.026103 J3.304762
G02 X212.142077 Y0.956725 Z-0.125000 I3.106911 J15.098492
G03 X210.771803 Y1.227620 Z-0.125000 I-2.043212 J-6.734133
G03 X209.574382 Y1.203415 Z-0.125000 I-0.494833 J-5.151023
G02 X208.375683 Y1.179949 Z-0.125000 I-0.699462 J5.102149
G02 X206.841207 Y1.469523 Z-0.125000 I0.847550 J8.701685
G03 X205.304331 Y1.758798 Z-0.125000 I-2.371678 J-8.373135
G03 X203.891739 Y1.753777 Z-0.125000 I-0.681181 J-7.068342
G02 X202.608412 Y1.933867 Z-0.125000 I-0.277784 J2.683062
G02 X201.675033 Y2.644301 Z-0.125000 I0.823884 J2.050792
G03 X200.762323 Y3.375935 Z-0.125000 I-1.929047 J-1.471358
G03 X199.815793 Y3.502031 Z-0.125000 I-0.677220 J-1.467929
G02 X198.782419 Y3.536008 Z-0.125000 I-0.432979 J2.562811
G02 X197.234721 Y4.114989 Z-0.125000 I1.532414 J6.454462
G03 X195.676754 Y4.709906 Z-0.125000 I-3.288023 J-6.273211
G03 X194.322825 Y4.848485 Z-0.125000 I-1.152251 J-4.574307
G02 X192.579738 Y5.319548 Z-0.125000 I-0.127874 J2.987348
G02 X191.764340 Y6.490764 Z-0.125000 I1.009030 J1.571932
G03 X191.451797 Y7.218584 Z-0.125000 I-2.054486 J-0.451228
G03 X190.831121 Y7.869532 Z-0.125000 I-2.246196 J-1.520356
G02 X189.611487 Y9.082509 Z-0.125000 I3.693285 J4.933208
G02 X189.375230 Y9.792171 Z-0.125000 I0.928917 J0.703408
G02 X189.752399 Y11.986596 Z-0.125000 I6.783933 J-0.036372
G02 X190.692485 Y13.575332 Z-0.125000 I4.404067 J-1.533470
G03 X190.997398 Y14.114804 Z-0.125000 I-1.058608 J0.954236
G03 X191.503346 Y16.241006 Z-0.125000 I-16.961423 J5.159421
G02 X192.036211 Y18.358738 Z-0.125000 I14.441221 J-2.507802
G02 X192.470638 Y19.149503 Z-0.125000 I2.374117 J-0.789566
G03 X192.995223 Y19.909915 Z-0.125000 I-4.494212 J3.661578
G03 X193.774247 Y21.404656 Z-0.125000 I-16.707389 J9.657875
G02 X194.608090 Y22.860282 Z-0.125000 I9.118043 J-4.256550
G02 X195.881891 Y24.461292 Z-0.125000 I12.321185 J-8.495785
G03 X197.196132 Y26.013738 Z-0.125000 I-19.773424 J18.071923
G03 X197.273346 Y26.237514 Z-0.125000 I-0.285658 J0.223776
G02 X197.756173 Y26.960728 Z-0.125000 I0.783055 J-0.000000
G02 X202.926014 Y28.584079 Z-0.125000 I11.657620 J-28.081900
G03 X203.585244 Y28.846851 Z-0.125000 I-0.462947 J2.119729
G03 X204.594611 Y29.592431 Z-0.125000 I-3.508637 J5.806027
G02 X205.589340 Y30.374826 Z-0.125000 I6.766507 J-7.579327
G02 X206.068051 Y30.609475 Z-0.125000 I1.024093 J-1.483630
G03 X206.502609 Y30.835619 Z-0.125000 I-0.431732 J1.360212
G03 X206.586679 Y31.005631 Z-0.125000 I-0.129868 J0.170011
G02 X206.645195 Y31.218973 Z-0.125000 I0.418173 J0.000000
G02 X207.584290 Y32.687421 Z-0.125000 I22.328078 J-13.244642
G03 X208.364669 Y34.147740 Z-0.125000 I-6.115630 J4.206802
G03 X208.336528 Y34.576165 Z-0.125000 I-0.463699 J0.184678
G02 X208.120300 Y35.880321 Z-0.125000 I1.701155 J0.952053
G02 X209.704402 Y42.024941 Z-0.125000 I44.178138 J-8.112758
G03 X210.258019 Y45.431296 Z-0.125000 I-10.151680 J3.398064
G03 X209.700056 Y47.652706 Z-0.125000 I-4.715556 J-0.003652
G02 X209.501718 Y48.199282 Z-0.125000 I1.794812 J0.960564
G02 X209.248455 Y49.826918 Z-0.125000 I15.997427 J3.322748
G03 X208.636687 Y52.532374 Z-0.125000 I-11.672364 J-1.217505
G03 X207.212767 Y55.566443 Z-0.125000 I-16.148849 J-5.727658
G02 X206.270022 Y57.788359 Z-0.125000 I7.678549 J4.568917
G02 X205.713170 Y61.074941 Z-0.125000 I16.444008 J4.476604
G03 X205.409853 Y64.449469 Z-0.125000 I-85.526934 J-5.986626
G03 X205.263669 Y65.167163 Z-0.125000 I-3.982526 J-0.437450
G02 X204.867360 Y68.102871 Z-0.125000 I8.997948 J2.709292
G02 X205.405836 Y71.066076 Z-0.125000 I9.710288 J-0.234032
G03 X205.622368 Y72.044633 Z-0.125000 I-4.030710 J1.405139
G03 X205.740024 Y74.393392 Z-0.125000 I-23.385303 J2.348758
G02 X205.860746 Y76.749231 Z-0.125000 I23.046919 J-0.000000
G02 X206.206952 Y78.937395 Z-0.125000 I20.221244 J-2.077885
G03 X206.619359 Y81.115893 Z-0.125000 I-44.524488 J9.557121
G03 X206.633652 Y81.536041 Z-0.125000 I-1.615589 J0.265279
G03 X206.587574 Y81.958722 Z-0.125000 I-15.294034 J-1.453397
G03 X206.286409 Y84.358263 Z-0.125000 I-493.051637 J-60.664087
G02 X206.000546 Y86.759269 Z-0.125000 I136.440302 J17.462024
G02 X205.897809 Y87.886041 Z-0.125000 I29.936758 J3.297672
G03 X205.764069 Y89.002383 Z-0.125000 I-11.911248 J-0.860804
G03 X205.637230 Y89.438263 Z-0.125000 I-1.920032 J-0.322325
G02 X205.511336 Y89.875592 Z-0.125000 I1.754734 J0.741923
G02 X205.180134 Y92.260485 Z-0.125000 I52.640432 J8.525864
G03 X204.652482 Y95.764606 Z-0.125000 I-51.711450 J-5.994952
G03 X203.949273 Y98.892708 Z-0.125000 I-41.898271 J-7.775795
G02 X203.571559 Y100.599579 Z-0.125000 I20.628415 J5.460091
G02 X203.192892 Y103.126041 Z-0.125000 I44.859723 J8.015204
G03 X202.767919 Y105.639324 Z-0.125000 I-27.061819 J-3.283337
G03 X202.210234 Y107.641597 Z-0.125000 I-17.711574 J-3.854332
G02 X201.638187 Y109.642183 Z-0.125000 I19.506329 J6.659714
G02 X201.129670 Y112.298263 Z-0.125000 I33.915008 J7.869878
G03 X200.287084 Y116.116218 Z-0.125000 I-28.917293 J-4.379817
G03 X199.234274 Y118.789374 Z-0.125000 I-15.159052 J-4.426420
G02 X198.851496 Y119.813221 Z-0.125000 I4.507821 J2.268780
G02 X198.408096 Y122.034930 Z-0.125000 I21.009259 J5.348044
G03 X197.969682 Y124.260493 Z-0.125000 I-22.551687 J-3.286498
G03 X197.563919 Y125.421597 Z-0.125000 I-6.501598 J-1.620620
G02 X195.945013 Y129.847135 Z-0.125000 I27.652504 J12.624437
G02 X195.580012 Y132.503512 Z-0.125000 I9.483702 J2.656377
G03 X195.302189 Y134.410012 Z-0.125000 I-6.680371 J-0.000000
G03 X193.529222 Y139.390609 Z-0.125000 I-48.208505 J-14.355146
G02 X192.585808 Y141.808006 Z-0.125000 I53.286360 J22.188327
G02 X192.243070 Y142.918398 Z-0.125000 I10.875654 J3.965013
G02 X191.956239 Y144.047396 Z-0.125000 I1482.813706 J377.322075
G02 X191.670374 Y145.176176 Z-0.125000 I1495.379222 J379.307792
G02 X191.419005 Y146.311740 Z-0.125000 I18.917165 J4.783119
G02 X191.187043 Y147.716176 Z-0.125000 I28.711370 J5.463449
G03 X190.902328 Y149.102726 Z-0.125000 I-11.098272 J-1.556422
G03 X190.495765 Y150.256176 Z-0.125000 I-8.072466 J-2.196968
G02 X189.642599 Y152.473690 Z-0.125000 I24.332963 J10.634742
G02 X188.986663 Y154.771732 Z-0.125000 I25.480212 J8.515510
G03 X187.956404 Y158.405846 Z-0.125000 I-43.042206 J-10.239226
G03 X186.563551 Y162.109509 Z-0.125000 I-46.100555 J-15.223496
G02 X186.365641 Y162.686896 Z-0.125000 I4.003383 J1.694851
G02 X185.963022 Y164.367287 Z-0.125000 I33.674713 J8.956831
G03 X185.593182 Y166.058559 Z-0.125000 I-172.009954 J-36.728295
G03 X185.520819 Y166.342843 Z-0.125000 I-4.928935 J-1.103283
G02 X185.450238 Y166.627510 Z-0.125000 I4.000377 J1.142944
G02 X184.985317 Y168.882843 Z-0.125000 I250.870746 J52.890902
G03 X184.486707 Y171.127398 Z-0.125000 I-56.964523 J-11.476539
G03 X184.299522 Y171.705065 Z-0.125000 I-3.938398 J-0.957022
G02 X183.124577 Y175.242876 Z-0.125000 I25.504427 J10.434312
G02 X182.329783 Y179.325065 Z-0.125000 I33.205909 J8.583583
G03 X181.582528 Y183.640689 Z-0.125000 I-54.524046 J-7.218396
G03 X179.757221 Y191.319518 Z-0.125000 I-174.639887 J-37.456677
G02 X179.250782 Y193.444935 Z-0.125000 I49.038924 J12.807897
G02 X179.087871 Y194.423962 Z-0.125000 I10.223052 J2.204193
G03 X178.941683 Y195.406734 Z-0.125000 I-16.313804 J-1.924436
G03 X178.640225 Y196.913428 Z-0.125000 I-38.667106 J-6.952991
G02 X178.404201 Y198.413276 Z-0.125000 I12.171472 J2.683861
G02 X178.446705 Y198.941330 Z-0.125000 I1.510568 J0.144149
G03 X178.485681 Y202.138460 Z-0.125000 I-6.412770 J1.676981
G03 X176.950952 Y205.289518 Z-0.125000 I-7.752643 J-1.826664
G02 X176.815535 Y205.606492 Z-0.125000 I0.502011 J0.401882
G02 X176.579057 Y208.081427 Z-0.125000 I33.163377 J4.417498
G03 X176.324850 Y210.529205 Z-0.125000 I-27.073719 J-1.574572
G03 X176.176952 Y210.762538 Z-0.125000 I-0.337980 J-0.050690
G02 X175.557422 Y211.876855 Z-0.125000 I0.777396 J1.161591
G02 X175.260907 Y237.831397 Z-0.125000 I578.981762 J19.593483
G03 X175.187648 Y241.579177 Z-0.125000 I-61.395172 J0.674504
G03 X174.946957 Y244.096135 Z-0.125000 I-27.905234 J-1.398529
G03 X174.364111 Y246.469540 Z-0.125000 I-12.094106 J-1.711731
G03 X173.867559 Y247.137706 Z-0.125000 I-1.335631 J-0.473991
G03 X171.960438 Y248.038545 Z-0.125000 I-3.266732 J-4.446682
G03 X171.180854 Y247.820800 Z-0.125000 I-0.200233 J-0.787542
G02 X170.959879 Y247.664276 Z-0.125000 I-0.546973 J0.537955
G02 X170.089202 Y247.308360 Z-0.125000 I-3.933511 J8.379624
G02 X169.205799 Y247.205029 Z-0.125000 I-0.671894 J1.916305
G02 X168.165050 Y247.509870 Z-0.125000 I0.314448 J3.002566
G02 X167.122637 Y248.705578 Z-0.125000 I0.940461 J1.872129
G02 X166.345425 Y252.843963 Z-0.125000 I13.971427 J4.766088
G03 X166.136392 Y255.793402 Z-0.125000 I-52.348026 J-2.227896
G03 X165.967098 Y256.653963 Z-0.125000 I-4.587383 J-0.455521
G02 X165.781081 Y257.512774 Z-0.125000 I5.530829 J1.647517
G02 X165.560294 Y259.602657 Z-0.125000 I32.695922 J4.510784
G03 X165.218957 Y261.635456 Z-0.125000 I-11.074092 J-0.814450
G03 X164.777102 Y262.554911 Z-0.125000 I-2.628708 J-0.697359
G02 X164.387756 Y263.485494 Z-0.125000 I1.703560 J1.259492
G02 X164.109519 Y266.802880 Z-0.125000 I22.793765 J3.582125
G03 X163.966020 Y270.190356 Z-0.125000 I-54.939959 J-0.630578
G03 X163.724360 Y272.055360 Z-0.125000 I-16.856324 J-1.236022
G02 X163.574479 Y273.908018 Z-0.125000 I8.817545 J1.645732
G02 X163.815534 Y276.006471 Z-0.125000 I11.580640 J-0.267227
G03 X164.244725 Y279.385202 Z-0.125000 I-21.038723 J4.389113
G03 X163.987255 Y279.655074 Z-0.125000 I-0.257469 J0.012118
G03 X162.248356 Y279.120063 Z-0.125000 I-0.000000 J-3.093400
G03 X161.713346 Y278.109532 Z-0.125000 I0.686843 J-1.010531
G02 X161.363138 Y277.553143 Z-0.125000 I-0.617082 J0.000000
G02 X159.320982 Y276.962022 Z-0.125000 I-2.790811 J5.818367
G03 X156.773633 Y276.239094 Z-0.125000 I0.962661 J-8.241541
G03 X156.351123 Y275.575566 Z-0.125000 I0.309763 J-0.663529
G02 X156.215107 Y275.332170 Z-0.125000 I-0.285782 J0.000000
G02 X155.292790 Y274.924355 Z-0.125000 I-1.959155 J3.183970
G02 X154.233667 Y274.621621 Z-0.125000 I-58.345194 J202.117916
G02 X152.132957 Y274.030106 Z-0.125000 I-224.895790 J794.670482
G03 X150.091330 Y273.361808 Z-0.125000 I6.710512 J-23.953082
G03 X149.869515 Y273.179338 Z-0.125000 I0.156459 J-0.416254
G02 X149.656802 Y272.976254 Z-0.125000 I-0.495926 J0.306496
G02 X148.354416 Y272.337283 Z-0.125000 I-6.891131 J12.399112
G02 X147.010529 Y272.013694 Z-0.125000 I-1.622068 J3.784134
G02 X146.166164 Y272.189094 Z-0.125000 I-0.108275 J1.598833
G03 X141.991554 Y273.309316 Z-0.125000 I-4.651190 J-8.994441
G03 X138.046009 Y272.571689 Z-0.125000 I-0.410995 J-8.722709
G03 X137.261252 Y272.110658 Z-0.125000 I1.613021 J-3.644065
G03 X137.148543 Y271.895625 Z-0.125000 I0.170606 J-0.226478
G02 X137.065003 Y271.640007 Z-0.125000 I-0.494055 J0.020004
G02 X136.301876 Y270.634622 Z-0.125000 I-9.041007 J6.070174
G03 X135.529214 Y269.634423 Z-0.125000 I9.708508 J-8.298439
G03 X135.466679 Y269.435178 Z-0.125000 I0.286140 J-0.199245
G03 X135.780459 Y269.188310 Z-0.125000 I0.254002 J0.000000
G03 X136.696583 Y269.732993 Z-0.125000 I-0.425999 J1.759281
G02 X138.975809 Y271.420894 Z-0.125000 I5.350523 J-4.842175
G02 X140.877449 Y271.699382 Z-0.125000 I1.410351 J-2.998634
G02 X140.974088 Y271.480621 Z-0.125000 I-0.020988 J-0.139997
G02 X140.264457 Y270.783935 Z-0.125000 I-2.033838 J1.361878
G03 X139.027628 Y269.929167 Z-0.125000 I12.291080 J-19.107106
G03 X138.712234 Y269.633484 Z-0.125000 I1.118475 J-1.509086
G02 X138.386026 Y269.361404 Z-0.125000 I-0.940171 J0.795615
G02 X137.489171 Y268.930175 Z-0.125000 I-3.369774 J5.860112
G03 X135.046637 Y267.208456 Z-0.125000 I2.304372 J-5.862542
G03 X134.337790 Y265.317533 Z-0.125000 I2.167693 J-1.890923
G02 X134.265625 Y265.099023 Z-0.125000 I-0.366901 J-0.000000
G02 X133.773345 Y264.556185 Z-0.125000 I-2.988927 J2.215917
G03 X133.302857 Y264.003680 Z-0.125000 I1.880522 J-2.077945
G03 X133.208901 Y263.686260 Z-0.125000 I0.489207 J-0.317420
G02 X132.782170 Y262.852986 Z-0.125000 I-1.026931 J-0.000000
G02 X130.867314 Y261.999638 Z-0.125000 I-3.009653 J4.178386
G03 X129.733473 Y261.470937 Z-0.125000 I0.603788 J-2.775026
G03 X127.422691 Y259.335074 Z-0.125000 I10.993013 J-14.211247
G02 X124.440178 Y256.602581 Z-0.125000 I-16.286278 J14.782498
G02 X123.335554 Y256.230629 Z-0.125000 I-1.104624 J1.454286
G03 X122.670858 Y256.054453 Z-0.125000 I0.000000 J-1.342005
G03 X121.355568 Y255.101741 Z-0.125000 I3.707707 J-6.503049
G02 X120.067074 Y254.079487 Z-0.125000 I-8.511411 J9.404993
G02 X119.725864 Y253.972852 Z-0.125000 I-0.341210 J0.492582
G03 X119.396016 Y253.860180 Z-0.125000 I0.000000 J-0.539155
G03 X118.631149 Y253.126185 Z-0.125000 I3.050945 J-3.944782
G02 X117.843507 Y252.441115 Z-0.125000 I-2.579870 J2.170820
G02 X117.281997 Y252.279518 Z-0.125000 I-0.561510 J0.894758
G03 X116.703475 Y252.148345 Z-0.125000 I-0.000000 J-1.341334
G03 X116.159749 Y251.743022 Z-0.125000 I0.756123 J-1.581667
G02 X115.605310 Y251.330277 Z-0.125000 I-1.320441 J1.194982
G02 X114.634341 Y251.016238 Z-0.125000 I-1.669731 J3.504524
G03 X112.773469 Y250.446176 Z-0.125000 I1.509779 J-8.250707
G03 X107.058074 Y247.691392 Z-0.125000 I35.821053 J-81.624821
