%
(Header)
(Generated by gcodetools from Inkscape.)
(Using default header. To add your own header create file "header" in the output dir.)
M3
(Header end.)
G21 (All units in mm)

(Start cutting path id: _119523552)
(Change tool to Default tool)

G00 Z5.000000
G00 X12.846643 Y241.260802

G01 Z-0.125000 F100.0(Penetrate)
G03 X12.695558 Y241.363407 Z-0.125000 I-0.423001 J-0.460329 F400.000000
G03 X12.461596 Y241.437291 Z-0.125000 I-0.371570 J-0.769243
G03 X12.217285 Y241.447755 Z-0.125000 I-0.165930 J-1.016761
G03 X11.889002 Y241.390369 Z-0.125000 I0.131035 J-1.717287
G03 X11.558304 Y241.275933 Z-0.125000 I0.738622 J-2.669513
G03 X11.215585 Y241.130227 Z-0.125000 I12.757788 J-30.483957
G03 X10.902552 Y240.994046 Z-0.125000 I24.939248 J-57.754420
G03 X10.567420 Y240.835579 Z-0.125000 I2.598579 J-5.929189
G03 X10.212700 Y240.641958 Z-0.125000 I3.123691 J-6.144436
G03 X9.844458 Y240.406257 Z-0.125000 I2.731527 J-4.673055
G03 X9.510225 Y240.149458 Z-0.125000 I2.665521 J-3.815173
G03 X9.250711 Y239.916239 Z-0.125000 I3.552279 J-4.213791
G03 X9.018399 Y239.680297 Z-0.125000 I3.893908 J-4.066330
G03 X8.783931 Y239.419967 Z-0.125000 I8.526781 J-7.915449
G03 X8.532080 Y239.122551 Z-0.125000 I9.554421 J-8.346019
G03 X8.310218 Y238.816217 Z-0.125000 I2.419508 J-1.985837
G03 X8.148004 Y238.503052 Z-0.125000 I1.686626 J-1.072235
G03 X8.072892 Y238.269392 Z-0.125000 I1.446574 J-0.593914
G03 X8.040319 Y238.033123 Z-0.125000 I1.217881 J-0.288287
G03 X8.052911 Y237.830794 Z-0.125000 I0.978033 J-0.040686
G03 X8.109564 Y237.625175 Z-0.125000 I1.021356 J0.170792
G03 X8.214759 Y237.440147 Z-0.125000 I0.686367 J0.267809
G03 X8.377291 Y237.287574 Z-0.125000 I0.569985 J0.444332
G03 X8.524423 Y237.227700 Z-0.125000 I0.212330 J0.311056
G03 X8.657571 Y237.235356 Z-0.125000 I0.050327 J0.286398
G02 X8.845917 Y237.272724 Z-0.125000 I0.294593 J-0.991483
G02 X9.073148 Y237.276590 Z-0.125000 I0.136067 J-1.317616
G02 X9.402487 Y237.250564 Z-0.125000 I-1.138556 J-16.504116
G02 X9.197093 Y237.362974 Z-0.125000 I2.146225 J4.165398
G02 X9.042411 Y237.488288 Z-0.125000 I0.323275 J0.557160
G02 X8.933537 Y237.646719 Z-0.125000 I0.539651 J0.487474
G03 X8.816470 Y237.806127 Z-0.125000 I-0.540455 J-0.274211
G03 X8.636986 Y237.932253 Z-0.125000 I-0.477954 J-0.489385
G02 X8.454942 Y238.025742 Z-0.125000 I1.947365 J4.015906
G02 X8.327037 Y238.124654 Z-0.125000 I0.240739 J0.443461
G02 X8.267139 Y238.256837 Z-0.125000 I0.165450 J0.154636
G02 X8.279635 Y238.444992 Z-0.125000 I0.568452 J0.056738
G02 X8.370844 Y238.706633 Z-0.125000 I1.307385 J-0.309041
G02 X8.494930 Y238.915911 Z-0.125000 I1.141427 J-0.535353
G02 X8.681539 Y239.153922 Z-0.125000 I3.688715 J-2.699914
G02 X8.886501 Y239.389061 Z-0.125000 I6.295881 J-5.281001
G02 X9.224920 Y239.736612 Z-0.125000 I4.971791 J-4.502622
G02 X9.602178 Y240.079704 Z-0.125000 I7.178319 J-7.514190
G02 X10.075576 Y240.486397 Z-0.125000 I54.944272 J-63.477254
G02 X10.057659 Y240.151088 Z-0.125000 I-7.315816 J0.222789
G02 X9.995976 Y239.903473 Z-0.125000 I-0.761671 J0.058248
G02 X9.854235 Y239.717441 Z-0.125000 I-0.452092 J0.197443
G02 X9.656023 Y239.593270 Z-0.125000 I-0.610765 J0.754670
G02 X9.423606 Y239.498580 Z-0.125000 I-1.024518 J2.182093
G03 X9.201705 Y239.403850 Z-0.125000 I0.577672 J-1.660435
G03 X9.008096 Y239.280234 Z-0.125000 I0.544044 J-1.065511
G03 X8.843855 Y239.141577 Z-0.125000 I1.803728 J-2.303143
G03 X8.682178 Y238.983333 Z-0.125000 I2.082253 J-2.289137
G03 X8.577693 Y238.835357 Z-0.125000 I0.455294 J-0.432359
G03 X8.535041 Y238.675464 Z-0.125000 I0.354936 J-0.180316
G03 X8.551502 Y238.508569 Z-0.125000 I0.561720 J-0.028854
G03 X8.611203 Y238.338326 Z-0.125000 I0.980291 J0.248179
G03 X8.700115 Y238.150086 Z-0.125000 I6.461486 J2.936838
G02 X8.717916 Y238.270876 Z-0.125000 I2.917426 J-0.368254
G02 X8.753127 Y238.407463 Z-0.125000 I0.817141 J-0.137817
G02 X8.813873 Y238.538825 Z-0.125000 I0.713303 J-0.250129
G02 X8.930365 Y238.686206 Z-0.125000 I0.581747 J-0.340094
G02 X9.081290 Y238.800900 Z-0.125000 I0.584825 J-0.612914
G02 X9.302037 Y238.915379 Z-0.125000 I1.074339 J-1.801558
G02 X9.534492 Y239.014261 Z-0.125000 I3.062360 J-6.876442
G03 X9.773314 Y239.139703 Z-0.125000 I-0.517024 J1.274392
G03 X9.954640 Y239.304411 Z-0.125000 I-0.435179 J0.661246
G03 X10.125753 Y239.620374 Z-0.125000 I-0.774378 J0.623690
G03 X10.227953 Y240.058171 Z-0.125000 I-2.506484 J0.815944
G02 X10.337076 Y240.446620 Z-0.125000 I1.541250 J-0.223415
G02 X10.527916 Y240.684376 Z-0.125000 I0.520502 J-0.222324
G02 X10.755388 Y240.815481 Z-0.125000 I0.774505 J-1.080907
G02 X11.035856 Y240.938617 Z-0.125000 I6.228753 J-13.806311
G02 X11.341358 Y241.066252 Z-0.125000 I8.292641 J-19.419362
G02 X11.632727 Y241.182816 Z-0.125000 I8.158233 J-19.970381
G02 X11.901840 Y241.287719 Z-0.125000 I33.157333 J-84.662646
G02 X11.810724 Y241.178494 Z-0.125000 I-1.370815 J1.050929
G02 X11.652638 Y241.041726 Z-0.125000 I-0.640829 J0.580964
G02 X11.454674 Y240.922875 Z-0.125000 I-1.250999 J1.859440
G03 X11.147604 Y240.731148 Z-0.125000 I1.233557 J-2.317430
G03 X10.851653 Y240.483097 Z-0.125000 I1.614309 J-2.226612
G03 X10.641610 Y240.252117 Z-0.125000 I1.669293 J-1.728977
G03 X10.514475 Y240.037596 Z-0.125000 I0.707939 J-0.564489
G03 X10.460576 Y239.830151 Z-0.125000 I0.695230 J-0.291361
G03 X10.443164 Y239.569971 Z-0.125000 I2.896773 J-0.324541
G02 X10.403066 Y239.247906 Z-0.125000 I-1.596717 J0.035264
G02 X10.301359 Y238.959076 Z-0.125000 I-1.324096 J0.303941
G02 X10.159440 Y238.682270 Z-0.125000 I-6.293125 J3.051711
G03 X10.368126 Y238.809893 Z-0.125000 I-5.613063 J9.412817
G03 X10.566835 Y238.950634 Z-0.125000 I-1.150796 J1.835422
G03 X10.743293 Y239.112049 Z-0.125000 I-1.091179 J1.370031
G03 X10.916205 Y239.319448 Z-0.125000 I-1.468257 J1.399895
G03 X11.069015 Y239.555449 Z-0.125000 I-2.119813 J1.540038
G03 X11.209424 Y239.826941 Z-0.125000 I-3.038409 J1.743449
G03 X11.326301 Y240.099235 Z-0.125000 I-4.767122 J2.207429
G02 X11.446164 Y240.374774 Z-0.125000 I4.223390 J-1.673389
G02 X11.593797 Y240.651997 Z-0.125000 I3.095556 J-1.470597
G02 X11.746668 Y240.881143 Z-0.125000 I2.230307 J-1.322346
G02 X11.920027 Y241.081701 Z-0.125000 I1.490441 J-1.113103
G02 X12.052561 Y241.194367 Z-0.125000 I0.750466 J-0.748517
G02 X12.192085 Y241.267146 Z-0.125000 I0.325313 J-0.453532
G02 X12.353908 Y241.294231 Z-0.125000 I0.158178 J-0.448093
G02 X12.551849 Y241.270073 Z-0.125000 I-0.006691 J-0.877841
G02 X12.741884 Y241.184763 Z-0.125000 I-0.130804 J-0.545690
G02 X12.856882 Y241.045769 Z-0.125000 I-0.192685 J-0.276489
G02 X12.874216 Y240.879854 Z-0.125000 I-0.244929 J-0.109452
G02 X12.795893 Y240.716876 Z-0.125000 I-0.378350 J0.081515
G02 X12.605383 Y240.541752 Z-0.125000 I-0.700428 J0.570780
G02 X12.382721 Y240.418503 Z-0.125000 I-0.764011 J1.117503
G03 X12.097467 Y240.291917 Z-0.125000 I9.989115 J-22.894662
G03 X11.820442 Y240.149877 Z-0.125000 I1.287077 J-2.851395
G03 X11.543732 Y239.932427 Z-0.125000 I0.619516 J-1.073133
G03 X11.322141 Y239.639328 Z-0.125000 I1.159691 J-1.107072
G02 X11.125514 Y239.313006 Z-0.125000 I-16.761576 J9.877394
G02 X10.926051 Y239.005019 Z-0.125000 I-6.851688 J4.218799
G03 X10.781344 Y238.762831 Z-0.125000 I1.979980 J-1.347361
G03 X10.681283 Y238.515411 Z-0.125000 I1.245992 J-0.647846
G03 X10.620386 Y238.246834 Z-0.125000 I1.995834 J-0.593724
G03 X10.578794 Y237.965838 Z-0.125000 I14.487283 J-2.287922
G02 X10.485524 Y237.561540 Z-0.125000 I-2.300166 J0.317730
G02 X10.320971 Y237.153423 Z-0.125000 I-3.116553 J1.019367
G02 X10.076958 Y236.661198 Z-0.125000 I-25.191358 J12.181661
G03 X10.277626 Y236.787723 Z-0.125000 I-5.529313 J8.991858
G03 X10.530080 Y236.965240 Z-0.125000 I-2.145524 J3.319520
G03 X10.787162 Y237.179428 Z-0.125000 I-2.379865 J3.117838
G03 X11.063740 Y237.478917 Z-0.125000 I-1.561866 J1.719835
G03 X11.273999 Y237.807517 Z-0.125000 I-1.744842 J1.348027
G03 X11.454035 Y238.194969 Z-0.125000 I-4.150502 J2.164153
G03 X11.613153 Y238.614736 Z-0.125000 I-7.691277 J3.155516
G03 X11.743670 Y238.993480 Z-0.125000 I-54.591116 J19.024221
G02 X11.867116 Y239.341669 Z-0.125000 I14.164362 J-4.825825
G02 X11.986898 Y239.621967 Z-0.125000 I2.816615 J-1.037910
G02 X12.148096 Y239.907127 Z-0.125000 I2.461723 J-1.203441
G02 X12.323947 Y240.136207 Z-0.125000 I1.509803 J-0.976949
G02 X12.526211 Y240.325579 Z-0.125000 I1.238735 J-1.120363
G03 X12.689364 Y240.461238 Z-0.125000 I-2.721199 J3.438641
G03 X12.839081 Y240.607584 Z-0.125000 I-1.223685 J1.401635
G03 X12.962483 Y240.746235 Z-0.125000 I-5.181289 J4.735694
G02 X12.955476 Y240.476302 Z-0.125000 I-5.227565 J0.000650
G02 X12.906075 Y240.134122 Z-0.125000 I-1.887307 J0.097820
G02 X12.793952 Y239.775047 Z-0.125000 I-2.703047 J0.646991
G02 X12.608873 Y239.341819 Z-0.125000 I-6.583646 J2.556455
G02 X12.409784 Y238.955994 Z-0.125000 I-5.009187 J2.340500
G02 X12.106932 Y238.488352 Z-0.125000 I-4.106241 J2.327385
G02 X11.705306 Y237.984990 Z-0.125000 I-6.543241 J4.808848
G02 X11.329926 Y237.562313 Z-0.125000 I-16.330455 J14.125080
G02 X11.012345 Y237.224514 Z-0.125000 I-11.225385 J10.235340
G02 X10.801701 Y237.009327 Z-0.125000 I-22.016318 J21.340828
G03 X10.567459 Y236.769069 Z-0.125000 I17.244511 J-17.047044
G03 X10.317047 Y236.493447 Z-0.125000 I4.744305 J-4.561912
G03 X10.090022 Y236.198792 Z-0.125000 I2.681431 J-2.300777
G03 X9.932000 Y235.878570 Z-0.125000 I1.014381 J-0.699675
G03 X9.871096 Y235.519530 Z-0.125000 I1.200125 J-0.388262
G03 X9.879690 Y235.181258 Z-0.125000 I3.483874 J-0.080733
G03 X9.904425 Y234.861740 Z-0.125000 I48.611382 J3.602451
G02 X9.892692 Y234.595945 Z-0.125000 I-1.066413 J-0.086082
G02 X9.801974 Y234.343442 Z-0.125000 I-0.754115 J0.128388
G02 X9.596404 Y234.139730 Z-0.125000 I-0.472627 J0.271360
G02 X9.284202 Y234.031752 Z-0.125000 I-0.453986 J0.807301
G03 X8.976819 Y233.951763 Z-0.125000 I0.241363 J-1.558107
G03 X8.759237 Y233.811395 Z-0.125000 I0.208842 J-0.562542
G03 X8.615595 Y233.617221 Z-0.125000 I0.600213 J-0.594230
G03 X8.508233 Y233.369058 Z-0.125000 I1.400423 J-0.753167
G03 X8.435780 Y233.046572 Z-0.125000 I1.536209 J-0.514524
G03 X8.424734 Y232.719890 Z-0.125000 I1.911855 J-0.228175
G03 X8.448057 Y232.370625 Z-0.125000 I11.281220 J0.577919
G02 X8.571777 Y232.510015 Z-0.125000 I146.764564 J-130.141037
G02 X8.739214 Y232.697881 Z-0.125000 I59.667945 J-53.010925
G02 X8.929917 Y232.905936 Z-0.125000 I8.564681 J-7.658972
G02 X9.157760 Y233.114600 Z-0.125000 I1.500316 J-1.409488
G02 X9.392138 Y233.266392 Z-0.125000 I0.943522 J-1.200024
G02 X9.639509 Y233.387415 Z-0.125000 I2.274980 J-4.336714
G03 X9.904946 Y233.510675 Z-0.125000 I-7.830022 J17.209272
G03 X10.165556 Y233.659294 Z-0.125000 I-0.848135 J1.790046
G03 X10.384850 Y233.845716 Z-0.125000 I-0.731404 J1.082566
G03 X10.544770 Y234.079831 Z-0.125000 I-0.661481 J0.623522
G03 X10.629055 Y234.354698 Z-0.125000 I-0.897243 J0.425484
G03 X10.642572 Y234.705249 Z-0.125000 I-1.527853 J0.234451
G03 X10.585660 Y235.066877 Z-0.125000 I-2.257876 J-0.170046
G03 X10.490914 Y235.422730 Z-0.125000 I-7.718631 J-1.864542
G02 X10.398282 Y235.761180 Z-0.125000 I10.447190 J3.041261
G02 X10.371655 Y236.038216 Z-0.125000 I0.871975 J0.223607
G02 X10.437819 Y236.297692 Z-0.125000 I0.706586 J-0.042000
G02 X10.632546 Y236.603969 Z-0.125000 I1.302960 J-0.613365
G02 X10.900776 Y236.889583 Z-0.125000 I2.456538 J-2.038260
G03 X11.270544 Y237.247003 Z-0.125000 I-13.500897 J14.337291
G03 X11.624766 Y237.616048 Z-0.125000 I-7.426482 J7.482704
G03 X11.949326 Y237.986926 Z-0.125000 I-8.362700 J7.645759
G03 X12.239123 Y238.353772 Z-0.125000 I-6.265746 J5.247653
G03 X12.505708 Y238.743973 Z-0.125000 I-4.665771 J3.473813
G03 X12.757827 Y239.184412 Z-0.125000 I-5.533148 J3.459687
G03 X12.959206 Y239.626301 Z-0.125000 I-4.033018 J2.104775
G03 X13.097135 Y240.072191 Z-0.125000 I-2.930949 J1.150920
G03 X13.137100 Y240.400097 Z-0.125000 I-1.542714 J0.354416
G03 X13.101126 Y240.726889 Z-0.125000 I-1.302779 J0.021961
G03 X13.036956 Y240.939215 Z-0.125000 I-1.881047 J-0.452637
G03 X12.951310 Y241.127431 Z-0.125000 I-1.277269 J-0.467609
G03 X12.846646 Y241.260802 Z-0.125000 I-0.459699 J-0.253002
G01 X12.846646 Y241.260802 Z-0.125000
G01 X12.846643 Y241.260802 Z-0.125000
G00 Z5.000000

(End cutting path id: _119523552)


(Start cutting path id: _119523552)
(Change tool to Default tool)

G00 Z5.000000
G00 X35.202919 Y241.260802

G01 Z-0.125000 F100.0(Penetrate)
G02 X35.353987 Y241.363405 Z-0.125000 I0.422805 J-0.460005 F400.000000
G02 X35.587968 Y241.437291 Z-0.125000 I0.371612 J-0.769393
G02 X35.832262 Y241.447758 Z-0.125000 I0.165928 J-1.016600
G02 X36.160538 Y241.390369 Z-0.125000 I-0.131006 J-1.716993
G02 X36.491249 Y241.275931 Z-0.125000 I-0.738363 J-2.668852
G02 X36.833977 Y241.130227 Z-0.125000 I-12.809357 J-30.606307
G02 X37.146996 Y240.994048 Z-0.125000 I-24.832628 J-57.507881
G02 X37.482142 Y240.835579 Z-0.125000 I-2.601674 J-5.935916
G02 X37.836836 Y240.641962 Z-0.125000 I-3.125548 J-6.147494
G02 X38.205083 Y240.406257 Z-0.125000 I-2.731738 J-4.673362
G02 X38.539340 Y240.149454 Z-0.125000 I-2.664471 J-3.814041
G02 X38.798853 Y239.916239 Z-0.125000 I-3.551625 J-4.213110
G02 X39.031150 Y239.680302 Z-0.125000 I-3.901331 J-4.073471
G02 X39.265632 Y239.419967 Z-0.125000 I-8.517450 J-7.907340
G02 X39.517470 Y239.122556 Z-0.125000 I-9.591038 J-8.376729
G02 X39.739344 Y238.816217 Z-0.125000 I-2.418603 J-1.985259
G02 X39.901558 Y238.503053 Z-0.125000 I-1.686641 J-1.072245
G02 X39.976671 Y238.269392 Z-0.125000 I-1.446607 J-0.593930
G02 X40.009228 Y238.033124 Z-0.125000 I-1.218872 J-0.288336
G02 X39.996652 Y237.830794 Z-0.125000 I-0.978729 J-0.040722
G02 X39.940001 Y237.625181 Z-0.125000 I-1.020946 J0.170682
G02 X39.834781 Y237.440147 Z-0.125000 I-0.686180 J0.267767
G02 X39.672267 Y237.287582 Z-0.125000 I-0.570020 J0.444352
G02 X39.525118 Y237.227700 Z-0.125000 I-0.212328 J0.311018
G02 X39.391968 Y237.235357 Z-0.125000 I-0.050326 J0.286389
G03 X39.203647 Y237.272724 Z-0.125000 I-0.294569 J-0.991327
G03 X38.976416 Y237.276590 Z-0.125000 I-0.136067 J-1.317620
G03 X38.647077 Y237.250564 Z-0.125000 I1.138554 J-16.504085
G03 X38.852475 Y237.362977 Z-0.125000 I-2.145493 J4.164028
G03 X39.007130 Y237.488288 Z-0.125000 I-0.323125 J0.556886
G03 X39.116015 Y237.646725 Z-0.125000 I-0.539814 J0.487618
G02 X39.233069 Y237.806127 Z-0.125000 I0.540718 J-0.274386
G02 X39.412564 Y237.932251 Z-0.125000 I0.478160 J-0.489714
G03 X39.594621 Y238.025742 Z-0.125000 I-1.953546 J4.028154
G03 X39.722528 Y238.124654 Z-0.125000 I-0.240731 J0.443455
G03 X39.782426 Y238.256837 Z-0.125000 I-0.165450 J0.154636
G03 X39.769922 Y238.444991 Z-0.125000 I-0.568736 J0.056698
G03 X39.678720 Y238.706633 Z-0.125000 I-1.307151 J-0.308925
G03 X39.554634 Y238.915907 Z-0.125000 I-1.141267 J-0.535274
G03 X39.368002 Y239.153922 Z-0.125000 I-3.685413 J-2.697620
G03 X39.163063 Y239.389056 Z-0.125000 I-6.284156 J-5.270281
G03 X38.824642 Y239.736612 Z-0.125000 I-4.970886 J-4.501696
G03 X38.447376 Y240.079704 Z-0.125000 I-7.174199 J-7.509833
G03 X37.973965 Y240.486397 Z-0.125000 I-55.136083 J-63.702197
G03 X37.991903 Y240.151081 Z-0.125000 I7.322082 J0.223555
G03 X38.053563 Y239.903473 Z-0.125000 I0.762172 J0.058317
G03 X38.195318 Y239.717440 Z-0.125000 I0.452251 J0.197584
G03 X38.393517 Y239.593270 Z-0.125000 I0.610664 J0.754474
G03 X38.625950 Y239.498578 Z-0.125000 I1.024272 J2.181568
G02 X38.847835 Y239.403850 Z-0.125000 I-0.577189 J-1.659218
G02 X39.041471 Y239.280226 Z-0.125000 I-0.543867 J-1.065327
G02 X39.205685 Y239.141577 Z-0.125000 I-1.800877 J-2.299504
G02 X39.367375 Y238.983333 Z-0.125000 I-2.084726 J-2.291862
G02 X39.471871 Y238.835357 Z-0.125000 I-0.455150 J-0.432296
G02 X39.514524 Y238.675464 Z-0.125000 I-0.354926 J-0.180314
G02 X39.498061 Y238.508569 Z-0.125000 I-0.561716 J-0.028853
G02 X39.438359 Y238.338330 Z-0.125000 I-0.980158 J0.248148
G02 X39.349426 Y238.150086 Z-0.125000 I-6.434329 J2.924682
G03 X39.331650 Y238.270873 Z-0.125000 I-2.899272 J-0.364976
G03 X39.296436 Y238.407463 Z-0.125000 I-0.816273 J-0.137608
G03 X39.235690 Y238.538825 Z-0.125000 I-0.713269 J-0.250113
G03 X39.119198 Y238.686206 Z-0.125000 I-0.581760 J-0.340105
G03 X38.968244 Y238.800907 Z-0.125000 I-0.585175 J-0.613441
G03 X38.747525 Y238.915379 Z-0.125000 I-1.074690 J-1.802142
G03 X38.515056 Y239.014263 Z-0.125000 I-3.058780 J-6.868301
G02 X38.276248 Y239.139703 Z-0.125000 I0.516665 J1.273639
G02 X38.094911 Y239.304419 Z-0.125000 I0.434996 J0.661068
G02 X37.923809 Y239.620374 Z-0.125000 I0.774501 J0.623729
G02 X37.821611 Y240.058170 Z-0.125000 I2.506532 J0.815945
G03 X37.712487 Y240.446620 Z-0.125000 I-1.541203 J-0.223405
G03 X37.521636 Y240.684377 Z-0.125000 I-0.520465 J-0.222308
G03 X37.294151 Y240.815481 Z-0.125000 I-0.774678 J-1.081269
G03 X37.013717 Y240.938610 Z-0.125000 I-6.214506 J-13.772972
G03 X36.708182 Y241.066252 Z-0.125000 I-8.269573 J-19.365256
G03 X36.416813 Y241.182816 Z-0.125000 I-8.159629 J-19.973856
G03 X36.147700 Y241.287719 Z-0.125000 I-33.119665 J-84.566083
G03 X36.238839 Y241.178490 Z-0.125000 I1.373458 J1.053363
G03 X36.396925 Y241.041726 Z-0.125000 I0.640871 J0.581034
G03 X36.594889 Y240.922875 Z-0.125000 I1.251012 J1.859463
G02 X36.901958 Y240.731148 Z-0.125000 I-1.233550 J-2.317416
G02 X37.197909 Y240.483097 Z-0.125000 I-1.614342 J-2.226654
G02 X37.407955 Y240.252117 Z-0.125000 I-1.669345 J-1.729039
G02 X37.535080 Y240.037601 Z-0.125000 I-0.708371 J-0.564715
G02 X37.588986 Y239.830151 Z-0.125000 I-0.695106 J-0.291354
G02 X37.606401 Y239.569968 Z-0.125000 I-2.898296 J-0.324662
G03 X37.646475 Y239.247906 Z-0.125000 I1.598233 J0.035344
G03 X37.748203 Y238.959075 Z-0.125000 I1.324642 J0.304215
G03 X37.890123 Y238.682270 Z-0.125000 I6.295406 J3.052928
G02 X37.681438 Y238.809893 Z-0.125000 I5.614063 J9.414400
G02 X37.482729 Y238.950634 Z-0.125000 I1.150767 J1.835374
G02 X37.306245 Y239.112055 Z-0.125000 I1.090538 J1.369496
G02 X37.133335 Y239.319448 Z-0.125000 I1.467880 J1.399588
G02 X36.980548 Y239.555444 Z-0.125000 I2.121475 J1.540936
G02 X36.840138 Y239.826941 Z-0.125000 I3.038977 J1.743721
G02 X36.723251 Y240.099235 Z-0.125000 I4.774615 J2.210824
G03 X36.603376 Y240.374774 Z-0.125000 I-4.228192 J-1.675657
G03 X36.455766 Y240.651993 Z-0.125000 I-3.092556 J-1.468770
G03 X36.302894 Y240.881143 Z-0.125000 I-2.229802 J-1.321997
G03 X36.129536 Y241.081701 Z-0.125000 I-1.490446 J-1.113104
G03 X35.997002 Y241.194367 Z-0.125000 I-0.750436 J-0.748484
G03 X35.857466 Y241.267142 Z-0.125000 I-0.325429 J-0.453807
G03 X35.695631 Y241.294231 Z-0.125000 I-0.158191 J-0.448108
G03 X35.497723 Y241.270077 Z-0.125000 I0.006691 J-0.877697
G03 X35.307679 Y241.184763 Z-0.125000 I0.130811 J-0.545715
G03 X35.192666 Y241.045764 Z-0.125000 I0.192638 J-0.276480
G03 X35.175348 Y240.879854 Z-0.125000 I0.244847 J-0.109415
G03 X35.253644 Y240.716884 Z-0.125000 I0.378119 J0.081366
G03 X35.444182 Y240.541752 Z-0.125000 I0.700338 J0.570729
G03 X35.666811 Y240.418509 Z-0.125000 I0.763677 J1.116821
G02 X35.952097 Y240.291917 Z-0.125000 I-10.026304 J-22.979977
G02 X36.229123 Y240.149875 Z-0.125000 I-1.287028 J-2.851262
G02 X36.505809 Y239.932427 Z-0.125000 I-0.619362 J-1.072845
G02 X36.727424 Y239.639318 Z-0.125000 I-1.159304 J-1.106865
G03 X36.924025 Y239.313006 Z-0.125000 I16.833527 J9.919752
G03 X37.123511 Y239.005011 Z-0.125000 I6.863953 J4.227134
G02 X37.268195 Y238.762831 Z-0.125000 I-1.977936 J-1.345973
G02 X37.368278 Y238.515407 Z-0.125000 I-1.245348 J-0.647696
G02 X37.429178 Y238.246834 Z-0.125000 I-1.995559 J-0.593689
G02 X37.470760 Y237.965838 Z-0.125000 I-14.439882 J-2.280393
G03 X37.564015 Y237.561540 Z-0.125000 I2.299331 J0.317459
G03 X37.728590 Y237.153417 Z-0.125000 I3.118379 J1.020235
G03 X37.972583 Y236.661198 Z-0.125000 I25.265301 J12.217428
G02 X37.771927 Y236.787722 Z-0.125000 I5.551473 J9.026504
G02 X37.519483 Y236.965240 Z-0.125000 I2.143083 J3.315884
G02 X37.262387 Y237.179433 Z-0.125000 I2.376938 J3.114425
G02 X36.985824 Y237.478917 Z-0.125000 I1.562219 J1.720098
G02 X36.775554 Y237.807520 Z-0.125000 I1.745215 J1.348325
G02 X36.595527 Y238.194969 Z-0.125000 I4.145293 J2.161638
G02 X36.436410 Y238.614736 Z-0.125000 I7.691380 J3.155551
G02 X36.305894 Y238.993480 Z-0.125000 I54.551676 J19.010465
G03 X36.182448 Y239.341669 Z-0.125000 I-14.169809 J-4.827747
G03 X36.062666 Y239.621967 Z-0.125000 I-2.816468 J-1.037839
G03 X35.901468 Y239.907122 Z-0.125000 I-2.461612 J-1.203413
G03 X35.725594 Y240.136207 Z-0.125000 I-1.509137 J-0.976543
G03 X35.523354 Y240.325577 Z-0.125000 I-1.238130 J-1.119604
G02 X35.360201 Y240.461238 Z-0.125000 I2.721390 J3.438811
G02 X35.210468 Y240.607588 Z-0.125000 I1.224405 J1.402474
G02 X35.087080 Y240.746235 Z-0.125000 I5.139538 J4.698142
G03 X35.094077 Y240.476302 Z-0.125000 I5.234790 J0.000628
G03 X35.143466 Y240.134122 Z-0.125000 I1.886502 J0.097634
G03 X35.255598 Y239.775047 Z-0.125000 I2.702115 J0.646771
G03 X35.440691 Y239.341819 Z-0.125000 I6.587928 J2.558488
G03 X35.639779 Y238.955994 Z-0.125000 I5.009074 J2.340431
G03 X35.942631 Y238.488352 Z-0.125000 I4.106197 J2.327356
G03 X36.344258 Y237.984989 Z-0.125000 I6.543244 J4.808855
G03 X36.719637 Y237.562313 Z-0.125000 I16.331947 J14.126387
G03 X37.037208 Y237.224517 Z-0.125000 I11.195639 J10.207153
G03 X37.247861 Y237.009327 Z-0.125000 I22.089866 J21.413404
G02 X37.482090 Y236.769074 Z-0.125000 I-17.387996 J-17.186332
G02 X37.732516 Y236.493447 Z-0.125000 I-4.740994 J-4.559087
G02 X37.959541 Y236.198792 Z-0.125000 I-2.681310 J-2.300681
G02 X38.117563 Y235.878570 Z-0.125000 I-1.014396 J-0.699681
G02 X38.178465 Y235.519531 Z-0.125000 I-1.200046 J-0.388241
G02 X38.169850 Y235.181258 Z-0.125000 I-3.480693 J-0.080608
G02 X38.145131 Y234.861740 Z-0.125000 I-48.577071 J3.597401
G03 X38.156868 Y234.595945 Z-0.125000 I1.066687 J-0.086054
G03 X38.247586 Y234.343435 Z-0.125000 I0.754167 J0.128395
G03 X38.453134 Y234.139730 Z-0.125000 I0.472631 J0.271351
G03 X38.765372 Y234.031750 Z-0.125000 I0.454059 J0.807536
G02 X39.072719 Y233.951763 Z-0.125000 I-0.241284 J-1.557605
G02 X39.290313 Y233.811396 Z-0.125000 I-0.208881 J-0.562643
G02 X39.433966 Y233.617221 Z-0.125000 I-0.600075 J-0.594167
G02 X39.541319 Y233.369059 Z-0.125000 I-1.399832 J-0.752859
G02 X39.613781 Y233.046572 Z-0.125000 I-1.537572 J-0.514872
G02 X39.624826 Y232.719889 Z-0.125000 I-1.910920 J-0.228138
G02 X39.601504 Y232.370625 Z-0.125000 I-11.315046 J0.580152
G03 X39.477772 Y232.510019 Z-0.125000 I-139.629963 J-123.816971
G03 X39.310347 Y232.697881 Z-0.125000 I-62.993775 J-55.972270
G03 X39.119642 Y232.905936 Z-0.125000 I-8.568852 J-7.662867
G03 X38.891800 Y233.114600 Z-0.125000 I-1.500331 J-1.409499
G03 X38.657421 Y233.266392 Z-0.125000 I-0.943530 J-1.200041
G03 X38.410050 Y233.387415 Z-0.125000 I-2.274920 J-4.336608
G02 X38.144599 Y233.510678 Z-0.125000 I7.792656 J17.129212
G02 X37.884004 Y233.659294 Z-0.125000 I0.848289 J1.790242
G02 X37.664697 Y233.845723 Z-0.125000 I0.730959 J1.082073
G02 X37.504791 Y234.079831 Z-0.125000 I0.661593 J0.623564
G02 X37.420505 Y234.354699 Z-0.125000 I0.897214 J0.425481
G02 X37.406987 Y234.705249 Z-0.125000 I1.527866 J0.234454
G02 X37.463902 Y235.066880 Z-0.125000 I2.259290 J-0.170288
G02 X37.558622 Y235.422730 Z-0.125000 I7.727322 J-1.866306
G03 X37.651275 Y235.761182 Z-0.125000 I-10.422357 J3.035093
G03 X37.677906 Y236.038216 Z-0.125000 I-0.871942 J0.223615
G03 X37.611742 Y236.297688 Z-0.125000 I-0.706464 J-0.041972
G03 X37.416991 Y236.603969 Z-0.125000 I-1.302816 J-0.613347
G03 X37.148769 Y236.889584 Z-0.125000 I-2.457377 J-2.038985
G02 X36.779017 Y237.247003 Z-0.125000 I13.518629 J14.355047
G02 X36.424793 Y237.616049 Z-0.125000 I7.425714 J7.482001
G02 X36.100233 Y237.986926 Z-0.125000 I8.363122 J7.646143
G02 X35.810412 Y238.353776 Z-0.125000 I6.260998 J5.244250
G02 X35.543829 Y238.743973 Z-0.125000 I4.664727 J3.473114
G02 X35.291734 Y239.184408 Z-0.125000 I5.536836 J3.461528
G02 X35.090354 Y239.626301 Z-0.125000 I4.033511 J2.104985
G02 X34.952421 Y240.072191 Z-0.125000 I2.931186 J1.151019
G02 X34.912436 Y240.400097 Z-0.125000 I1.543420 J0.354600
G02 X34.948413 Y240.726885 Z-0.125000 I1.302667 J0.021959
G02 X35.012605 Y240.939215 Z-0.125000 I1.878831 J-0.452142
G02 X35.098249 Y241.127432 Z-0.125000 I1.277212 J-0.467576
G02 X35.202913 Y241.260802 Z-0.125000 I0.459702 J-0.253002
G01 X35.202913 Y241.260802 Z-0.125000
G01 X35.202919 Y241.260802 Z-0.125000
G00 Z5.000000

(End cutting path id: _119523552)


(Start cutting path id: _119523552)
(Change tool to Default tool)

G00 Z5.000000
G00 X13.802644 Y241.812710

G01 Z-0.125000 F100.0(Penetrate)
G02 X13.789334 Y241.994816 Z-0.125000 I0.610338 J0.136151 F400.000000
G02 X13.842327 Y242.234419 Z-0.125000 I0.852030 J-0.062784
G02 X13.955408 Y242.451210 Z-0.125000 I0.963451 J-0.364660
G02 X14.169256 Y242.706821 Z-0.125000 I1.421371 J-0.971879
G02 X14.433702 Y242.935997 Z-0.125000 I1.940675 J-1.972179
G02 X14.731261 Y243.159944 Z-0.125000 I20.068525 J-26.355556
G02 X15.005714 Y243.362956 Z-0.125000 I37.016660 J-49.756006
G02 X15.310531 Y243.573969 Z-0.125000 I3.839442 J-5.220556
G02 X15.655533 Y243.784323 Z-0.125000 I3.761925 J-5.781826
G02 X16.043801 Y243.985393 Z-0.125000 I2.680900 J-4.701433
G02 X16.433305 Y244.146442 Z-0.125000 I1.971479 J-4.216585
G02 X16.765053 Y244.254577 Z-0.125000 I1.872189 J-5.180713
G02 X17.085528 Y244.337800 Z-0.125000 I1.576273 J-5.411279
G02 X17.428234 Y244.410686 Z-0.125000 I2.578277 J-11.280754
G02 X17.811712 Y244.480095 Z-0.125000 I2.451501 J-12.450252
G02 X18.187927 Y244.519053 Z-0.125000 I0.509581 J-3.084966
G02 X18.540260 Y244.502969 Z-0.125000 I0.085412 J-1.996108
G02 X18.780175 Y244.451189 Z-0.125000 I-0.208891 J-1.549555
G02 X19.001069 Y244.361253 Z-0.125000 I-0.359556 J-1.199342
G02 X19.169978 Y244.249189 Z-0.125000 I-0.453760 J-0.867265
G02 X19.319733 Y244.097312 Z-0.125000 I-0.658755 J-0.799315
G02 X19.427379 Y243.913711 Z-0.125000 I-0.575165 J-0.460580
G02 X19.478234 Y243.696657 Z-0.125000 I-0.670091 J-0.271484
G02 X19.456521 Y243.539298 Z-0.125000 I-0.375566 J-0.028355
G02 X19.383318 Y243.427807 Z-0.125000 I-0.273126 J0.099550
G03 X19.256793 Y243.283397 Z-0.125000 I0.711191 J-0.750741
G03 X19.139829 Y243.088531 Z-0.125000 I1.073912 J-0.777130
G03 X18.997706 Y242.790310 Z-0.125000 I14.795594 J-7.234125
G03 X19.003044 Y243.024389 Z-0.125000 I-4.675911 J0.223744
G03 X18.971843 Y243.220991 Z-0.125000 I-0.643954 J-0.001422
G03 X18.889094 Y243.394507 Z-0.125000 I-0.691596 J-0.223330
G02 X18.809573 Y243.575585 Z-0.125000 I0.507877 J0.331034
G02 X18.790085 Y243.794086 Z-0.125000 I0.662975 J0.169250
G03 X18.800133 Y243.998512 Z-0.125000 I-4.451645 J0.321261
G03 X18.778439 Y244.158722 Z-0.125000 I-0.504256 J0.013293
G03 X18.693921 Y244.276691 Z-0.125000 I-0.216658 J-0.065962
G03 X18.524710 Y244.359953 Z-0.125000 I-0.333447 J-0.464084
G03 X18.252535 Y244.411787 Z-0.125000 I-0.386040 J-1.286550
G03 X18.009253 Y244.408941 Z-0.125000 I-0.106951 J-1.257199
G03 X17.709809 Y244.366341 Z-0.125000 I0.494447 J-4.549312
G03 X17.403696 Y244.306415 Z-0.125000 I1.425831 J-8.095166
G03 X16.933506 Y244.187112 Z-0.125000 I1.412253 J-6.552055
G03 X16.447749 Y244.031931 Z-0.125000 I2.917307 J-9.969869
G03 X15.858831 Y243.825302 Z-0.125000 I27.760656 J-80.063762
G03 X16.158198 Y243.673181 Z-0.125000 I3.466876 J6.452008
G03 X16.403454 Y243.602782 Z-0.125000 I0.330569 J0.689223
G03 X16.635441 Y243.632519 Z-0.125000 I0.055052 J0.490289
G03 X16.842099 Y243.742094 Z-0.125000 I-0.348237 J0.906440
G03 X17.040306 Y243.896018 Z-0.125000 I-1.375465 J1.975755
G02 X17.233285 Y244.040818 Z-0.125000 I1.148350 J-1.329437
G02 X17.437164 Y244.146696 Z-0.125000 I0.650839 J-1.004032
G02 X17.639345 Y244.219580 Z-0.125000 I1.089770 J-2.706166
G02 X17.857230 Y244.280505 Z-0.125000 I0.941043 J-2.945361
G02 X18.037628 Y244.297001 Z-0.125000 I0.146735 J-0.610002
G02 X18.197431 Y244.253989 Z-0.125000 I-0.021276 J-0.397405
G02 X18.333728 Y244.156283 Z-0.125000 I-0.256024 J-0.501070
G02 X18.451305 Y244.019461 Z-0.125000 I-0.704504 J-0.724334
G02 X18.569882 Y243.848330 Z-0.125000 I-5.820749 J-4.159879
G03 X18.456365 Y243.893316 Z-0.125000 I-1.133546 J-2.694627
G03 X18.320493 Y243.931116 Z-0.125000 I-0.289527 J-0.777617
G03 X18.176343 Y243.944197 Z-0.125000 I-0.140040 J-0.742426
G03 X17.990472 Y243.916991 Z-0.125000 I0.003664 J-0.673563
G03 X17.815671 Y243.843638 Z-0.125000 I0.238322 J-0.812874
G03 X17.606151 Y243.709721 Z-0.125000 I1.023702 J-1.832502
G03 X17.404271 Y243.557822 Z-0.125000 I4.431612 J-6.099890
G02 X17.176243 Y243.413737 Z-0.125000 I-0.844683 J1.084316
G02 X16.942933 Y243.339057 Z-0.125000 I-0.355002 J0.707284
G02 X16.583738 Y243.348848 Z-0.125000 I-0.152942 J0.982775
G02 X16.153508 Y243.479231 Z-0.125000 I0.546507 J2.578348
G03 X15.762551 Y243.578959 Z-0.125000 I-0.577227 J-1.446686
G03 X15.461212 Y243.532563 Z-0.125000 I-0.067732 J-0.561870
G03 X15.233928 Y243.401111 Z-0.125000 I0.549081 J-1.211598
G03 X14.987077 Y243.219807 Z-0.125000 I8.839844 J-12.294429
G03 X14.723764 Y243.019039 Z-0.125000 I12.678866 J-16.901709
G03 X14.477144 Y242.824983 Z-0.125000 I13.415677 J-17.303299
G03 X14.251737 Y242.644369 Z-0.125000 I53.818073 J-67.396173
G03 X14.391904 Y242.668679 Z-0.125000 I-0.225366 J1.715609
G03 X14.589395 Y242.737205 Z-0.125000 I-0.182730 J0.845479
G03 X14.791287 Y242.849214 Z-0.125000 I-0.984401 J2.012296
G02 X15.110873 Y243.019273 Z-0.125000 I1.389061 J-2.225093
G02 X15.473676 Y243.151562 Z-0.125000 I1.121245 J-2.511377
G02 X15.778715 Y243.217969 Z-0.125000 I0.662385 J-2.308845
G02 X16.028086 Y243.220813 Z-0.125000 I0.134920 J-0.896177
G02 X16.234672 Y243.163786 Z-0.125000 I-0.095147 J-0.747382
G02 X16.468713 Y243.048750 Z-0.125000 I-1.170122 J-2.676226
G03 X16.767653 Y242.922455 Z-0.125000 I0.767868 J1.400589
G03 X17.068650 Y242.866121 Z-0.125000 I0.398874 J1.298932
G03 X17.379344 Y242.850632 Z-0.125000 I0.502887 J6.963348
G02 X17.164447 Y242.733703 Z-0.125000 I-5.354690 J9.585150
G02 X16.943228 Y242.632000 Z-0.125000 I-1.013693 J1.913487
G02 X16.715198 Y242.559878 Z-0.125000 I-0.640831 J1.629579
G02 X16.449134 Y242.513817 Z-0.125000 I-0.478490 J1.972493
G02 X16.168344 Y242.499491 Z-0.125000 I-0.273608 J2.603809
G02 X15.863024 Y242.513653 Z-0.125000 I0.009616 J3.505598
G02 X15.568761 Y242.548572 Z-0.125000 I0.472893 J5.242473
G03 X15.270215 Y242.582525 Z-0.125000 I-0.663165 J-4.501652
G03 X14.956320 Y242.593286 Z-0.125000 I-0.274260 J-3.416702
G03 X14.681434 Y242.575472 Z-0.125000 I0.029978 J-2.592462
G03 X14.421054 Y242.525619 Z-0.125000 I0.218754 J-1.847421
G03 X14.257242 Y242.467175 Z-0.125000 I0.272768 J-1.023342
G03 X14.124437 Y242.382739 Z-0.125000 I0.229945 J-0.508325
G03 X14.020057 Y242.256134 Z-0.125000 I0.309018 J-0.361101
G03 X13.942023 Y242.072636 Z-0.125000 I0.763765 J-0.433142
G03 X13.920873 Y241.865417 Z-0.125000 I0.538256 J-0.159625
G03 X13.983754 Y241.696309 Z-0.125000 I0.335836 J0.028632
G03 X14.118773 Y241.598341 Z-0.125000 I0.217244 J0.157380
G03 X14.299094 Y241.584682 Z-0.125000 I0.118585 J0.368413
G03 X14.546010 Y241.662106 Z-0.125000 I-0.144165 J0.892201
G03 X14.764061 Y241.793304 Z-0.125000 I-0.585267 J1.219510
G02 X15.016327 Y241.977064 Z-0.125000 I14.696385 J-19.910235
G02 X15.277850 Y242.145958 Z-0.125000 I1.824186 J-2.537718
G02 X15.604499 Y242.276865 Z-0.125000 I0.619732 J-1.073407
G02 X15.969151 Y242.322228 Z-0.125000 I0.378960 J-1.557995
G03 X16.350067 Y242.329339 Z-0.125000 I-0.174465 J19.550742
G03 X16.716509 Y242.348091 Z-0.125000 I-0.227716 J8.039835
G02 X16.998606 Y242.352295 Z-0.125000 I0.176615 J-2.384288
G02 X17.262909 Y242.315263 Z-0.125000 I-0.061750 J-1.402434
G02 X17.525965 Y242.233714 Z-0.125000 I-0.483454 J-2.024550
G02 X17.790110 Y242.129223 Z-0.125000 I-5.258597 J-13.679429
G03 X18.186873 Y242.007844 Z-0.125000 I0.874659 J2.149917
G03 X18.622584 Y241.946311 Z-0.125000 I0.675796 J3.211857
G03 X19.170867 Y241.911494 Z-0.125000 I2.050809 J27.961329
G02 X18.960958 Y241.800990 Z-0.125000 I-5.047086 J9.332604
G02 X18.681013 Y241.671124 Z-0.125000 I-1.802280 J3.518400
G02 X18.366967 Y241.555568 Z-0.125000 I-1.509723 J3.618475
G02 X17.969319 Y241.465798 Z-0.125000 I-0.708364 J2.212180
G02 X17.579592 Y241.448007 Z-0.125000 I-0.295058 J2.185935
G02 X17.154059 Y241.485802 Z-0.125000 I0.200875 J4.676075
G02 X16.710957 Y241.557890 Z-0.125000 I1.114842 J8.250378
G02 X16.317693 Y241.634227 Z-0.125000 I10.758151 J56.473949
G03 X15.954441 Y241.701424 Z-0.125000 I-2.895471 J-14.636861
G03 X15.651795 Y241.737839 Z-0.125000 I-0.509472 J-2.958398
G03 X15.324250 Y241.740823 Z-0.125000 I-0.188678 J-2.732442
G03 X15.037926 Y241.703051 Z-0.125000 I0.091117 J-1.794837
G03 X14.772806 Y241.622589 Z-0.125000 I0.350487 J-1.631847
G02 X14.573746 Y241.549122 Z-0.125000 I-1.617783 J4.076961
G02 X14.372132 Y241.492632 Z-0.125000 I-0.602905 J1.763769
G02 X14.190362 Y241.455091 Z-0.125000 I-1.499831 J6.803244
G03 X14.427618 Y241.326199 Z-0.125000 I2.613211 J4.527433
G03 X14.748666 Y241.197877 Z-0.125000 I0.859174 J1.683783
G03 X15.115715 Y241.115447 Z-0.125000 I0.791363 J2.665409
G03 X15.583415 Y241.059127 Z-0.125000 I1.077535 J6.978064
G03 X16.017119 Y241.038622 Z-0.125000 I0.477535 J5.503582
G03 X16.573524 Y241.067091 Z-0.125000 I0.037448 J4.719617
G03 X17.210275 Y241.163222 Z-0.125000 I-0.892908 J8.071393
G03 X17.763993 Y241.276962 Z-0.125000 I-4.065839 J21.198282
G03 X18.215328 Y241.383111 Z-0.125000 I-3.251071 J14.835836
G03 X18.507008 Y241.457948 Z-0.125000 I-7.488213 J29.791177
G02 X18.832197 Y241.540662 Z-0.125000 I6.172146 J-23.585152
G02 X19.196097 Y241.619703 Z-0.125000 I1.577488 J-6.385505
G02 X19.564785 Y241.668996 Z-0.125000 I0.651960 J-3.472865
G02 X19.921121 Y241.645729 Z-0.125000 I0.098753 J-1.227878
G02 X20.262518 Y241.518959 Z-0.125000 I-0.263715 J-1.233277
G02 X20.551154 Y241.342367 Z-0.125000 I-1.670036 J-3.053823
G02 X20.815528 Y241.161195 Z-0.125000 I-27.297469 J-40.117073
G03 X21.051573 Y241.038466 Z-0.125000 I0.607906 J0.880829
G03 X21.315582 Y240.990786 Z-0.125000 I0.265824 J0.717131
G03 X21.594814 Y241.066951 Z-0.125000 I0.001294 J0.545187
G03 X21.844420 Y241.283345 Z-0.125000 I-0.472044 J0.796648
G02 X22.067380 Y241.509532 Z-0.125000 I1.227444 J-0.986947
G02 X22.297747 Y241.627790 Z-0.125000 I0.382849 J-0.462286
G02 X22.537697 Y241.655099 Z-0.125000 I0.214457 J-0.816505
G02 X22.806311 Y241.623994 Z-0.125000 I-0.048009 J-1.589967
G02 X23.121815 Y241.525509 Z-0.125000 I-0.322482 J-1.587705
G02 X23.410241 Y241.371739 Z-0.125000 I-0.758180 J-1.769502
G02 X23.701062 Y241.176888 Z-0.125000 I-6.135223 J-9.471456
G03 X23.518487 Y241.139436 Z-0.125000 I39.353831 J-192.306653
G03 X23.272068 Y241.088362 Z-0.125000 I16.203480 J-78.799039
G03 X22.996558 Y241.027246 Z-0.125000 I2.338871 J-11.195069
G03 X22.701911 Y240.934245 Z-0.125000 I0.470654 J-2.004389
G03 X22.453287 Y240.807177 Z-0.125000 I0.567421 J-1.416985
G03 X22.224777 Y240.653465 Z-0.125000 I2.622475 J-4.145332
G02 X21.985312 Y240.485228 Z-0.125000 I-10.928024 J15.300148
G02 X21.726279 Y240.333846 Z-0.125000 I-1.126487 J1.630242
G02 X21.455207 Y240.237138 Z-0.125000 I-0.571451 J1.173520
G02 X21.172496 Y240.215686 Z-0.125000 I-0.209340 J0.885244
G02 X20.892304 Y240.280134 Z-0.125000 I0.080232 J0.990130
G02 X20.581959 Y240.443712 Z-0.125000 I0.560567 J1.439710
G02 X20.297237 Y240.673798 Z-0.125000 I1.275784 J1.869934
G02 X20.036422 Y240.933777 Z-0.125000 I5.476318 J5.754755
G03 X19.789648 Y241.183228 Z-0.125000 I-7.865919 J-7.534715
G03 X19.563036 Y241.344826 Z-0.125000 I-0.629680 J-0.643318
G03 X19.305269 Y241.417239 Z-0.125000 I-0.316860 J-0.632933
G03 X18.942631 Y241.401728 Z-0.125000 I-0.120253 J-1.435382
G03 X18.561167 Y241.312251 Z-0.125000 I0.536895 J-3.146805
G02 X18.066746 Y241.170751 Z-0.125000 I-5.663050 J18.852973
G02 X17.570058 Y241.048501 Z-0.125000 I-2.765379 J10.165323
G02 X17.086570 Y240.952845 Z-0.125000 I-2.442330 J11.074955
G02 X16.623981 Y240.885298 Z-0.125000 I-1.411952 J8.051844
G02 X16.152752 Y240.849538 Z-0.125000 I-0.675174 J5.774398
G02 X15.645268 Y240.851425 Z-0.125000 I-0.229484 J6.523666
G02 X15.161894 Y240.897959 Z-0.125000 I0.193839 J4.547391
G02 X14.706773 Y241.001453 Z-0.125000 I0.468860 J3.114274
G02 X14.402809 Y241.130786 Z-0.125000 I0.464483 J1.513510
G02 X14.137792 Y241.325349 Z-0.125000 I0.632780 J1.139694
G02 X13.985996 Y241.487091 Z-0.125000 I1.331693 J1.401904
G02 X13.865827 Y241.655370 Z-0.125000 I1.043939 J0.872533
G02 X13.802644 Y241.812707 Z-0.125000 I0.449150 J0.271724
G01 X13.802644 Y241.812707 Z-0.125000
G01 X13.802644 Y241.812710 Z-0.125000
G00 Z5.000000

(End cutting path id: _119523552)


(Start cutting path id: _119523552)
(Change tool to Default tool)

G00 Z5.000000
G00 X34.247153 Y241.812710

G01 Z-0.125000 F100.0(Penetrate)
G03 X34.260482 Y241.994819 Z-0.125000 I-0.609900 J0.136182 F400.000000
G03 X34.207493 Y242.234419 Z-0.125000 I-0.852117 J-0.062794
G03 X34.094390 Y242.451217 Z-0.125000 I-0.964003 J-0.365016
G03 X33.880563 Y242.706821 Z-0.125000 I-1.421812 J-0.972182
G03 X33.616090 Y242.936005 Z-0.125000 I-1.941765 J-1.973558
G03 X33.318560 Y243.159944 Z-0.125000 I-20.167977 J-26.486069
G03 X33.044095 Y243.362960 Z-0.125000 I-36.830982 J-49.506280
G03 X32.739291 Y243.573969 Z-0.125000 I-3.844153 J-5.227253
G03 X32.394273 Y243.784328 Z-0.125000 I-3.760699 J-5.779940
G03 X32.006021 Y243.985393 Z-0.125000 I-2.682627 J-4.704696
G03 X31.616484 Y244.146447 Z-0.125000 I-1.972280 J-4.218697
G03 X31.284768 Y244.254577 Z-0.125000 I-1.872814 J-5.182435
G03 X30.964293 Y244.337800 Z-0.125000 I-1.576300 J-5.411386
G03 X30.621588 Y244.410686 Z-0.125000 I-2.578279 J-11.280742
G03 X30.238117 Y244.480093 Z-0.125000 I-2.451170 J-12.448558
G03 X29.861869 Y244.519053 Z-0.125000 I-0.509610 J-3.085208
G03 X29.509544 Y244.502971 Z-0.125000 I-0.085417 J-1.996033
G03 X29.269645 Y244.451189 Z-0.125000 I0.208819 J-1.549043
G03 X29.048754 Y244.361256 Z-0.125000 I0.359582 J-1.199423
G03 X28.879820 Y244.249189 Z-0.125000 I0.453982 J-0.867722
G03 X28.730077 Y244.097315 Z-0.125000 I0.659250 J-0.799754
G03 X28.622442 Y243.913711 Z-0.125000 I0.574769 J-0.460302
G03 X28.571569 Y243.696657 Z-0.125000 I0.669718 J-0.271457
G03 X28.593299 Y243.539298 Z-0.125000 I0.375383 J-0.028341
G03 X28.666494 Y243.427810 Z-0.125000 I0.273163 J0.099566
G02 X28.793028 Y243.283397 Z-0.125000 I-0.712106 J-0.751584
G02 X28.909991 Y243.088531 Z-0.125000 I-1.073950 J-0.777145
G02 X29.052114 Y242.790310 Z-0.125000 I-14.796234 J-7.234400
G02 X29.046775 Y243.024391 Z-0.125000 I4.676237 J0.223760
G02 X29.077965 Y243.220991 Z-0.125000 I0.644147 J-0.001420
G02 X29.160736 Y243.394509 Z-0.125000 I0.691986 J-0.223587
G03 X29.240257 Y243.575585 Z-0.125000 I-0.507818 J0.331012
G03 X29.259748 Y243.794086 Z-0.125000 I-0.662978 J0.169259
G02 X29.249683 Y243.998512 Z-0.125000 I4.470619 J0.322566
G02 X29.271401 Y244.158725 Z-0.125000 I0.504542 J0.013187
G02 X29.355918 Y244.276691 Z-0.125000 I0.216682 J-0.065983
G02 X29.525129 Y244.359953 Z-0.125000 I0.333446 J-0.464084
G02 X29.797305 Y244.411787 Z-0.125000 I0.386042 J-1.286566
G02 X30.040568 Y244.408943 Z-0.125000 I0.106954 J-1.257050
G02 X30.340032 Y244.366341 Z-0.125000 I-0.494434 J-4.549367
G02 X30.646144 Y244.306415 Z-0.125000 I-1.425792 J-8.094935
G02 X31.116332 Y244.187112 Z-0.125000 I-1.412275 J-6.552120
G02 X31.602097 Y244.031929 Z-0.125000 I-2.917068 J-9.969103
G02 X32.190987 Y243.825302 Z-0.125000 I-27.700576 J-79.889701
G02 X31.891647 Y243.673184 Z-0.125000 I-3.463642 J6.445192
G02 X31.646385 Y243.602782 Z-0.125000 I-0.330574 J0.689220
G02 X31.414383 Y243.632519 Z-0.125000 I-0.055058 J0.490337
G02 X31.207741 Y243.742094 Z-0.125000 I0.348052 J0.906006
G02 X31.009533 Y243.896019 Z-0.125000 I1.375415 J1.975699
G03 X30.816556 Y244.040818 Z-0.125000 I-1.148370 J-1.329462
G03 X30.612666 Y244.146696 Z-0.125000 I-0.650716 J-1.003836
G03 X30.410472 Y244.219580 Z-0.125000 I-1.090310 J-2.707839
G03 X30.192596 Y244.280507 Z-0.125000 I-0.940490 J-2.943153
G03 X30.012211 Y244.297001 Z-0.125000 I-0.146719 J-0.609947
G03 X29.852410 Y244.253989 Z-0.125000 I0.021276 J-0.397404
G03 X29.716112 Y244.156283 Z-0.125000 I0.256017 J-0.501057
G03 X29.598524 Y244.019457 Z-0.125000 I0.704875 J-0.724708
G03 X29.479957 Y243.848330 Z-0.125000 I5.776157 J-4.128697
G02 X29.593460 Y243.893313 Z-0.125000 I1.134604 J-2.697202
G02 X29.729348 Y243.931116 Z-0.125000 I0.289446 J-0.777312
G02 X29.873496 Y243.944197 Z-0.125000 I0.140039 J-0.742411
G02 X30.059368 Y243.916991 Z-0.125000 I-0.003663 J-0.673560
G02 X30.234172 Y243.843635 Z-0.125000 I-0.238309 J-0.812835
G02 X30.443667 Y243.709721 Z-0.125000 I-1.023059 J-1.831291
G02 X30.645557 Y243.557823 Z-0.125000 I-4.416725 J-6.080478
G03 X30.873596 Y243.413737 Z-0.125000 I0.844372 J1.083858
G03 X31.106907 Y243.339057 Z-0.125000 I0.355003 J0.707288
G03 X31.466102 Y243.348848 Z-0.125000 I0.152941 J0.982774
G03 X31.896313 Y243.479228 Z-0.125000 I-0.546624 J2.578655
G02 X32.287289 Y243.578959 Z-0.125000 I0.577262 J-1.446811
G02 X32.588631 Y243.532560 Z-0.125000 I0.067731 J-0.561862
G02 X32.815889 Y243.401111 Z-0.125000 I-0.548886 J-1.211125
G02 X33.062770 Y243.219798 Z-0.125000 I-8.813070 J-12.258885
G02 X33.326053 Y243.019039 Z-0.125000 I-12.618747 J-16.821706
G02 X33.572686 Y242.824979 Z-0.125000 I-13.324053 J-17.187380
G02 X33.798078 Y242.644369 Z-0.125000 I-54.287098 J-67.978737
G02 X33.657942 Y242.668677 Z-0.125000 I0.225437 J1.715737
G02 X33.460445 Y242.737205 Z-0.125000 I0.182751 J0.845548
G02 X33.258553 Y242.849214 Z-0.125000 I0.984445 J2.012372
G03 X32.938966 Y243.019273 Z-0.125000 I-1.389079 J-2.225131
G03 X32.576165 Y243.151562 Z-0.125000 I-1.121232 J-2.511334
G03 X32.271124 Y243.217969 Z-0.125000 I-0.662381 J-2.308825
G03 X32.021753 Y243.220813 Z-0.125000 I-0.134920 J-0.896170
G03 X31.815168 Y243.163786 Z-0.125000 I0.095145 J-0.747368
G03 X31.581125 Y243.048750 Z-0.125000 I1.170092 J-2.676181
G02 X31.282186 Y242.922455 Z-0.125000 I-0.767869 J1.400596
G02 X30.981188 Y242.866121 Z-0.125000 I-0.398873 J1.298926
G02 X30.670497 Y242.850632 Z-0.125000 I-0.502887 J6.963360
G03 X30.885377 Y242.733707 Z-0.125000 I5.360958 J9.596293
G03 X31.106613 Y242.632000 Z-0.125000 I1.013055 J1.912141
G03 X31.334640 Y242.559878 Z-0.125000 I0.640821 J1.629537
G03 X31.600705 Y242.513817 Z-0.125000 I0.478488 J1.972476
G03 X31.881478 Y242.499491 Z-0.125000 I0.273592 J2.603350
G03 X32.186815 Y242.513653 Z-0.125000 I-0.009618 J3.505805
G03 X32.481079 Y242.548572 Z-0.125000 I-0.472896 J5.242519
G02 X32.779626 Y242.582525 Z-0.125000 I0.663169 J-4.501692
G02 X33.093509 Y242.593287 Z-0.125000 I0.274256 J-3.416250
G02 X33.368384 Y242.575472 Z-0.125000 I-0.029971 J-2.591984
G02 X33.628771 Y242.525618 Z-0.125000 I-0.218688 J-1.847111
G02 X33.792598 Y242.467175 Z-0.125000 I-0.272959 J-1.024008
G02 X33.925403 Y242.382739 Z-0.125000 I-0.229949 J-0.508333
G02 X34.029783 Y242.256134 Z-0.125000 I-0.309016 J-0.361100
G02 X34.107807 Y242.072641 Z-0.125000 I-0.764627 J-0.433468
G02 X34.128967 Y241.865417 Z-0.125000 I-0.538144 J-0.159642
G02 X34.066092 Y241.696316 Z-0.125000 I-0.335713 J0.028584
G02 X33.931045 Y241.598341 Z-0.125000 I-0.217273 J0.157426
G02 X33.750751 Y241.584680 Z-0.125000 I-0.118572 J0.368306
G02 X33.503831 Y241.662106 Z-0.125000 I0.144173 J0.892226
G02 X33.285779 Y241.793304 Z-0.125000 I0.585249 J1.219484
G03 X33.033513 Y241.977064 Z-0.125000 I-14.691971 J-19.904196
G03 X32.771994 Y242.145954 Z-0.125000 I-1.824009 J-2.537485
G03 X32.445317 Y242.276865 Z-0.125000 I-0.619737 J-1.073441
G03 X32.080696 Y242.322228 Z-0.125000 I-0.378921 J-1.557659
G02 X31.699773 Y242.329339 Z-0.125000 I0.174394 J19.548402
G02 X31.333330 Y242.348091 Z-0.125000 I0.227714 J8.039821
G03 X31.051235 Y242.352295 Z-0.125000 I-0.176613 J-2.384253
G03 X30.786931 Y242.315263 Z-0.125000 I0.061750 J-1.402448
G03 X30.523874 Y242.233714 Z-0.125000 I0.483449 J-2.024538
G03 X30.259730 Y242.129224 Z-0.125000 I5.258744 J-13.679767
G02 X29.862966 Y242.007844 Z-0.125000 I-0.874655 J2.149905
G02 X29.427240 Y241.946309 Z-0.125000 I-0.675794 J3.211829
G02 X28.878973 Y241.911494 Z-0.125000 I-2.051489 J27.972369
G03 X29.088866 Y241.800993 Z-0.125000 I5.025801 J9.291714
G03 X29.368826 Y241.671124 Z-0.125000 I1.802960 J3.519963
G03 X29.682853 Y241.555570 Z-0.125000 I1.508796 J3.615807
G03 X30.080520 Y241.465798 Z-0.125000 I0.708421 J2.212456
G03 X30.470248 Y241.448007 Z-0.125000 I0.295059 J2.185957
G03 X30.895781 Y241.485802 Z-0.125000 I-0.200876 J4.676090
G03 X31.338854 Y241.557889 Z-0.125000 I-1.115006 J8.250945
G03 X31.732124 Y241.634227 Z-0.125000 I-10.764301 J56.505275
G02 X32.095404 Y241.701425 Z-0.125000 I2.897094 J-14.646427
G02 X32.398044 Y241.737839 Z-0.125000 I0.509471 J-2.958453
G02 X32.725590 Y241.740822 Z-0.125000 I0.188677 J-2.732443
G02 X33.011915 Y241.703051 Z-0.125000 I-0.091119 J-1.794867
G02 X33.277020 Y241.622592 Z-0.125000 I-0.350614 J-1.632218
G03 X33.476094 Y241.549122 Z-0.125000 I1.618525 J4.079068
G03 X33.677693 Y241.492633 Z-0.125000 I0.602552 J1.762433
G03 X33.859479 Y241.455091 Z-0.125000 I1.501083 J6.809658
G02 X33.622225 Y241.326203 Z-0.125000 I-2.612598 J4.526378
G02 X33.301150 Y241.197877 Z-0.125000 I-0.859144 J1.683774
G02 X32.934139 Y241.115450 Z-0.125000 I-0.791191 J2.664541
G02 X32.466402 Y241.059127 Z-0.125000 I-1.077505 J6.977859
G02 X32.032725 Y241.038622 Z-0.125000 I-0.477504 J5.502831
G02 X31.476315 Y241.067091 Z-0.125000 I-0.037450 J4.719632
G02 X30.839573 Y241.163220 Z-0.125000 I0.892921 J8.071501
G02 X30.285823 Y241.276962 Z-0.125000 I4.068013 J21.209835
G02 X29.834515 Y241.383109 Z-0.125000 I3.252043 J14.839229
G02 X29.542833 Y241.457948 Z-0.125000 I7.491932 J29.805229
G03 X29.217609 Y241.540667 Z-0.125000 I-6.184783 J-23.636146
G03 X28.853743 Y241.619703 Z-0.125000 I-1.577804 J-6.386780
G03 X28.485036 Y241.668999 Z-0.125000 I-0.651996 J-3.473060
G03 X28.128719 Y241.645729 Z-0.125000 I-0.098741 J-1.227729
G03 X27.787326 Y241.518962 Z-0.125000 I0.263720 J-1.233297
G03 X27.498662 Y241.342367 Z-0.125000 I1.671000 J-3.055650
G03 X27.234315 Y241.161198 Z-0.125000 I27.486781 J-40.390136
G02 X26.998267 Y241.038466 Z-0.125000 I-0.607894 J0.880785
G02 X26.734225 Y240.990786 Z-0.125000 I-0.265858 J0.717321
G02 X26.455026 Y241.066951 Z-0.125000 I-0.001294 J0.545069
G02 X26.205405 Y241.283351 Z-0.125000 I0.472110 J0.796759
G03 X25.982460 Y241.509532 Z-0.125000 I-1.228027 J-0.987484
G03 X25.752097 Y241.627787 Z-0.125000 I-0.382836 J-0.462271
G03 X25.512120 Y241.655099 Z-0.125000 I-0.214485 J-0.816627
G03 X25.243535 Y241.623997 Z-0.125000 I0.048010 J-1.589801
G03 X24.928024 Y241.525509 Z-0.125000 I0.322497 J-1.587759
G03 X24.639586 Y241.371738 Z-0.125000 I0.757874 J-1.768996
G03 X24.348755 Y241.176888 Z-0.125000 I6.149865 J-9.493739
G02 X24.531362 Y241.139432 Z-0.125000 I-37.940600 J-185.434244
G02 X24.777749 Y241.088362 Z-0.125000 I-16.059798 J-78.100346
G02 X25.053275 Y241.027245 Z-0.125000 I-2.340764 J-11.204135
G02 X25.347906 Y240.934245 Z-0.125000 I-0.470393 J-2.003445
G02 X25.596556 Y240.807172 Z-0.125000 I-0.567313 J-1.416901
G02 X25.825063 Y240.653465 Z-0.125000 I-2.621767 J-4.144340
G03 X26.064532 Y240.485223 Z-0.125000 I10.935736 J15.310917
G03 X26.323538 Y240.333846 Z-0.125000 I1.126716 J1.630534
G03 X26.594638 Y240.237137 Z-0.125000 I0.571563 J1.173907
G03 X26.877344 Y240.215686 Z-0.125000 I0.209335 J0.885248
G03 X27.157540 Y240.280135 Z-0.125000 I-0.080232 J0.990120
G03 X27.467858 Y240.443712 Z-0.125000 I-0.560416 J1.439294
G03 X27.752578 Y240.673794 Z-0.125000 I-1.275842 J1.870022
G03 X28.013418 Y240.933777 Z-0.125000 I-5.483845 J5.762780
G02 X28.260192 Y241.183228 Z-0.125000 I7.866013 J-7.534805
G02 X28.486803 Y241.344826 Z-0.125000 I0.629681 J-0.643318
G02 X28.744570 Y241.417239 Z-0.125000 I0.316859 J-0.632929
G02 X29.107209 Y241.401728 Z-0.125000 I0.120253 J-1.435393
G02 X29.488654 Y241.312254 Z-0.125000 I-0.537029 J-3.147286
G03 X29.983094 Y241.170751 Z-0.125000 I5.665289 J18.861075
G03 X30.479781 Y241.048501 Z-0.125000 I2.765361 J10.165232
G03 X30.963269 Y240.952845 Z-0.125000 I2.442320 J11.074893
G03 X31.425860 Y240.885298 Z-0.125000 I1.411990 J8.052128
G03 X31.897086 Y240.849538 Z-0.125000 I0.675170 J5.774346
G03 X32.404573 Y240.851425 Z-0.125000 I0.229484 J6.523722
G03 X32.887946 Y240.897959 Z-0.125000 I-0.193839 J4.547374
G03 X33.343048 Y241.001452 Z-0.125000 I-0.468803 J3.113890
G03 X33.647030 Y241.130786 Z-0.125000 I-0.464664 J1.514034
G03 X33.912049 Y241.325353 Z-0.125000 I-0.632758 J1.139651
G03 X34.063819 Y241.487091 Z-0.125000 I-1.330259 J1.400355
G03 X34.184009 Y241.655376 Z-0.125000 I-1.042973 J0.871962
G03 X34.247173 Y241.812707 Z-0.125000 I-0.448872 J0.271553
G01 X34.247173 Y241.812707 Z-0.125000
G01 X34.247153 Y241.812710 Z-0.125000
G00 Z5.000000

(End cutting path id: _119523552)


(Start cutting path id: _119523552)
(Change tool to Default tool)

G00 Z5.000000
G00 X12.329873 Y235.457236

G01 Z-0.125000 F100.0(Penetrate)
G02 X12.379268 Y235.462767 Z-0.125000 I0.256563 J-2.067703 F400.000000
G03 X12.473660 Y235.485370 Z-0.125000 I-0.035736 J0.357631
G03 X12.556989 Y235.528881 Z-0.125000 I-0.153171 J0.394894
G03 X12.675425 Y235.620373 Z-0.125000 I-0.639955 J0.950826
G03 X12.786794 Y235.725538 Z-0.125000 I-1.512209 J1.712956
G02 X12.933529 Y235.871870 Z-0.125000 I11.759180 J-11.644843
G02 X13.097796 Y236.029039 Z-0.125000 I5.569309 J-5.656388
G02 X13.212037 Y236.125898 Z-0.125000 I1.114793 J-1.199050
G02 X13.312146 Y236.182495 Z-0.125000 I0.246901 J-0.319890
G01 X13.330758 Y236.182541 Z-0.125000
G01 X13.335698 Y236.171255 Z-0.125000
G02 X13.300773 Y236.117629 Z-0.125000 I-0.150854 J0.060062
G02 X13.237168 Y236.057531 Z-0.125000 I-0.813853 J0.797641
G03 X13.085608 Y235.919987 Z-0.125000 I3.679821 J-4.207049
G03 X12.923984 Y235.763598 Z-0.125000 I5.587255 J-5.936014
G02 X12.781286 Y235.625948 Z-0.125000 I-4.558051 J4.582429
G02 X12.651893 Y235.510150 Z-0.125000 I-2.674505 J2.858314
G03 X12.624826 Y235.480076 Z-0.125000 I0.101352 J-0.118436
G01 X12.630638 Y235.465291 Z-0.125000
G03 X12.696649 Y235.463352 Z-0.125000 I0.038042 J0.170506
G03 X12.803585 Y235.485364 Z-0.125000 I-0.207059 J1.276638
G03 X12.966630 Y235.538572 Z-0.125000 I-0.296784 J1.185859
G03 X13.104497 Y235.607633 Z-0.125000 I-0.367537 J0.905857
G03 X13.227123 Y235.690909 Z-0.125000 I-0.720249 J1.192513
G03 X13.344055 Y235.785964 Z-0.125000 I-1.414276 J1.859214
G02 X13.457678 Y235.880235 Z-0.125000 I2.175094 J-2.506002
G02 X13.581268 Y235.970053 Z-0.125000 I1.124941 J-1.417991
G02 X13.678207 Y236.022780 Z-0.125000 I0.347059 J-0.522593
G02 X13.780184 Y236.050210 Z-0.125000 I0.143291 J-0.329439
G02 X13.821643 Y236.048078 Z-0.125000 I0.014393 J-0.124322
G01 X13.834710 Y236.032907 Z-0.125000
G01 X13.822348 Y236.010129 Z-0.125000
G02 X13.769933 Y235.987367 Z-0.125000 I-0.142820 J0.257154
G03 X13.670550 Y235.948964 Z-0.125000 I0.290749 J-0.900233
G03 X13.592733 Y235.906550 Z-0.125000 I0.246764 J-0.545322
G03 X13.483285 Y235.828955 Z-0.125000 I0.835001 J-1.293754
G03 X13.359416 Y235.730103 Z-0.125000 I3.724288 J-4.793839
G02 X13.220543 Y235.624355 Z-0.125000 I-1.545804 J1.885975
G02 X13.086588 Y235.540269 Z-0.125000 I-0.834058 J1.179961
G02 X13.001443 Y235.496521 Z-0.125000 I-0.743951 J1.343215
G02 X12.904885 Y235.453324 Z-0.125000 I-1.002456 J2.111258
G01 X12.899447 Y235.447562 Z-0.125000
G01 X12.901903 Y235.444867 Z-0.125000
G03 X13.013999 Y235.479327 Z-0.125000 I-0.176503 J0.773702
G03 X13.142884 Y235.534533 Z-0.125000 I-0.778372 J1.995253
G03 X13.300354 Y235.615547 Z-0.125000 I-0.994463 J2.126524
G03 X13.427165 Y235.689759 Z-0.125000 I-2.132740 J3.789811
G02 X13.555413 Y235.750924 Z-0.125000 I0.364836 J-0.599934
G02 X13.710594 Y235.790177 Z-0.125000 I0.281758 J-0.787509
G02 X13.897966 Y235.801242 Z-0.125000 I0.153044 J-0.999638
G02 X14.083389 Y235.779155 Z-0.125000 I-0.037474 J-1.103979
G03 X14.219109 Y235.751252 Z-0.125000 I34.009328 J165.073336
G03 X14.344387 Y235.728225 Z-0.125000 I0.621901 J3.031121
G02 X14.414994 Y235.714263 Z-0.125000 I-0.169767 J-1.044042
G02 X14.496113 Y235.688919 Z-0.125000 I-0.132245 J-0.565779
G01 X14.504011 Y235.680366 Z-0.125000
G01 X14.499894 Y235.674733 Z-0.125000
G02 X14.423544 Y235.678870 Z-0.125000 I0.001238 J0.729473
G02 X14.349584 Y235.688380 Z-0.125000 I0.180310 J1.694703
G02 X14.228900 Y235.707965 Z-0.125000 I0.819827 J5.433463
G02 X14.102194 Y235.730149 Z-0.125000 I8.006434 J46.101793
G03 X13.969602 Y235.749358 Z-0.125000 I-0.377712 J-2.139987
G03 X13.845375 Y235.757176 Z-0.125000 I-0.139548 J-1.226546
G03 X13.741670 Y235.751334 Z-0.125000 I-0.009391 J-0.756639
G03 X13.640492 Y235.730491 Z-0.125000 I0.082480 J-0.656397
G03 X13.533182 Y235.689818 Z-0.125000 I0.196912 J-0.681421
G03 X13.427941 Y235.633175 Z-0.125000 I0.509437 J-1.072604
G02 X13.305836 Y235.562523 Z-0.125000 I-1.867185 J3.086143
G02 X13.168613 Y235.490980 Z-0.125000 I-1.521439 J2.750818
G03 X13.093248 Y235.449728 Z-0.125000 I0.422064 J-0.860572
G03 X13.070376 Y235.417826 Z-0.125000 I0.026026 J-0.042808
G01 X13.080644 Y235.399433 Z-0.125000
G03 X13.133909 Y235.387258 Z-0.125000 I0.082498 J0.238309
G03 X13.249777 Y235.389338 Z-0.125000 I0.050225 J0.430358
G03 X13.360489 Y235.415488 Z-0.125000 I-0.107398 J0.702144
G02 X13.472438 Y235.436564 Z-0.125000 I0.139159 J-0.431300
G02 X13.579521 Y235.424094 Z-0.125000 I0.018478 J-0.307338
G02 X13.671275 Y235.385379 Z-0.125000 I-0.133714 J-0.444985
G02 X13.760211 Y235.324969 Z-0.125000 I-0.290197 J-0.522901
G02 X13.803138 Y235.282985 Z-0.125000 I-0.217525 J-0.265351
G01 X13.813891 Y235.254321 Z-0.125000
G01 X13.804069 Y235.247121 Z-0.125000
G02 X13.769554 Y235.262763 Z-0.125000 I0.051601 J0.159754
G03 X13.676493 Y235.312314 Z-0.125000 I-0.548099 J-0.917217
G03 X13.581621 Y235.349422 Z-0.125000 I-0.323559 J-0.687409
G03 X13.462476 Y235.369262 Z-0.125000 I-0.129597 J-0.410585
G03 X13.340163 Y235.358243 Z-0.125000 I-0.012922 J-0.540929
G02 X13.226861 Y235.341011 Z-0.125000 I-0.220183 J1.066603
G02 X13.114801 Y235.341805 Z-0.125000 I-0.052276 J0.530297
G02 X13.047866 Y235.356683 Z-0.125000 I0.036259 J0.321140
G02 X12.991863 Y235.383652 Z-0.125000 I0.080103 J0.237966
G03 X12.955826 Y235.402714 Z-0.125000 I-0.128110 J-0.198600
G03 X12.913636 Y235.414114 Z-0.125000 I-0.062756 J-0.148487
G03 X12.862499 Y235.418902 Z-0.125000 I-0.094823 J-0.737171
G03 X12.811313 Y235.421214 Z-0.125000 I-0.102963 J-1.711633
G03 X12.752046 Y235.421273 Z-0.125000 I-0.030634 J-1.014048
G03 X12.685947 Y235.416523 Z-0.125000 I0.020863 J-0.752627
G03 X12.650543 Y235.402370 Z-0.125000 I0.008421 J-0.072422
G01 X12.644131 Y235.381058 Z-0.125000
G03 X12.685283 Y235.319279 Z-0.125000 I0.143179 J0.050780
G03 X12.770472 Y235.250447 Z-0.125000 I0.648099 J0.714978
G02 X12.903095 Y235.148154 Z-0.125000 I-1.429524 J-1.990505
G02 X13.016215 Y235.048325 Z-0.125000 I-1.500716 J-1.814517
G03 X13.105048 Y234.975789 Z-0.125000 I0.559072 J0.594009
G03 X13.204790 Y234.919701 Z-0.125000 I0.323944 J0.459353
G03 X13.280225 Y234.888505 Z-0.125000 I0.897403 J2.063137
G02 X13.358026 Y234.855063 Z-0.125000 I-0.490750 J-1.248951
G01 X13.377418 Y234.836172 Z-0.125000
G01 X13.372168 Y234.823687 Z-0.125000
G02 X13.297700 Y234.823195 Z-0.125000 I-0.038019 J0.118500
G02 X13.190088 Y234.867285 Z-0.125000 I0.185220 J0.605446
G02 X13.033084 Y234.961992 Z-0.125000 I0.684786 J1.312725
G02 X12.908270 Y235.060552 Z-0.125000 I0.711297 J1.029082
G02 X12.806370 Y235.153122 Z-0.125000 I8.437324 J9.390032
G03 X12.696115 Y235.252590 Z-0.125000 I-5.744806 J-6.256987
G02 X12.621870 Y235.320334 Z-0.125000 I2.318032 J2.615021
G02 X12.558938 Y235.380545 Z-0.125000 I3.220315 J3.428872
G03 X12.527043 Y235.404432 Z-0.125000 I-0.107488 J-0.110285
G03 X12.488475 Y235.417537 Z-0.125000 I-0.054067 J-0.095816
G03 X12.437534 Y235.420877 Z-0.125000 I-0.047444 J-0.333425
G03 X12.376651 Y235.418989 Z-0.125000 I0.014837 J-1.460764
G02 X12.328300 Y235.419974 Z-0.125000 I-0.017367 J0.334606
G02 X12.291346 Y235.431029 Z-0.125000 I0.009035 J0.097492
G01 X12.286391 Y235.438762 Z-0.125000
G01 X12.290537 Y235.445799 Z-0.125000
G02 X12.329893 Y235.457267 Z-0.125000 I0.055210 J-0.116201
G01 X12.329873 Y235.457236 Z-0.125000
G00 Z5.000000

(End cutting path id: _119523552)


(Start cutting path id: _119523552)
(Change tool to Default tool)

G00 Z5.000000
G00 X35.719924 Y235.457236

G01 Z-0.125000 F100.0(Penetrate)
G03 X35.670497 Y235.462769 Z-0.125000 I-0.257564 J-2.077309 F400.000000
G02 X35.576115 Y235.485370 Z-0.125000 I0.035733 J0.357580
G02 X35.492813 Y235.528875 Z-0.125000 I0.153255 J0.394958
G02 X35.374371 Y235.620373 Z-0.125000 I0.640119 J0.951027
G02 X35.263005 Y235.725537 Z-0.125000 I1.512447 J1.713188
G03 X35.116268 Y235.871870 Z-0.125000 I-11.753295 J-11.639002
G03 X34.952001 Y236.029039 Z-0.125000 I-5.569673 J-5.656775
G03 X34.837760 Y236.125898 Z-0.125000 I-1.114745 J-1.198996
G03 X34.737628 Y236.182501 Z-0.125000 I-0.246861 J-0.319836
G01 X34.719040 Y236.182541 Z-0.125000
G01 X34.714096 Y236.171256 Z-0.125000
G03 X34.749001 Y236.117629 Z-0.125000 I0.150547 J0.059815
G03 X34.812633 Y236.057525 Z-0.125000 I0.816822 J0.801039
G02 X34.964190 Y235.919987 Z-0.125000 I-3.677468 J-4.204552
G02 X35.125813 Y235.763599 Z-0.125000 I-5.585725 J-5.934406
G03 X35.268513 Y235.625948 Z-0.125000 I4.555301 J4.579610
G03 X35.397904 Y235.510150 Z-0.125000 I2.675473 J2.859358
G02 X35.424971 Y235.480076 Z-0.125000 I-0.101366 J-0.118449
G01 X35.419151 Y235.465291 Z-0.125000
G02 X35.353148 Y235.463352 Z-0.125000 I-0.038038 J0.170443
G02 X35.246212 Y235.485364 Z-0.125000 I0.207070 J1.276691
G02 X35.083169 Y235.538572 Z-0.125000 I0.296764 J1.185787
G02 X34.945284 Y235.607636 Z-0.125000 I0.367696 J0.906261
G02 X34.822675 Y235.690909 Z-0.125000 I0.718710 J1.190120
G02 X34.705743 Y235.785964 Z-0.125000 I1.414506 J1.859496
G03 X34.592119 Y235.880235 Z-0.125000 I-2.175338 J-2.506308
G03 X34.468515 Y235.970056 Z-0.125000 I-1.127783 J-1.422007
G03 X34.371591 Y236.022780 Z-0.125000 I-0.346923 J-0.522305
G03 X34.269613 Y236.050210 Z-0.125000 I-0.143293 J-0.329447
G03 X34.228154 Y236.048078 Z-0.125000 I-0.014393 J-0.124322
G01 X34.215141 Y236.032922 Z-0.125000
G01 X34.227590 Y236.010129 Z-0.125000
G03 X34.280038 Y235.987364 Z-0.125000 I0.143070 J0.257816
G02 X34.379411 Y235.948964 Z-0.125000 I-0.290738 J-0.900182
G02 X34.457230 Y235.906549 Z-0.125000 I-0.246732 J-0.545269
G02 X34.566677 Y235.828955 Z-0.125000 I-0.835121 J-1.293925
G02 X34.690550 Y235.730097 Z-0.125000 I-3.719773 J-4.788099
G03 X34.829395 Y235.624355 Z-0.125000 I1.547823 J1.888341
G03 X34.963357 Y235.540272 Z-0.125000 I0.835376 J1.182171
G03 X35.048520 Y235.496521 Z-0.125000 I0.741535 J1.338686
G03 X35.145076 Y235.453324 Z-0.125000 I1.002410 J2.111130
G01 X35.150516 Y235.447562 Z-0.125000
G01 X35.148087 Y235.444869 Z-0.125000
G02 X35.035962 Y235.479327 Z-0.125000 I0.176234 J0.773109
G02 X34.907058 Y235.534538 Z-0.125000 I0.776628 J1.991316
G02 X34.749608 Y235.615547 Z-0.125000 I0.995042 J2.127488
G02 X34.622800 Y235.689755 Z-0.125000 I2.133875 J3.791861
G03 X34.494527 Y235.750924 Z-0.125000 I-0.364787 J-0.599886
G03 X34.339362 Y235.790174 Z-0.125000 I-0.281749 J-0.787488
G03 X34.151971 Y235.801242 Z-0.125000 I-0.153068 J-0.999699
G03 X33.966578 Y235.779157 Z-0.125000 I0.037475 J-1.103772
G02 X33.830853 Y235.751252 Z-0.125000 I-33.518094 J162.680069
G02 X33.705574 Y235.728225 Z-0.125000 I-0.621945 J3.031355
G03 X33.634968 Y235.714263 Z-0.125000 I0.169773 J-1.044064
G03 X33.553846 Y235.688917 Z-0.125000 I0.131956 J-0.564828
G01 X33.545950 Y235.680366 Z-0.125000
G01 X33.550111 Y235.674735 Z-0.125000
G03 X33.626394 Y235.678870 Z-0.125000 I-0.001228 J0.728401
G03 X33.700385 Y235.688382 Z-0.125000 I-0.180113 J1.693680
G03 X33.821063 Y235.707965 Z-0.125000 I-0.819657 J5.432600
G03 X33.947767 Y235.730149 Z-0.125000 I-8.010089 J46.122190
G02 X34.080360 Y235.749358 Z-0.125000 I0.377703 J-2.139925
G02 X34.204559 Y235.757176 Z-0.125000 I0.139513 J-1.225910
G02 X34.308268 Y235.751334 Z-0.125000 I0.009392 J-0.756667
G02 X34.409460 Y235.730491 Z-0.125000 I-0.082517 J-0.656683
G02 X34.516757 Y235.689818 Z-0.125000 I-0.196658 J-0.680659
G02 X34.622015 Y235.633170 Z-0.125000 I-0.508362 J-1.070701
G03 X34.744101 Y235.562523 Z-0.125000 I1.864058 J3.080494
G03 X34.881326 Y235.490979 Z-0.125000 I1.521728 J2.751407
G02 X34.956691 Y235.449728 Z-0.125000 I-0.422043 J-0.860530
G02 X34.979573 Y235.417826 Z-0.125000 I-0.026018 J-0.042819
G01 X34.969306 Y235.399433 Z-0.125000
G02 X34.916029 Y235.387255 Z-0.125000 I-0.082515 J0.238357
G02 X34.800173 Y235.389338 Z-0.125000 I-0.050210 J0.430238
G02 X34.689425 Y235.415493 Z-0.125000 I0.107363 J0.702158
G03 X34.577511 Y235.436564 Z-0.125000 I-0.139125 J-0.431197
G03 X34.470411 Y235.424094 Z-0.125000 I-0.018483 J-0.307421
G03 X34.378674 Y235.385379 Z-0.125000 I0.133540 J-0.444470
G03 X34.289738 Y235.324969 Z-0.125000 I0.290180 J-0.522878
G03 X34.246812 Y235.282985 Z-0.125000 I0.217513 J-0.265334
G01 X34.236096 Y235.254352 Z-0.125000
G01 X34.245965 Y235.247121 Z-0.125000
G03 X34.280477 Y235.262763 Z-0.125000 I-0.051539 J0.159601
G02 X34.373541 Y235.312314 Z-0.125000 I0.546652 J-0.914522
G02 X34.468413 Y235.349421 Z-0.125000 I0.323581 J-0.687473
G02 X34.587558 Y235.369262 Z-0.125000 I0.129597 J-0.410582
G02 X34.709836 Y235.358247 Z-0.125000 I0.012921 J-0.540750
G03 X34.823172 Y235.341011 Z-0.125000 I0.220185 J1.066603
G03 X34.935220 Y235.341802 Z-0.125000 I0.052282 J0.530198
G03 X35.002168 Y235.356683 Z-0.125000 I-0.036259 J0.321180
G03 X35.058154 Y235.383648 Z-0.125000 I-0.080047 J0.237796
G02 X35.094207 Y235.402714 Z-0.125000 I0.127888 J-0.198209
G02 X35.136387 Y235.414114 Z-0.125000 I0.062723 J-0.148347
G02 X35.187535 Y235.418902 Z-0.125000 I0.094863 J-0.737701
G02 X35.238707 Y235.421215 Z-0.125000 I0.102868 J-1.708871
G02 X35.297965 Y235.421273 Z-0.125000 I0.030621 J-1.013619
G02 X35.364086 Y235.416524 Z-0.125000 I-0.020890 J-0.753596
G02 X35.399467 Y235.402370 Z-0.125000 I-0.008400 J-0.072291
G01 X35.405890 Y235.381047 Z-0.125000
G02 X35.364750 Y235.319279 Z-0.125000 I-0.143201 J0.050793
G02 X35.279552 Y235.250447 Z-0.125000 I-0.647510 J0.714324
G03 X35.146914 Y235.148154 Z-0.125000 I1.427190 J-1.987708
G03 X35.033793 Y235.048320 Z-0.125000 I1.499987 J-1.813622
G02 X34.944987 Y234.975789 Z-0.125000 I-0.559561 J0.594485
G02 X34.845250 Y234.919705 Z-0.125000 I-0.323890 J0.459275
G02 X34.769786 Y234.888505 Z-0.125000 I-0.894341 J2.056215
G03 X34.692006 Y234.855065 Z-0.125000 I0.489352 J-1.245403
G01 X34.672592 Y234.836172 Z-0.125000
G01 X34.677846 Y234.823685 Z-0.125000
G03 X34.752311 Y234.823195 Z-0.125000 I0.038015 J0.118479
G03 X34.859952 Y234.867290 Z-0.125000 I-0.185139 J0.605372
G03 X35.016951 Y234.961992 Z-0.125000 I-0.684667 J1.312548
G03 X35.141751 Y235.060547 Z-0.125000 I-0.712534 J1.030575
G03 X35.243663 Y235.153122 Z-0.125000 I-8.378134 J9.325529
G02 X35.353903 Y235.252585 Z-0.125000 I5.781856 J-6.297495
G03 X35.428163 Y235.320334 Z-0.125000 I-2.345805 J2.645810
G03 X35.491097 Y235.380545 Z-0.125000 I-3.222376 J3.431109
G02 X35.522992 Y235.404432 Z-0.125000 I0.107493 J-0.110294
G02 X35.561558 Y235.417537 Z-0.125000 I0.054061 J-0.095795
G02 X35.612499 Y235.420877 Z-0.125000 I0.047444 J-0.333433
G02 X35.673384 Y235.418989 Z-0.125000 I-0.014836 J-1.460824
G03 X35.721733 Y235.419974 Z-0.125000 I0.017366 J0.334595
G03 X35.758674 Y235.431030 Z-0.125000 I-0.009027 J0.097404
G01 X35.763643 Y235.438762 Z-0.125000
G01 X35.759540 Y235.445807 Z-0.125000
G03 X35.720142 Y235.457267 Z-0.125000 I-0.055336 J-0.116787
G01 X35.720142 Y235.457267 Z-0.125000
G01 X35.719924 Y235.457236 Z-0.125000
G00 Z5.000000

(End cutting path id: _119523552)


(Start cutting path id: _119523552)
(Change tool to Default tool)

G00 Z5.000000
G00 X19.087004 Y239.358545

G01 Z-0.125000 F100.0(Penetrate)
G03 X19.057518 Y239.318520 Z-0.125000 I1.686865 J-1.273586 F400.000000
G02 X18.990748 Y239.248069 Z-0.125000 I-0.291935 J0.209817
G02 X18.911420 Y239.197667 Z-0.125000 I-0.265126 J0.329657
G02 X18.772960 Y239.140850 Z-0.125000 I-0.503642 J1.030224
G02 X18.626190 Y239.096977 Z-0.125000 I-0.725462 J2.159486
G03 X18.426096 Y239.043071 Z-0.125000 I4.167961 J-15.869424
G03 X18.207843 Y238.979396 Z-0.125000 I2.094607 J-7.585340
G03 X18.066840 Y238.928895 Z-0.125000 I0.482765 J-1.570004
G03 X17.967760 Y238.870481 Z-0.125000 I0.153402 J-0.373433
G01 X17.958426 Y238.854401 Z-0.125000
G01 X17.965742 Y238.844474 Z-0.125000
G03 X18.029640 Y238.847887 Z-0.125000 I0.023459 J0.160624
G03 X18.113495 Y238.872948 Z-0.125000 I-0.285881 J1.109416
G02 X18.308382 Y238.935429 Z-0.125000 I1.798778 J-5.275430
G02 X18.524643 Y238.997200 Z-0.125000 I2.360154 J-7.853406
G03 X18.715192 Y239.051948 Z-0.125000 I-1.697458 J6.266953
G03 X18.880173 Y239.106116 Z-0.125000 I-1.137813 J3.743835
G02 X18.919745 Y239.114518 Z-0.125000 I0.051870 J-0.146901
G01 X18.929647 Y239.102082 Z-0.125000
G02 X18.898333 Y239.043960 Z-0.125000 I-0.166457 J0.052185
G02 X18.825784 Y238.962343 Z-0.125000 I-1.005975 J0.821146
G02 X18.698184 Y238.847747 Z-0.125000 I-0.877060 J0.848248
G02 X18.569451 Y238.762890 Z-0.125000 I-0.600999 J0.771674
G02 X18.436004 Y238.698338 Z-0.125000 I-0.671114 J1.217176
G02 X18.295224 Y238.644596 Z-0.125000 I-0.901928 J2.151386
G03 X18.156770 Y238.593321 Z-0.125000 I1.079645 J-3.127846
G03 X18.017194 Y238.531200 Z-0.125000 I0.664322 J-1.680487
G03 X17.923052 Y238.473616 Z-0.125000 I0.279538 J-0.562752
G03 X17.848322 Y238.399018 Z-0.125000 I0.213129 J-0.288238
G03 X17.829443 Y238.362039 Z-0.125000 I0.100619 J-0.074676
G01 X17.836036 Y238.343119 Z-0.125000
G01 X17.861911 Y238.342408 Z-0.125000
G03 X17.907847 Y238.376435 Z-0.125000 I-0.151845 J0.253003
G02 X17.990800 Y238.443302 Z-0.125000 I0.636333 J-0.704523
G02 X18.066430 Y238.489481 Z-0.125000 I0.348696 J-0.486066
G02 X18.188371 Y238.545462 Z-0.125000 I0.701791 J-1.367890
G02 X18.335914 Y238.603328 Z-0.125000 I2.268005 J-5.565751
G03 X18.496911 Y238.670695 Z-0.125000 I-0.862042 J2.286197
G03 X18.636707 Y238.744668 Z-0.125000 I-0.604819 J1.312084
G03 X18.717159 Y238.796538 Z-0.125000 I-0.790667 J1.314683
G03 X18.802844 Y238.858558 Z-0.125000 I-1.318428 J1.911720
G01 X18.810580 Y238.860396 Z-0.125000
G01 X18.811713 Y238.856983 Z-0.125000
G02 X18.725780 Y238.777071 Z-0.125000 I-0.582182 J0.539885
G02 X18.613527 Y238.693052 Z-0.125000 I-1.335525 J1.667312
G02 X18.464654 Y238.597185 Z-0.125000 I-1.348720 J1.930932
G02 X18.336978 Y238.524477 Z-0.125000 I-2.237724 J3.780983
G03 X18.219856 Y238.443982 Z-0.125000 I0.337851 J-0.617035
G03 X18.108291 Y238.329238 Z-0.125000 I0.541223 J-0.637835
G03 X18.004995 Y238.172478 Z-0.125000 I0.789548 J-0.632681
G03 X17.931428 Y238.000875 Z-0.125000 I0.975590 J-0.519811
G02 X17.887750 Y237.869374 Z-0.125000 I-284.016877 J94.263161
G02 X17.845039 Y237.749373 Z-0.125000 I-2.921763 J0.972332
G03 X17.821830 Y237.681242 Z-0.125000 I0.980760 J-0.372108
G03 X17.803214 Y237.598311 Z-0.125000 I0.554825 J-0.168100
G01 X17.806675 Y237.587188 Z-0.125000
G01 X17.813648 Y237.587991 Z-0.125000
G03 X17.848209 Y237.656130 Z-0.125000 I-0.636805 J0.365829
G03 X17.876960 Y237.724940 Z-0.125000 I-1.549611 J0.687910
G03 X17.920336 Y237.839248 Z-0.125000 I-5.116000 J2.006711
G03 X17.964474 Y237.960072 Z-0.125000 I-49.939462 J18.311622
G02 X18.014133 Y238.084515 Z-0.125000 I2.054203 J-0.747597
G02 X18.069476 Y238.195986 Z-0.125000 I1.136068 J-0.494568
G02 X18.126388 Y238.282884 Z-0.125000 I0.659353 J-0.369746
G02 X18.195036 Y238.360079 Z-0.125000 I0.528229 J-0.400613
G02 X18.283926 Y238.432667 Z-0.125000 I0.490566 J-0.510022
G02 X18.385594 Y238.495506 Z-0.125000 I0.673503 J-0.976012
G03 X18.507828 Y238.565912 Z-0.125000 I-1.753859 J3.186229
G03 X18.638403 Y238.648994 Z-0.125000 I-1.631860 J2.708847
G02 X18.711795 Y238.693629 Z-0.125000 I0.535256 J-0.797452
G02 X18.750871 Y238.697491 Z-0.125000 I0.024074 J-0.043960
G01 X18.761669 Y238.679411 Z-0.125000
G02 X18.745567 Y238.627185 Z-0.125000 I-0.248298 J0.047959
G02 X18.685840 Y238.527870 Z-0.125000 I-0.397921 J0.171689
G02 X18.607822 Y238.445055 Z-0.125000 I-0.555329 J0.444999
G03 X18.533620 Y238.358666 Z-0.125000 I0.304065 J-0.336237
G03 X18.490869 Y238.259685 Z-0.125000 I0.257024 J-0.169734
G03 X18.478523 Y238.160884 Z-0.125000 I0.451751 J-0.106622
G03 X18.486359 Y238.053638 Z-0.125000 I0.593548 J-0.010538
G03 X18.501270 Y237.995475 Z-0.125000 I0.339654 J0.056080
G01 X18.520708 Y237.971862 Z-0.125000
G01 X18.531887 Y237.976781 Z-0.125000
G03 X18.535611 Y238.014504 Z-0.125000 I-0.164927 J0.035325
G02 X18.539219 Y238.119865 Z-0.125000 I1.088110 J0.015474
G02 X18.554518 Y238.220605 Z-0.125000 I0.756600 J-0.063366
G02 X18.596917 Y238.333694 Z-0.125000 I0.420037 J-0.092986
G02 X18.667590 Y238.434097 Z-0.125000 I0.473465 J-0.258195
G03 X18.739181 Y238.523630 Z-0.125000 I-0.809359 J0.720558
G03 X18.794525 Y238.621045 Z-0.125000 I-0.431720 J0.309702
G03 X18.815103 Y238.686461 Z-0.125000 I-0.296388 J0.129180
G03 X18.819754 Y238.748438 Z-0.125000 I-0.246037 J0.049623
G02 X18.821264 Y238.789206 Z-0.125000 I0.236417 J0.011651
G02 X18.832487 Y238.831429 Z-0.125000 I0.159906 J-0.019899
G02 X18.853896 Y238.878130 Z-0.125000 I0.695551 J-0.290609
G02 X18.877490 Y238.923590 Z-0.125000 I1.550749 J-0.776003
G02 X18.907073 Y238.974948 Z-0.125000 I0.897836 J-0.482949
G02 X18.944242 Y239.029804 Z-0.125000 I0.639096 J-0.393030
G02 X18.974210 Y239.053401 Z-0.125000 I0.058620 J-0.043618
G01 X18.995873 Y239.048289 Z-0.125000
G02 X19.028792 Y238.981765 Z-0.125000 I-0.115617 J-0.098620
G02 X19.045809 Y238.873567 Z-0.125000 I-0.943496 J-0.203822
G03 X19.068101 Y238.707568 Z-0.125000 I2.432642 J0.242182
G03 X19.097985 Y238.559687 Z-0.125000 I2.312282 J0.390320
G02 X19.116381 Y238.446512 Z-0.125000 I-0.792767 J-0.186939
G02 X19.115088 Y238.332065 Z-0.125000 I-0.560055 J-0.050906
G02 X19.104386 Y238.251142 Z-0.125000 I-2.221496 J0.252622
G03 X19.094452 Y238.167061 Z-0.125000 I1.322096 J-0.198839
G01 X19.101129 Y238.140784 Z-0.125000
G01 X19.114545 Y238.139093 Z-0.125000
G03 X19.152221 Y238.203354 Z-0.125000 I-0.083629 J0.092206
G03 X19.167835 Y238.318602 Z-0.125000 I-0.618554 J0.142487
G03 X19.164308 Y238.501914 Z-0.125000 I-1.474313 J0.063324
G03 X19.141369 Y238.659289 Z-0.125000 I-1.247631 J-0.101499
G03 X19.112163 Y238.793821 Z-0.125000 I-12.329354 J-2.606172
G02 X19.081138 Y238.939038 Z-0.125000 I8.109855 J1.808563
G03 X19.059596 Y239.037214 Z-0.125000 I-3.406282 J-0.695972
G03 X19.038916 Y239.121819 Z-0.125000 I-4.716327 J-1.107943
G02 X19.034179 Y239.161393 Z-0.125000 I0.149497 J0.037968
G02 X19.042088 Y239.201346 Z-0.125000 I0.109287 J-0.000875
G02 X19.064679 Y239.247131 Z-0.125000 I0.313872 J-0.126407
G02 X19.096756 Y239.298901 Z-0.125000 I1.278309 J-0.756213
G03 X19.120104 Y239.341279 Z-0.125000 I-0.283630 J0.183889
G03 X19.129002 Y239.378795 Z-0.125000 I-0.088726 J0.040856
G01 X19.124789 Y239.386959 Z-0.125000
G01 X19.116601 Y239.386869 Z-0.125000
G03 X19.087003 Y239.358543 Z-0.125000 I0.072812 J-0.105709
G01 X19.087003 Y239.358543 Z-0.125000
G01 X19.087004 Y239.358545 Z-0.125000
G00 Z5.000000

(End cutting path id: _119523552)


(Start cutting path id: _119523552)
(Change tool to Default tool)

G00 Z5.000000
G00 X28.962559 Y239.358545

G01 Z-0.125000 F100.0(Penetrate)
G02 X28.992053 Y239.318517 Z-0.125000 I-1.660531 J-1.254430 F400.000000
G03 X29.058814 Y239.248069 Z-0.125000 I0.291836 J0.209705
G03 X29.138143 Y239.197667 Z-0.125000 I0.265127 J0.329660
G03 X29.276602 Y239.140850 Z-0.125000 I0.503676 J1.030306
G03 X29.423374 Y239.096977 Z-0.125000 I0.725467 J2.159519
G02 X29.623467 Y239.043071 Z-0.125000 I-4.166529 J-15.864137
G02 X29.841713 Y238.979396 Z-0.125000 I-2.100307 J-7.604581
G02 X29.982699 Y238.928895 Z-0.125000 I-0.482015 J-1.567716
G02 X30.081779 Y238.870481 Z-0.125000 I-0.153400 J-0.373425
G01 X30.091112 Y238.854401 Z-0.125000
G01 X30.083857 Y238.844465 Z-0.125000
G02 X30.019922 Y238.847887 Z-0.125000 I-0.023454 J0.160757
G02 X29.936059 Y238.872949 Z-0.125000 I0.286089 J1.110172
G03 X29.741182 Y238.935429 Z-0.125000 I-1.802818 J-5.287879
G03 X29.524919 Y238.997201 Z-0.125000 I-2.360303 J-7.853990
G02 X29.334370 Y239.051948 Z-0.125000 I1.697336 J6.266537
G02 X29.169391 Y239.106116 Z-0.125000 I1.137724 J3.743532
G03 X29.129818 Y239.114518 Z-0.125000 I-0.051871 J-0.146902
G01 X29.119917 Y239.102084 Z-0.125000
G03 X29.151239 Y239.043960 Z-0.125000 I0.166446 J0.052192
G03 X29.223771 Y238.962343 Z-0.125000 I1.001972 J0.817409
G03 X29.351362 Y238.847747 Z-0.125000 I0.878246 J0.849508
G03 X29.480123 Y238.762887 Z-0.125000 I0.601434 J0.772453
G03 X29.613567 Y238.698338 Z-0.125000 I0.671195 J1.217381
G03 X29.754329 Y238.644599 Z-0.125000 I0.902496 J2.152740
G02 X29.892800 Y238.593321 Z-0.125000 I-1.083335 J-3.138046
G02 X30.032362 Y238.531199 Z-0.125000 I-0.663525 J-1.678498
G02 X30.126494 Y238.473616 Z-0.125000 I-0.279717 J-0.562987
G02 X30.201243 Y238.399018 Z-0.125000 I-0.213325 J-0.288505
G02 X30.220127 Y238.362039 Z-0.125000 I-0.100539 J-0.074655
G01 X30.213533 Y238.343122 Z-0.125000
G01 X30.187635 Y238.342408 Z-0.125000
G02 X30.141730 Y238.376428 Z-0.125000 I0.152130 J0.253259
G03 X30.058772 Y238.443302 Z-0.125000 I-0.636267 J-0.704394
G03 X29.983123 Y238.489484 Z-0.125000 I-0.349330 J-0.487177
G03 X29.861200 Y238.545462 Z-0.125000 I-0.701305 J-1.366726
G03 X29.713660 Y238.603325 Z-0.125000 I-2.267791 J-5.565330
G02 X29.552635 Y238.670695 Z-0.125000 I0.863178 J2.289264
G02 X29.412870 Y238.744661 Z-0.125000 I0.605376 J1.312950
G02 X29.332389 Y238.796538 Z-0.125000 I0.793438 J1.319291
G02 X29.246728 Y238.858557 Z-0.125000 I1.323370 J1.918006
G01 X29.238990 Y238.860396 Z-0.125000
G01 X29.237860 Y238.856987 Z-0.125000
G03 X29.323792 Y238.777071 Z-0.125000 I0.581774 J0.539413
G03 X29.436043 Y238.693052 Z-0.125000 I1.335081 J1.666693
G03 X29.584915 Y238.597185 Z-0.125000 I1.348921 J1.931234
G03 X29.712592 Y238.524477 Z-0.125000 I2.237437 J3.780498
G02 X29.829715 Y238.443982 Z-0.125000 I-0.337846 J-0.617032
G02 X29.941281 Y238.329235 Z-0.125000 I-0.541136 J-0.637742
G02 X30.044551 Y238.172478 Z-0.125000 I-0.788841 J-0.632080
G02 X30.118122 Y238.000877 Z-0.125000 I-0.975676 J-0.519876
G03 X30.161820 Y237.869374 Z-0.125000 I198.217689 J65.794001
G03 X30.204524 Y237.749375 Z-0.125000 I2.946184 J0.980854
G02 X30.227741 Y237.681242 Z-0.125000 I-0.990766 J-0.375648
G02 X30.246349 Y237.598308 Z-0.125000 I-0.559429 J-0.169068
G01 X30.242897 Y237.587188 Z-0.125000
G01 X30.235924 Y237.587989 Z-0.125000
G02 X30.201362 Y237.656130 Z-0.125000 I0.633695 J0.364257
G02 X30.172610 Y237.724940 Z-0.125000 I1.549611 J0.687910
G02 X30.129235 Y237.839248 Z-0.125000 I5.116000 J2.006711
G02 X30.085082 Y237.960073 Z-0.125000 I41.331616 J15.172135
G03 X30.035416 Y238.084515 Z-0.125000 I-2.040885 J-0.742415
G03 X29.980093 Y238.195984 Z-0.125000 I-1.134010 J-0.493350
G03 X29.923184 Y238.282884 Z-0.125000 I-0.659204 J-0.369615
G03 X29.854536 Y238.360079 Z-0.125000 I-0.528210 J-0.400602
G03 X29.765645 Y238.432667 Z-0.125000 I-0.490592 J-0.510058
G03 X29.663965 Y238.495509 Z-0.125000 I-0.673006 J-0.975267
G02 X29.541744 Y238.565912 Z-0.125000 I1.744173 J3.169191
G02 X29.411173 Y238.648988 Z-0.125000 I1.632114 J2.709336
G03 X29.337754 Y238.693629 Z-0.125000 I-0.534348 J-0.796136
G03 X29.298688 Y238.697488 Z-0.125000 I-0.024065 J-0.043944
G01 X29.287902 Y238.679411 Z-0.125000
G03 X29.304002 Y238.627181 Z-0.125000 I0.248254 J0.047929
G03 X29.363707 Y238.527870 Z-0.125000 I0.398225 J0.171806
G03 X29.441737 Y238.445055 Z-0.125000 I0.554890 J0.444658
G02 X29.515952 Y238.358666 Z-0.125000 I-0.303872 J-0.336125
G02 X29.558703 Y238.259685 Z-0.125000 I-0.257016 J-0.169731
G02 X29.571050 Y238.160884 Z-0.125000 I-0.451802 J-0.106633
G02 X29.563192 Y238.053637 Z-0.125000 I-0.597849 J-0.010109
G02 X29.548303 Y237.995475 Z-0.125000 I-0.339175 J0.055843
G01 X29.528861 Y237.971859 Z-0.125000
G01 X29.517662 Y237.976781 Z-0.125000
G02 X29.513909 Y238.014507 Z-0.125000 I0.165376 J0.035500
G03 X29.510352 Y238.119865 Z-0.125000 I-1.123960 J0.014795
G03 X29.495032 Y238.220605 Z-0.125000 I-0.759500 J-0.063967
G03 X29.452632 Y238.333694 Z-0.125000 I-0.419879 J-0.092930
G03 X29.381972 Y238.434093 Z-0.125000 I-0.473679 J-0.258310
G02 X29.310367 Y238.523630 Z-0.125000 I0.812625 J0.723280
G02 X29.255044 Y238.621039 Z-0.125000 I0.432290 J0.309931
G02 X29.234446 Y238.686461 Z-0.125000 I0.297142 J0.129506
G02 X29.229806 Y238.748439 Z-0.125000 I0.246220 J0.049597
G03 X29.228322 Y238.789206 Z-0.125000 I-0.238003 J0.011746
G03 X29.217090 Y238.831428 Z-0.125000 I-0.159981 J-0.019954
G03 X29.195666 Y238.878130 Z-0.125000 I-0.693815 J-0.290010
G03 X29.172069 Y238.923595 Z-0.125000 I-1.573718 J-0.787931
G03 X29.142515 Y238.974948 Z-0.125000 I-0.902666 J-0.485303
G03 X29.105334 Y239.029806 Z-0.125000 I-0.645036 J-0.397167
G03 X29.075377 Y239.053401 Z-0.125000 I-0.058585 J-0.043566
G01 X29.053714 Y239.048291 Z-0.125000
G03 X29.020770 Y238.981765 Z-0.125000 I0.115654 J-0.098692
G03 X29.003766 Y238.873568 Z-0.125000 I0.945948 J-0.204101
G02 X28.981485 Y238.707568 Z-0.125000 I-2.440133 J0.243024
G02 X28.951591 Y238.559685 Z-0.125000 I-2.328311 J0.393691
G03 X28.933205 Y238.446512 Z-0.125000 I0.793801 J-0.187042
G03 X28.934489 Y238.332062 Z-0.125000 I0.558251 J-0.050970
G03 X28.945171 Y238.251142 Z-0.125000 I2.282258 J0.260120
G02 X28.955129 Y238.167065 Z-0.125000 I-1.322725 J-0.199282
G01 X28.948445 Y238.140784 Z-0.125000
G01 X28.935024 Y238.139095 Z-0.125000
G02 X28.897354 Y238.203354 Z-0.125000 I0.083641 J0.092204
G02 X28.881741 Y238.318603 Z-0.125000 I0.617928 J0.142395
G02 X28.885275 Y238.501914 Z-0.125000 I1.475856 J0.063237
G02 X28.908202 Y238.659287 Z-0.125000 I1.247653 J-0.101403
G02 X28.937419 Y238.793821 Z-0.125000 I11.981199 J-2.531546
G03 X28.968443 Y238.939038 Z-0.125000 I-8.134842 J1.813884
G02 X28.989985 Y239.037214 Z-0.125000 I3.412838 J-0.697402
G02 X29.010657 Y239.121818 Z-0.125000 I4.583140 J-1.074979
G03 X29.015414 Y239.161393 Z-0.125000 I-0.149845 J0.038084
G03 X29.007503 Y239.201343 Z-0.125000 I-0.109254 J-0.000875
G03 X28.984891 Y239.247131 Z-0.125000 I-0.312887 J-0.126040
G03 X28.952822 Y239.298903 Z-0.125000 I-1.303241 J-0.771436
G02 X28.929488 Y239.341279 Z-0.125000 I0.284824 J0.184451
G02 X28.920595 Y239.378800 Z-0.125000 I0.088584 J0.040810
G01 X28.924803 Y239.386959 Z-0.125000
G01 X28.932975 Y239.386871 Z-0.125000
G02 X28.962590 Y239.358543 Z-0.125000 I-0.073116 J-0.106081
G01 X28.962590 Y239.358543 Z-0.125000
G01 X28.962559 Y239.358545 Z-0.125000
G00 Z5.000000

(End cutting path id: _119523552)


(Start cutting path id: _119523552)
(Change tool to Default tool)

G00 Z5.000000
G00 X13.291496 Y238.215255

G01 Z-0.125000 F100.0(Penetrate)
G03 X12.988042 Y237.917064 Z-0.125000 I21.234865 J-21.913165 F400.000000
G03 X12.633212 Y237.544204 Z-0.125000 I6.843122 J-6.867477
G03 X12.271993 Y237.116477 Z-0.125000 I6.331497 J-5.713396
G03 X11.956609 Y236.640208 Z-0.125000 I2.685318 J-2.120768
G03 X11.757138 Y236.155225 Z-0.125000 I2.072678 J-1.135990
G03 X11.662054 Y235.666450 Z-0.125000 I2.757490 J-0.790065
G03 X11.643299 Y235.138818 Z-0.125000 I3.773708 J-0.398292
G03 X11.700051 Y234.622064 Z-0.125000 I3.453436 J0.117777
G03 X11.834632 Y234.143275 Z-0.125000 I2.739888 J0.511838
G03 X12.043401 Y233.719520 Z-0.125000 I2.341957 J0.890492
G03 X12.329657 Y233.334057 Z-0.125000 I2.363186 J1.455948
G03 X12.706534 Y232.966058 Z-0.125000 I2.741264 J2.430412
G03 X13.142572 Y232.648836 Z-0.125000 I2.398064 J2.837978
G03 X13.614021 Y232.428439 Z-0.125000 I1.157234 J1.860986
G03 X14.122766 Y232.333386 Z-0.125000 I0.607767 J1.843925
G03 X14.556130 Y232.360176 Z-0.125000 I0.098398 J1.926765
G03 X14.962940 Y232.484071 Z-0.125000 I-0.305259 J1.732153
G03 X15.246461 Y232.637794 Z-0.125000 I-0.816780 J1.844759
G03 X15.484865 Y232.832549 Z-0.125000 I-0.777117 J1.194579
G03 X15.635585 Y233.061376 Z-0.125000 I-0.503407 J0.495626
G03 X15.706950 Y233.350064 Z-0.125000 I-0.954097 J0.389022
G03 X15.734394 Y233.712586 Z-0.125000 I-8.234130 J0.805657
G02 X15.639566 Y233.426492 Z-0.125000 I-5.541359 J1.677956
G02 X15.502925 Y233.162505 Z-0.125000 I-1.065961 J0.384392
G02 X15.300639 Y232.946053 Z-0.125000 I-0.855981 J0.597210
G02 X15.006372 Y232.759115 Z-0.125000 I-0.986780 J1.228259
G02 X14.674584 Y232.627361 Z-0.125000 I-1.018425 J2.080988
G02 X14.293435 Y232.514598 Z-0.125000 I-4.447322 J14.331855
G03 X14.567568 Y232.660370 Z-0.125000 I-6.781630 J13.083858
G03 X14.794768 Y232.804046 Z-0.125000 I-0.996568 J1.827397
G03 X14.989462 Y232.970838 Z-0.125000 I-0.944683 J1.299743
G03 X15.145473 Y233.133856 Z-0.125000 I-4.182454 J4.158862
G03 X15.048023 Y233.167907 Z-0.125000 I-0.357215 J-0.865821
G03 X14.884793 Y233.190241 Z-0.125000 I-0.158061 J-0.547552
G03 X14.684562 Y233.171608 Z-0.125000 I0.010904 J-1.202307
G03 X14.454042 Y233.113967 Z-0.125000 I0.304777 J-1.708664
G03 X14.266725 Y233.035232 Z-0.125000 I0.372348 J-1.148023
G03 X14.110013 Y232.947176 Z-0.125000 I1.401887 J-2.678430
G02 X13.945898 Y232.854810 Z-0.125000 I-1.663908 J2.764409
G02 X13.736912 Y232.784813 Z-0.125000 I-0.321012 J0.611458
G02 X13.525897 Y232.785812 Z-0.125000 I-0.102560 J0.623255
G02 X13.180318 Y232.898943 Z-0.125000 I0.217824 J1.249764
G02 X12.832764 Y233.104258 Z-0.125000 I1.221543 J2.464638
G02 X12.385415 Y233.421265 Z-0.125000 I16.506112 J23.766946
G03 X12.701050 Y233.261172 Z-0.125000 I4.357823 J8.200558
G03 X13.011935 Y233.149223 Z-0.125000 I0.688108 J1.423246
G03 X13.342722 Y233.113704 Z-0.125000 I0.297080 J1.208633
G03 X13.621236 Y233.168947 Z-0.125000 I-0.022897 J0.845135
G03 X13.858746 Y233.309620 Z-0.125000 I-0.290236 J0.760870
G03 X14.061709 Y233.494868 Z-0.125000 I-2.561825 J3.010611
G03 X13.871671 Y233.638554 Z-0.125000 I-5.266710 J-6.768227
G03 X13.673007 Y233.763818 Z-0.125000 I-0.980917 J-1.335522
G03 X13.459573 Y233.848212 Z-0.125000 I-0.471703 J-0.880859
G03 X13.218690 Y233.856959 Z-0.125000 I-0.139536 J-0.521499
G03 X12.967179 Y233.772990 Z-0.125000 I0.187238 J-0.979489
G02 X12.696813 Y233.704200 Z-0.125000 I-0.299439 J0.611179
G02 X12.447138 Y233.760514 Z-0.125000 I-0.020905 J0.488954
G02 X12.190490 Y233.960945 Z-0.125000 I0.433171 J0.819196
G02 X11.999373 Y234.239718 Z-0.125000 I0.969774 J0.869743
G02 X11.855621 Y234.619066 Z-0.125000 I1.666999 J0.848612
G02 X11.788045 Y235.015804 Z-0.125000 I2.297410 J0.595439
G02 X11.758779 Y235.443766 Z-0.125000 I13.751559 J1.155373
G02 X11.983246 Y235.414455 Z-0.125000 I-3.899530 J-30.737543
G02 X12.152236 Y235.387123 Z-0.125000 I-0.424268 J-3.159199
G02 X12.277371 Y235.340671 Z-0.125000 I-0.074360 J-0.392092
G02 X12.401462 Y235.212719 Z-0.125000 I-0.162763 J-0.282000
G02 X12.503631 Y234.974951 Z-0.125000 I-1.312233 J-0.704701
G03 X12.640333 Y234.679527 Z-0.125000 I1.352419 J0.446471
G03 X12.819756 Y234.492149 Z-0.125000 I0.517256 J0.315703
G03 X13.017323 Y234.417090 Z-0.125000 I0.260318 J0.387650
G03 X13.248493 Y234.428861 Z-0.125000 I0.084249 J0.621253
G03 X13.493449 Y234.543424 Z-0.125000 I-0.158774 J0.658650
G03 X13.682863 Y234.733657 Z-0.125000 I-0.538639 J0.725737
G02 X13.887726 Y235.004488 Z-0.125000 I10.188624 J-7.494029
G02 X14.114674 Y235.262226 Z-0.125000 I2.225840 J-1.731141
G02 X14.400772 Y235.475765 Z-0.125000 I0.865499 J-0.861164
G02 X14.733031 Y235.600229 Z-0.125000 I0.620470 J-1.150637
G02 X15.110218 Y235.675820 Z-0.125000 I1.730488 J-7.656008
G02 X14.768096 Y235.771267 Z-0.125000 I4.461175 J16.651715
G02 X14.458821 Y235.880631 Z-0.125000 I0.794914 J2.739954
G02 X14.171499 Y236.020556 Z-0.125000 I1.106170 J2.636366
G03 X13.900517 Y236.163074 Z-0.125000 I-2.993034 J-5.362025
G03 X13.606095 Y236.285191 Z-0.125000 I-1.071411 J-2.167171
G03 X13.339355 Y236.321830 Z-0.125000 I-0.228267 J-0.672556
G03 X13.095443 Y236.252412 Z-0.125000 I0.030953 J-0.571985
G03 X12.849501 Y236.081459 Z-0.125000 I0.673204 J-1.230894
G03 X12.603087 Y235.845493 Z-0.125000 I2.264924 J-2.611857
G02 X12.423599 Y235.684371 Z-0.125000 I-1.075134 J1.017148
G02 X12.257233 Y235.609753 Z-0.125000 I-0.243798 J0.320792
G02 X12.127897 Y235.603833 Z-0.125000 I-0.084568 J0.431853
G02 X11.962548 Y235.632356 Z-0.125000 I0.123945 J1.212067
G02 X11.845946 Y235.706297 Z-0.125000 I0.051273 J0.209763
G02 X11.809789 Y235.819346 Z-0.125000 I0.127354 J0.103038
G02 X11.848740 Y236.036833 Z-0.125000 I0.952152 J-0.058294
G02 X11.929321 Y236.261828 Z-0.125000 I2.265072 J-0.684296
G02 X12.061023 Y236.546646 Z-0.125000 I3.744636 J-1.558698
G02 X12.209710 Y236.810340 Z-0.125000 I3.237408 J-1.651683
G02 X12.398587 Y237.078408 Z-0.125000 I2.374637 J-1.472559
G02 X12.617941 Y237.327891 Z-0.125000 I2.668391 J-2.124963
G02 X12.865624 Y237.578827 Z-0.125000 I14.157005 J-13.725817
G03 X12.756752 Y237.406968 Z-0.125000 I20.836913 J-13.320562
G03 X12.631110 Y237.199402 Z-0.125000 I6.319631 J-3.967144
G03 X12.505819 Y236.965412 Z-0.125000 I3.146203 J-1.835195
G03 X12.438036 Y236.729835 Z-0.125000 I0.632292 J-0.309470
G03 X12.471049 Y236.499113 Z-0.125000 I0.473174 J-0.050018
G03 X12.575521 Y236.376857 Z-0.125000 I0.238214 J0.097797
G03 X12.729843 Y236.342074 Z-0.125000 I0.128854 J0.211956
G03 X12.925711 Y236.372149 Z-0.125000 I-0.205567 J1.991600
G02 X12.768947 Y236.531179 Z-0.125000 I1.598891 J1.732887
G02 X12.698623 Y236.691957 Z-0.125000 I0.208625 J0.187022
G02 X12.731821 Y236.870782 Z-0.125000 I0.330648 J0.031111
G02 X12.850515 Y237.101929 Z-0.125000 I8.644725 J-4.293003
G03 X12.963635 Y237.327214 Z-0.125000 I-4.947389 J2.625232
G03 X13.066078 Y237.548656 Z-0.125000 I-11.553223 J5.479117
G03 X13.166702 Y237.778562 Z-0.125000 I-10.395028 J4.686619
G03 X13.230619 Y237.947478 Z-0.125000 I-2.088714 J0.886919
G03 X13.272209 Y238.104970 Z-0.125000 I-1.212537 J0.404438
G03 X13.291503 Y238.215257 Z-0.125000 I-2.587189 J0.509434
G01 X13.291503 Y238.215257 Z-0.125000
G01 X13.291496 Y238.215255 Z-0.125000
G00 Z5.000000

(End cutting path id: _119523552)


(Start cutting path id: _119523552)
(Change tool to Default tool)

G00 Z5.000000
G00 X34.758300 Y238.215255

G01 Z-0.125000 F100.0(Penetrate)
G02 X35.061729 Y237.917073 Z-0.125000 I-21.318180 J-21.996751 F400.000000
G02 X35.416586 Y237.544204 Z-0.125000 I-6.850288 J-6.874670
G02 X35.777805 Y237.116477 Z-0.125000 I-6.331827 J-5.713666
G02 X36.093189 Y236.640208 Z-0.125000 I-2.685255 J-2.120723
G02 X36.292659 Y236.155225 Z-0.125000 I-2.072739 J-1.136016
G02 X36.387744 Y235.666450 Z-0.125000 I-2.757431 J-0.790059
G02 X36.406503 Y235.138819 Z-0.125000 I-3.774327 J-0.398339
G02 X36.349745 Y234.622064 Z-0.125000 I-3.452153 J0.117671
G02 X36.215154 Y234.143275 Z-0.125000 I-2.739184 J0.511697
G02 X36.006374 Y233.719520 Z-0.125000 I-2.342512 J0.890821
G02 X35.720117 Y233.334057 Z-0.125000 I-2.363273 J1.456018
G02 X35.343239 Y232.966058 Z-0.125000 I-2.741209 J2.430356
G02 X34.907216 Y232.648842 Z-0.125000 I-2.398296 J2.838262
G02 X34.435754 Y232.428439 Z-0.125000 I-1.157121 J1.860735
G02 X33.927016 Y232.333383 Z-0.125000 I-0.607743 J1.843732
G02 X33.493668 Y232.360176 Z-0.125000 I-0.098383 J1.926598
G02 X33.086826 Y232.484077 Z-0.125000 I0.305239 J1.732194
G02 X32.803335 Y232.637794 Z-0.125000 I0.816408 J1.843921
G02 X32.564919 Y232.832551 Z-0.125000 I0.777291 J1.194846
G02 X32.414213 Y233.061376 Z-0.125000 I0.503170 J0.495433
G02 X32.342846 Y233.350064 Z-0.125000 I0.954066 J0.389020
G02 X32.315404 Y233.712586 Z-0.125000 I8.231816 J0.805434
G03 X32.410232 Y233.426491 Z-0.125000 I5.541517 J1.678004
G03 X32.546872 Y233.162505 Z-0.125000 I1.065980 J0.384397
G03 X32.749162 Y232.946047 Z-0.125000 I0.856043 J0.597260
G03 X33.043402 Y232.759115 Z-0.125000 I0.986876 J1.228353
G03 X33.375202 Y232.627362 Z-0.125000 I1.018757 J2.081906
G03 X33.756363 Y232.514598 Z-0.125000 I4.440699 J14.309776
G02 X33.482214 Y232.660375 Z-0.125000 I6.752526 J13.029550
G02 X33.255029 Y232.804046 Z-0.125000 I0.996799 J1.827683
G02 X33.060336 Y232.970838 Z-0.125000 I0.944693 J1.299751
G02 X32.904323 Y233.133856 Z-0.125000 I4.183226 J4.159628
G02 X33.001756 Y233.167906 Z-0.125000 I0.356845 J-0.864660
G02 X33.165006 Y233.190241 Z-0.125000 I0.158080 J-0.547654
G02 X33.365217 Y233.171608 Z-0.125000 I-0.010902 J-1.202083
G02 X33.595756 Y233.113967 Z-0.125000 I-0.304974 J-1.709615
G02 X33.783072 Y233.035232 Z-0.125000 I-0.372337 J-1.147992
G02 X33.939785 Y232.947176 Z-0.125000 I-1.402112 J-2.678838
G03 X34.103882 Y232.854812 Z-0.125000 I1.660366 J2.757905
G03 X34.312886 Y232.784813 Z-0.125000 I0.321049 J0.611573
G03 X34.523888 Y232.785813 Z-0.125000 I0.102551 J0.623196
G03 X34.869479 Y232.898943 Z-0.125000 I-0.217884 J1.250018
G03 X35.217035 Y233.104258 Z-0.125000 I-1.221516 J2.464601
G03 X35.664383 Y233.421265 Z-0.125000 I-16.506593 J23.767634
G02 X35.348748 Y233.261172 Z-0.125000 I-4.357976 J8.200869
G02 X35.037864 Y233.149223 Z-0.125000 I-0.688107 J1.423244
G02 X34.707074 Y233.113704 Z-0.125000 I-0.297082 J1.208651
G02 X34.428560 Y233.168947 Z-0.125000 I0.022897 J0.845134
G02 X34.191037 Y233.309623 Z-0.125000 I0.290276 J0.760975
G02 X33.988087 Y233.494868 Z-0.125000 I2.557428 J3.005638
G02 X34.178128 Y233.638555 Z-0.125000 I5.268707 J-6.770930
G02 X34.376789 Y233.763818 Z-0.125000 I0.980952 J-1.335568
G02 X34.590229 Y233.848215 Z-0.125000 I0.471735 J-0.880922
G02 X34.831085 Y233.856959 Z-0.125000 I0.139514 J-0.521401
G02 X35.082629 Y233.772982 Z-0.125000 I-0.187218 J-0.979526
G03 X35.352962 Y233.704200 Z-0.125000 I0.299405 J0.611109
G03 X35.602649 Y233.760513 Z-0.125000 I0.020907 J0.489001
G03 X35.859283 Y233.960945 Z-0.125000 I-0.432999 J0.818926
G03 X36.050422 Y234.239726 Z-0.125000 I-0.969460 J0.869602
G03 X36.194154 Y234.619066 Z-0.125000 I-1.666325 J0.848268
G03 X36.261740 Y235.015804 Z-0.125000 I-2.298106 J0.595622
G03 X36.291018 Y235.443766 Z-0.125000 I-13.729946 J1.154273
G03 X36.066534 Y235.414454 Z-0.125000 I3.879964 J-30.588566
G03 X35.897561 Y235.387123 Z-0.125000 I0.424390 J-3.159755
G03 X35.772425 Y235.340673 Z-0.125000 I0.074367 J-0.392126
G03 X35.648313 Y235.212719 Z-0.125000 I0.162798 J-0.282078
G03 X35.546153 Y234.974951 Z-0.125000 I1.311594 J-0.704375
G02 X35.409463 Y234.679527 Z-0.125000 I-1.351991 J0.446222
G02 X35.230030 Y234.492149 Z-0.125000 I-0.517414 J0.315874
G02 X35.032476 Y234.417090 Z-0.125000 I-0.260295 J0.387579
G02 X34.801304 Y234.428862 Z-0.125000 I-0.084249 J0.621261
G02 X34.556347 Y234.543424 Z-0.125000 I0.158776 J0.658659
G02 X34.366934 Y234.733657 Z-0.125000 I0.538657 J0.725752
G03 X34.162072 Y235.004488 Z-0.125000 I-10.192610 J-7.497004
G03 X33.935126 Y235.262221 Z-0.125000 I-2.225625 J-1.730985
G03 X33.649003 Y235.475765 Z-0.125000 I-0.865449 J-0.861136
G03 X33.316755 Y235.600229 Z-0.125000 I-0.620491 J-1.150675
G03 X32.939581 Y235.675820 Z-0.125000 I-1.729958 J-7.653048
G03 X33.281683 Y235.771265 Z-0.125000 I-4.458032 J16.639856
G03 X33.590978 Y235.880631 Z-0.125000 I-0.795397 J2.741461
G03 X33.878282 Y236.020552 Z-0.125000 I-1.105874 J2.635657
G02 X34.149281 Y236.163074 Z-0.125000 I2.988703 J-5.353955
G02 X34.443701 Y236.285191 Z-0.125000 I1.071396 J-2.167131
G02 X34.710444 Y236.321830 Z-0.125000 I0.228270 J-0.672563
G02 X34.954338 Y236.252420 Z-0.125000 I-0.030958 J-0.571982
G02 X35.200297 Y236.081459 Z-0.125000 I-0.673141 J-1.230851
G02 X35.446693 Y235.845500 Z-0.125000 I-2.263695 J-2.610449
G03 X35.626198 Y235.684371 Z-0.125000 I1.074281 J1.016246
G03 X35.792549 Y235.609755 Z-0.125000 I0.243798 J0.320788
G03 X35.921877 Y235.603833 Z-0.125000 I0.084569 J0.431768
G03 X36.087238 Y235.632354 Z-0.125000 I-0.124004 J1.212620
G03 X36.203851 Y235.706297 Z-0.125000 I-0.051262 J0.209766
G03 X36.240004 Y235.819344 Z-0.125000 I-0.127344 J0.103031
G03 X36.201028 Y236.036833 Z-0.125000 I-0.951597 J-0.058298
G03 X36.120449 Y236.261828 Z-0.125000 I-2.264845 J-0.684202
G03 X35.988747 Y236.546646 Z-0.125000 I-3.744623 J-1.558691
G03 X35.840082 Y236.810337 Z-0.125000 I-3.234262 J-1.649678
G03 X35.651206 Y237.078408 Z-0.125000 I-2.374382 J-1.472347
G03 X35.431853 Y237.327887 Z-0.125000 I-2.667943 J-2.124601
G03 X35.184145 Y237.578827 Z-0.125000 I-14.115666 J-13.686130
G02 X35.293017 Y237.406972 Z-0.125000 I-20.907450 J-13.365504
G02 X35.418683 Y237.199402 Z-0.125000 I-6.340888 J-3.980689
G02 X35.543975 Y236.965412 Z-0.125000 I-3.146266 J-1.835232
G02 X35.611757 Y236.729835 Z-0.125000 I-0.632279 J-0.309465
G02 X35.578735 Y236.499113 Z-0.125000 I-0.473416 J-0.049966
G02 X35.474272 Y236.376857 Z-0.125000 I-0.238186 J0.097761
G02 X35.319948 Y236.342074 Z-0.125000 I-0.128856 J0.211964
G02 X35.124083 Y236.372149 Z-0.125000 I0.205558 J1.991511
G03 X35.280845 Y236.531179 Z-0.125000 I-1.598864 J1.732848
G03 X35.351170 Y236.691957 Z-0.125000 I-0.208629 J0.187024
G03 X35.317977 Y236.870783 Z-0.125000 I-0.330569 J0.031134
G03 X35.199278 Y237.101929 Z-0.125000 I-8.655983 J-4.298991
G02 X35.086147 Y237.327217 Z-0.125000 I4.954360 J2.628931
G02 X34.983714 Y237.548656 Z-0.125000 I11.443619 J5.428007
G02 X34.883090 Y237.778562 Z-0.125000 I10.398088 J4.687959
G02 X34.819173 Y237.947478 Z-0.125000 I2.088381 J0.886786
G02 X34.777566 Y238.104974 Z-0.125000 I1.210560 J0.404045
G02 X34.758289 Y238.215257 Z-0.125000 I2.571214 J0.506267
G01 X34.758289 Y238.215257 Z-0.125000
G01 X34.758300 Y238.215255 Z-0.125000
G00 Z5.000000

(End cutting path id: _119523552)


(Start cutting path id: _119523552)
(Change tool to Default tool)

G00 Z5.000000
G00 X16.217830 Y239.904831

G01 Z-0.125000 F100.0(Penetrate)
G02 X16.627796 Y240.018514 Z-0.125000 I8.432927 J-29.614942 F400.000000
G02 X17.128104 Y240.139392 Z-0.125000 I2.527797 J-9.366607
G02 X17.679155 Y240.238352 Z-0.125000 I1.782028 J-8.339408
G02 X18.249303 Y240.273340 Z-0.125000 I0.493932 J-3.385914
G02 X18.769052 Y240.203587 Z-0.125000 I-0.052669 J-2.363704
G02 X19.239880 Y240.041543 Z-0.125000 I-0.694282 J-2.782320
G02 X19.706205 Y239.793982 Z-0.125000 I-1.541227 J-3.466149
G02 X20.125347 Y239.486449 Z-0.125000 I-1.828340 J-2.931268
G02 X20.472682 Y239.130520 Z-0.125000 I-1.812604 J-2.116280
G02 X20.735280 Y238.737812 Z-0.125000 I-1.942056 J-1.582776
G02 X20.925990 Y238.297178 Z-0.125000 I-2.442050 J-1.318528
G02 X21.056259 Y237.786800 Z-0.125000 I-3.475391 J-1.158870
G02 X21.112951 Y237.250577 Z-0.125000 I-3.657851 J-0.657837
G02 X21.068112 Y236.732083 Z-0.125000 I-2.190791 J-0.071727
G02 X20.896044 Y236.243967 Z-0.125000 I-1.901011 J0.395745
G02 X20.656172 Y235.882083 Z-0.125000 I-1.717602 J0.878064
G02 X20.345450 Y235.591696 Z-0.125000 I-1.346907 J1.129790
G02 X20.070577 Y235.423034 Z-0.125000 I-1.189728 J1.630620
G02 X19.782699 Y235.313950 Z-0.125000 I-0.646146 J1.270799
G02 X19.509181 Y235.297848 Z-0.125000 I-0.177474 J0.683549
G02 X19.223469 Y235.380381 Z-0.125000 I0.140129 J1.020902
G02 X18.895804 Y235.537867 Z-0.125000 I3.412413 J7.519471
G03 X19.191006 Y235.476944 Z-0.125000 I1.319708 J5.649032
G03 X19.487934 Y235.463279 Z-0.125000 I0.200104 J1.115253
G03 X19.776530 Y235.530252 Z-0.125000 I-0.089349 J1.040313
G03 X20.085546 Y235.691609 Z-0.125000 I-0.570352 J1.468859
G03 X20.365536 Y235.913080 Z-0.125000 I-1.293891 J1.923496
G03 X20.653759 Y236.186781 Z-0.125000 I-10.176392 J11.004950
G02 X20.390452 Y236.022258 Z-0.125000 I-7.955692 J12.439544
G02 X20.152450 Y235.897334 Z-0.125000 I-1.084467 J1.776913
G02 X19.910631 Y235.812125 Z-0.125000 I-0.653681 J1.469390
G02 X19.691480 Y235.758536 Z-0.125000 I-1.507987 J5.691991
G02 X19.710688 Y235.859931 Z-0.125000 I0.925228 J-0.122761
G02 X19.772978 Y236.012471 Z-0.125000 I0.552918 J-0.136796
G02 X19.889217 Y236.176563 Z-0.125000 I1.035436 J-0.610266
G02 X20.054413 Y236.347387 Z-0.125000 I1.326319 J-1.117331
G02 X20.216247 Y236.470234 Z-0.125000 I0.807938 J-0.896326
G02 X20.370871 Y236.561920 Z-0.125000 I1.616055 J-2.549180
G03 X20.532907 Y236.657871 Z-0.125000 I-1.562082 J2.822753
G03 X20.698033 Y236.803860 Z-0.125000 I-0.369341 J0.584137
G03 X20.802653 Y236.987097 Z-0.125000 I-0.488630 J0.400471
G03 X20.877474 Y237.342954 Z-0.125000 I-1.191588 J0.436331
G03 X20.873451 Y237.746592 Z-0.125000 I-2.745759 J0.174474
G03 X20.822587 Y238.292513 Z-0.125000 I-28.718136 J-2.400358
G02 X20.803412 Y237.939110 Z-0.125000 I-9.278151 J0.326200
G02 X20.744931 Y237.613896 Z-0.125000 I-1.577346 J0.115776
G02 X20.610293 Y237.309695 Z-0.125000 I-1.195580 J0.347266
G02 X20.423203 Y237.096095 Z-0.125000 I-0.720802 J0.442605
G02 X20.182601 Y236.960746 Z-0.125000 I-0.514017 J0.632215
G02 X19.920700 Y236.877604 Z-0.125000 I-1.324992 J3.719685
G02 X19.891283 Y237.114030 Z-0.125000 I8.471082 J1.174025
G02 X19.882141 Y237.348694 Z-0.125000 I1.647168 J0.181681
G02 X19.915760 Y237.575740 Z-0.125000 I0.998056 J-0.031772
G02 X20.028622 Y237.788721 Z-0.125000 I0.521482 J-0.139946
G02 X20.227107 Y237.964550 Z-0.125000 I0.754526 J-0.651807
G03 X20.421868 Y238.164281 Z-0.125000 I-0.379525 J0.564902
G03 X20.497925 Y238.408673 Z-0.125000 I-0.413151 J0.262606
G03 X20.452673 Y238.731159 Z-0.125000 I-0.926020 J0.034477
G03 X20.306812 Y239.036064 Z-0.125000 I-1.237826 J-0.404811
G03 X20.050173 Y239.350205 Z-0.125000 I-1.568179 J-1.019229
G03 X19.740340 Y239.607123 Z-0.125000 I-1.665315 J-1.693027
G03 X19.384346 Y239.846454 Z-0.125000 I-7.863177 J-11.311668
G03 X19.297500 Y239.637381 Z-0.125000 I28.951707 J-12.148660
G03 X19.236694 Y239.477383 Z-0.125000 I2.942142 J-1.209701
G03 X19.214350 Y239.345778 Z-0.125000 I0.376737 J-0.131660
G03 X19.263118 Y239.174325 Z-0.125000 I0.325614 J-0.000045
G03 X19.417949 Y238.966965 Z-0.125000 I1.266246 J0.783991
G02 X19.605437 Y238.700869 Z-0.125000 I-1.062521 J-0.947740
G02 X19.677998 Y238.451799 Z-0.125000 I-0.532062 J-0.290107
G02 X19.644230 Y238.243179 Z-0.125000 I-0.465949 J-0.031624
G02 X19.518444 Y238.048859 Z-0.125000 I-0.580071 J0.237618
G02 X19.296734 Y237.894019 Z-0.125000 I-0.490893 J0.466743
G02 X19.037297 Y237.825093 Z-0.125000 I-0.359225 J0.829388
G03 X18.700317 Y237.783076 Z-0.125000 I1.397351 J-12.579207
G03 X18.363650 Y237.715409 Z-0.125000 I0.385743 J-2.790561
G03 X18.035661 Y237.574400 Z-0.125000 I0.313174 J-1.180408
G03 X17.761754 Y237.348888 Z-0.125000 I0.686565 J-1.112998
G03 X17.507693 Y237.060043 Z-0.125000 I5.764710 J-5.326655
G03 X17.596075 Y237.404041 Z-0.125000 I-16.689747 J4.471359
G03 X17.656024 Y237.726573 Z-0.125000 I-2.774865 J0.682607
G03 X17.678493 Y238.045351 Z-0.125000 I-2.838969 J0.360277
G02 X17.690554 Y238.351288 Z-0.125000 I6.147514 J-0.089157
G02 X17.732012 Y238.667346 Z-0.125000 I2.411187 J-0.155536
G02 X17.833638 Y238.916667 Z-0.125000 I0.696885 J-0.138685
G02 X18.015725 Y239.093185 Z-0.125000 I0.480088 J-0.313059
G02 X18.286760 Y239.220708 Z-0.125000 I0.729076 J-1.197775
G02 X18.614296 Y239.316110 Z-0.125000 I1.129218 J-3.266911
G03 X18.843588 Y239.390989 Z-0.125000 I-0.343224 J1.439507
G03 X18.991392 Y239.497770 Z-0.125000 I-0.155869 J0.371434
G03 X19.061166 Y239.606810 Z-0.125000 I-0.331774 J0.289145
G03 X19.119161 Y239.764265 Z-0.125000 I-1.111312 J0.498733
G03 X19.113428 Y239.902231 Z-0.125000 I-0.207258 J0.060491
G03 X19.033600 Y239.990059 Z-0.125000 I-0.152933 J-0.058810
G03 X18.825785 Y240.065063 Z-0.125000 I-0.425445 J-0.853395
G03 X18.590641 Y240.107777 Z-0.125000 I-0.539909 J-2.303599
G03 X18.278116 Y240.136136 Z-0.125000 I-0.522705 J-4.024178
G03 X17.975417 Y240.139218 Z-0.125000 I-0.188329 J-3.630832
G03 X17.648833 Y240.109689 Z-0.125000 I0.087902 J-2.792946
G03 X17.323096 Y240.044453 Z-0.125000 I0.506740 J-3.376083
G03 X16.981928 Y239.955408 Z-0.125000 I4.791566 J-19.056566
G02 X17.185187 Y239.963773 Z-0.125000 I1.111523 J-24.532962
G02 X17.427788 Y239.968807 Z-0.125000 I0.276237 J-7.463943
G02 X17.693076 Y239.960313 Z-0.125000 I0.016050 J-3.645690
G02 X17.930971 Y239.901225 Z-0.125000 I-0.048115 J-0.702150
G02 X18.114283 Y239.757266 Z-0.125000 I-0.193298 J-0.434830
G02 X18.167922 Y239.605686 Z-0.125000 I-0.203786 J-0.157393
G02 X18.120877 Y239.454629 Z-0.125000 I-0.248053 J-0.005601
G02 X17.996915 Y239.300052 Z-0.125000 I-1.621691 J1.173510
G03 X17.937556 Y239.515326 Z-0.125000 I-2.296235 J-0.517333
G03 X17.833474 Y239.656613 Z-0.125000 I-0.266352 J-0.087234
G03 X17.662012 Y239.717284 Z-0.125000 I-0.192235 J-0.270655
G03 X17.402512 Y239.730052 Z-0.125000 I-0.604382 J-9.639901
G02 X17.150837 Y239.744726 Z-0.125000 I0.199705 J5.590989
G02 X16.907832 Y239.766760 Z-0.125000 I1.019103 J12.589911
G02 X16.658412 Y239.794560 Z-0.125000 I1.132427 J11.292929
G02 X16.480174 Y239.823661 Z-0.125000 I0.276409 J2.253352
G02 X16.322976 Y239.866381 Z-0.125000 I0.255117 J1.249341
G02 X16.217830 Y239.904831 Z-0.125000 I0.849681 J2.486561
G01 X16.217830 Y239.904831 Z-0.125000
G01 X16.217830 Y239.904831 Z-0.125000
G00 Z5.000000

(End cutting path id: _119523552)


(Start cutting path id: _119523552)
(Change tool to Default tool)

G00 Z5.000000
G00 X31.831969 Y239.904831

G01 Z-0.125000 F100.0(Penetrate)
G03 X31.422005 Y240.018512 Z-0.125000 I-8.430919 J-29.608009 F400.000000
G03 X30.921669 Y240.139392 Z-0.125000 I-2.527427 J-9.365395
G03 X30.370649 Y240.238351 Z-0.125000 I-1.781689 J-8.337212
G03 X29.800494 Y240.273340 Z-0.125000 I-0.493940 J-3.385931
G03 X29.280730 Y240.203586 Z-0.125000 I0.052672 J-2.363843
G03 X28.809916 Y240.041543 Z-0.125000 I0.694116 J-2.781734
G03 X28.343593 Y239.793982 Z-0.125000 I1.541256 J-3.466196
G03 X27.924451 Y239.486449 Z-0.125000 I1.828329 J-2.931253
