%
(Header)
(Generated by gcodetools from Inkscape.)
(Using default header. To add your own header create file "header" in the output dir.)
M3
(Header end.)
G21 (All units in mm)

(Start cutting path id: path3207)
(Change tool to Default tool)

G00 Z5.000000
G00 X82.219981 Y1.043500

G01 Z-0.125000 F100.0(Penetrate)
G02 X81.830633 Y1.416374 Z-0.125000 I3.525099 J4.070551 F400.000000
G02 X81.250415 Y2.069905 Z-0.125000 I10.286910 J9.717251
G02 X81.216292 Y2.635162 Z-0.125000 I0.366627 J0.305790
G02 X82.181252 Y3.507582 Z-0.125000 I2.114749 J-1.369198
G03 X83.644816 Y4.316567 Z-0.125000 I-12.311405 J24.001379
G03 X84.288673 Y4.759294 Z-0.125000 I-3.006355 J5.061686
G03 X84.484400 Y5.247017 Z-0.125000 I-0.327630 J0.414616
G03 X84.134752 Y5.861180 Z-0.125000 I-0.946441 J-0.132207
G02 X83.366514 Y6.478218 Z-0.125000 I139.444394 J174.400843
G02 X83.012153 Y6.766910 Z-0.125000 I30.245215 J37.486840
G03 X82.676059 Y6.827544 Z-0.125000 I-0.222261 J-0.270189
G03 X82.117879 Y6.459192 Z-0.125000 I0.436486 J-1.268520
G02 X81.259444 Y6.116238 Z-0.125000 I-0.779586 J0.705517
G02 X80.003377 Y6.618224 Z-0.125000 I0.168824 J2.244887
G01 X79.104332 Y7.353193 Z-0.125000
G01 X80.479737 Y8.689933 Z-0.125000
G03 X81.729807 Y10.117148 Z-0.125000 I-8.240104 J8.478411
G03 X82.569793 Y11.502952 Z-0.125000 I-6.922783 J5.143625
G02 X83.386201 Y12.722009 Z-0.125000 I4.756642 J-2.302639
G02 X83.734772 Y12.806381 Z-0.125000 I0.235430 J-0.210422
G03 X84.194179 Y12.682565 Z-0.125000 I0.828066 J2.158254
G03 X84.804431 Y12.633590 Z-0.125000 I0.610253 J3.777574
G02 X85.292890 Y12.464090 Z-0.125000 I0.000000 J-0.788562
G02 X85.584759 Y12.017908 Z-0.125000 I-0.519466 J-0.658361
G03 X87.091760 Y10.816679 Z-0.125000 I1.556748 J0.407098
G03 X88.073219 Y11.940946 Z-0.125000 I0.029832 J0.964486
G02 X88.200130 Y12.319266 Z-0.125000 I0.418065 J0.070202
G02 X88.752364 Y12.582703 Z-0.125000 I0.684519 J-0.724400
G03 X89.484997 Y12.762238 Z-0.125000 I-0.467178 J3.491021
G03 X89.814417 Y12.967504 Z-0.125000 I-0.317676 J0.876787
G02 X90.523605 Y13.133793 Z-0.125000 I0.494408 J-0.513135
G02 X91.407678 Y12.463845 Z-0.125000 I-0.498059 J-1.575536
G02 X91.476463 Y11.535063 Z-0.125000 I-0.803431 J-0.526440
G02 X90.716606 Y10.965708 Z-0.125000 I-0.906586 J0.418196
G03 X90.354092 Y10.714632 Z-0.125000 I0.073259 J-0.493019
G03 X90.232643 Y10.094025 Z-0.125000 I0.896179 J-0.497564
G02 X89.808799 Y7.769427 Z-0.125000 I-3.960418 J-0.478837
G02 X86.930346 Y3.766662 Z-0.125000 I-15.396582 J8.035577
G02 X83.320869 Y0.938884 Z-0.125000 I-11.810326 J11.357601
G02 X82.219981 Y1.043500 Z-0.125000 I-0.477007 J0.825100
G01 X82.219981 Y1.043500 Z-0.125000
G00 Z5.000000

(End cutting path id: path3207)


(Start cutting path id: path3207)
(Change tool to Default tool)

G00 Z5.000000
G00 X91.071430 Y1.534722

G01 Z-0.125000 F100.0(Penetrate)
G02 X90.993174 Y1.721548 Z-0.125000 I0.551151 J0.340664 F400.000000
G02 X90.747018 Y2.861979 Z-0.125000 I20.886970 J5.105116
G02 X90.853113 Y3.746643 Z-0.125000 I1.459030 J0.273717
G02 X91.267264 Y4.014044 Z-0.125000 I0.414151 J-0.187019
G03 X91.852683 Y4.235834 Z-0.125000 I-0.000000 J0.883507
G03 X92.398145 Y5.014527 Z-0.125000 I-1.350228 J1.526203
G03 X94.363239 Y10.647156 Z-0.125000 I-69.518770 J27.412600
G03 X94.601344 Y12.245586 Z-0.125000 I-5.246194 J1.598430
G02 X94.767067 Y12.489424 Z-0.125000 I0.262249 J0.000000
G02 X95.293985 Y12.519781 Z-0.125000 I0.309357 J-0.781477
G03 X95.992658 Y12.378854 Z-0.125000 I1.469061 J5.480769
G03 X96.679270 Y12.329936 Z-0.125000 I0.718690 J5.244444
G02 X97.097474 Y11.863705 Z-0.125000 I-0.002605 J-0.423015
G02 X96.229839 Y7.953638 Z-0.125000 I-17.208931 J1.767325
G03 X95.223463 Y4.690682 Z-0.125000 I45.812937 J-15.916520
G03 X95.285318 Y4.458812 Z-0.125000 I0.231245 J-0.062497
G03 X97.532797 Y3.750463 Z-0.125000 I1.803901 J1.803870
G03 X98.596428 Y5.043401 Z-0.125000 I-0.223919 J1.268171
G03 X98.510130 Y5.371078 Z-0.125000 I-0.717483 J-0.013758
G03 X97.987593 Y6.168929 Z-0.125000 I-5.000834 J-2.705158
G02 X97.471221 Y6.968873 Z-0.125000 I4.145168 J3.242380
G02 X97.378758 Y7.330937 Z-0.125000 I0.718003 J0.376201
G02 X97.749997 Y7.941969 Z-0.125000 I0.669257 J0.011677
G02 X99.375587 Y8.323817 Z-0.125000 I1.625591 J-3.269283
G02 X101.418362 Y7.107182 Z-0.125000 I0.000000 J-2.323265
G02 X102.602807 Y2.366572 Z-0.125000 I-8.627829 J-4.673941
G02 X102.181203 Y1.660250 Z-0.125000 I-0.811804 J0.005578
G02 X100.553701 Y1.243474 Z-0.125000 I-1.627502 J2.969291
G02 X100.232946 Y1.358326 Z-0.125000 I0.000000 J0.505322
G02 X99.858489 Y1.814582 Z-0.125000 I0.962583 J1.171799
G03 X99.423279 Y2.126655 Z-0.125000 I-0.534683 J-0.286152
G03 X97.923653 Y2.136307 Z-0.125000 I-0.780035 J-4.691129
G02 X91.429786 Y1.355014 Z-0.125000 I-15.386422 J100.509057
G02 X91.071430 Y1.534722 Z-0.125000 I-0.033408 J0.380535
G01 X91.071430 Y1.534722 Z-0.125000
G00 Z5.000000

(End cutting path id: path3207)


(Start cutting path id: path3207)
(Change tool to Default tool)

G00 Z5.000000
G00 X87.213161 Y8.844407

G01 Z-0.125000 F100.0(Penetrate)
G03 X86.687966 Y9.408946 Z-0.125000 I-0.566012 J0.000000 F400.000000
G03 X84.299648 Y9.055032 Z-0.125000 I-0.400183 J-5.534954
G03 X84.249936 Y8.837940 Z-0.125000 I0.048058 J-0.125243
G03 X85.121036 Y8.180702 Z-0.125000 I2.347109 J2.204956
G03 X86.382717 Y7.791181 Z-0.125000 I1.721615 J3.338323
G03 X86.828360 Y7.970077 Z-0.125000 I0.060825 J0.492994
G03 X87.134324 Y8.469561 Z-0.125000 I-1.685600 J1.375984
G03 X87.213161 Y8.844407 Z-0.125000 I-0.851717 J0.374846
G01 X87.213161 Y8.844407 Z-0.125000
G00 Z5.000000

(End cutting path id: path3207)


(Start cutting path id: path3207)
(Change tool to Default tool)

G00 Z5.000000
G00 X69.416595 Y8.664996

G01 Z-0.125000 F100.0(Penetrate)
G02 X68.205338 Y9.990215 Z-0.125000 I3.125725 J4.073085 F400.000000
G02 X68.211508 Y10.566993 Z-0.125000 I0.447660 J0.283633
G02 X69.396918 Y11.256362 Z-0.125000 I1.292062 J-0.857900
G02 X71.184118 Y10.771892 Z-0.125000 I0.194471 J-2.821305
G02 X72.604058 Y9.635305 Z-0.125000 I-6.678188 J-9.798332
G02 X72.744043 Y9.313463 Z-0.125000 I-0.301526 J-0.322512
G02 X72.283519 Y7.855393 Z-0.125000 I-2.526809 J-0.003683
G02 X71.400907 Y7.405311 Z-0.125000 I-0.867403 J0.610535
G02 X71.082758 Y7.500501 Z-0.125000 I0.009797 J0.612008
G02 X69.416595 Y8.664996 Z-0.125000 I12.226068 J19.267326
G01 X69.416595 Y8.664996 Z-0.125000
G00 Z5.000000

(End cutting path id: path3207)


(Start cutting path id: path3207)
(Change tool to Default tool)

G00 Z5.000000
G00 X68.261064 Y2.318608

G01 Z-0.125000 F100.0(Penetrate)
G02 X68.501302 Y3.810657 Z-0.125000 I2.195471 J0.411867 F400.000000
G02 X69.367787 Y4.321883 Z-0.125000 I0.866485 J-0.478695
G03 X72.090258 Y5.038302 Z-0.125000 I-0.000000 J5.531057
G03 X74.917887 Y7.460231 Z-0.125000 I-4.761649 J8.420889
G03 X76.029653 Y9.050148 Z-0.125000 I-12.979380 J10.259628
G03 X76.319753 Y9.738716 Z-0.125000 I-2.090199 J1.286015
G02 X76.777611 Y10.089548 Z-0.125000 I0.449854 J-0.112905
G02 X77.747052 Y9.714078 Z-0.125000 I-0.026000 J-1.506387
G02 X78.294733 Y8.524795 Z-0.125000 I-1.066702 J-1.211979
G02 X77.789019 Y6.729126 Z-0.125000 I-3.277251 J-0.046075
G02 X75.061807 Y3.878238 Z-0.125000 I-8.390848 J5.296944
G02 X70.610838 Y1.739519 Z-0.125000 I-8.872775 J12.764570
G02 X68.847496 Y1.698234 Z-0.125000 I-0.957728 J3.227916
G02 X68.261064 Y2.318566 Z-0.125000 I0.188699 J0.765745
G01 X68.261064 Y2.318608 Z-0.125000
G00 Z5.000000

(End cutting path id: path3207)


(Start cutting path id: path3207)
(Change tool to Default tool)

G00 Z5.000000
G00 X66.606728 Y14.711516

G01 Z-0.125000 F100.0(Penetrate)
G02 X65.648618 Y16.184035 Z-0.125000 I1.795428 J2.216177 F400.000000
G02 X65.570052 Y18.550077 Z-0.125000 I4.999931 J1.350350
G02 X67.429813 Y20.577181 Z-0.125000 I2.601819 J-0.520363
G02 X70.141979 Y19.881828 Z-0.125000 I0.768671 J-2.638826
G02 X70.655822 Y19.026080 Z-0.125000 I-1.457043 J-1.457043
G02 X70.897590 Y17.405124 Z-0.125000 I-5.313056 J-1.620956
G02 X70.655825 Y15.784148 Z-0.125000 I-5.555016 J0.000000
G02 X70.141979 Y14.928390 Z-0.125000 I-1.970885 J0.601281
G02 X68.392169 Y14.139970 Z-0.125000 I-1.915724 J1.915771
G02 X66.606728 Y14.711516 Z-0.125000 I-0.158296 J2.580027
G01 X66.606728 Y14.711516 Z-0.125000
G00 Z5.000000

(End cutting path id: path3207)


(Start cutting path id: path3207)
(Change tool to Default tool)

G00 Z5.000000
G00 X68.863687 Y16.198943

G01 Z-0.125000 F100.0(Penetrate)
G03 X68.987423 Y16.697580 Z-0.125000 I-1.951943 J0.749043 F400.000000
G03 X69.050544 Y17.747813 Z-0.125000 I-8.705621 J1.050233
G03 X68.530269 Y18.888851 Z-0.125000 I-1.511369 J0.000000
G03 X67.767703 Y18.862074 Z-0.125000 I-0.366919 J-0.422431
G03 X67.232791 Y17.641605 Z-0.125000 I1.295134 J-1.295093
G03 X67.652644 Y16.040250 Z-0.125000 I2.824495 J-0.115174
G03 X68.282545 Y15.741039 Z-0.125000 I0.546436 J0.337719
G03 X68.863687 Y16.198943 Z-0.125000 I-0.093954 J0.716966
G01 X68.863687 Y16.198943 Z-0.125000
G00 Z5.000000

(End cutting path id: path3207)


(Start cutting path id: path3207)
(Change tool to Default tool)

G00 Z5.000000
G00 X61.946844 Y14.403674

G01 Z-0.125000 F100.0(Penetrate)
G02 X61.936241 Y14.635062 Z-0.125000 I2.096586 J0.212012 F400.000000
G02 X61.968265 Y16.735693 Z-0.125000 I173.661814 J-1.596895
G03 X61.744920 Y18.634355 Z-0.125000 I-6.927434 J0.147576
G03 X61.375937 Y19.003464 Z-0.125000 I-0.499664 J-0.130511
G02 X60.928154 Y19.316226 Z-0.125000 I0.199280 J0.762237
G02 X60.738834 Y19.920616 Z-0.125000 I0.870076 J0.604390
G02 X61.024485 Y20.366171 Z-0.125000 I0.490312 J-0.000000
G02 X62.168580 Y20.577364 Z-0.125000 I0.988981 J-2.153055
G01 X63.598324 Y20.483534 Z-0.125000
G01 X63.630824 Y17.485871 Z-0.125000
G02 X63.475365 Y14.615801 Z-0.125000 I-22.143474 J-0.239831
G02 X63.253344 Y14.330502 Z-0.125000 I-0.347773 J0.041601
G02 X62.196786 Y14.164702 Z-0.125000 I-0.914205 J2.376412
G02 X61.946838 Y14.403674 Z-0.125000 I0.014882 J0.265765
G01 X61.946844 Y14.403674 Z-0.125000
G00 Z5.000000

(End cutting path id: path3207)


(Start cutting path id: path3207)
(Change tool to Default tool)

G00 Z5.000000
G00 X57.506509 Y17.409341

G01 Z-0.125000 F100.0(Penetrate)
G03 X57.258106 Y18.695923 Z-0.125000 I-3.456074 J-0.000000 F400.000000
G03 X56.890827 Y18.944330 Z-0.125000 I-0.367279 J-0.147314
G03 X56.486090 Y18.715351 Z-0.125000 I0.000000 J-0.472190
G03 X56.177674 Y17.757541 Z-0.125000 I1.895097 J-1.138784
G03 X56.430177 Y16.064486 Z-0.125000 I3.741665 J-0.307323
G03 X56.966858 Y15.770428 Z-0.125000 I0.445940 J0.177107
G03 X57.289093 Y16.053891 Z-0.125000 I-0.080099 J0.415941
G03 X57.506509 Y17.409341 Z-0.125000 I-4.116467 J1.355450
G01 X57.506509 Y17.409341 Z-0.125000
G00 Z5.000000

(End cutting path id: path3207)


(Start cutting path id: path3207)
(Change tool to Default tool)

G00 Z5.000000
G00 X54.882130 Y15.019356

G01 Z-0.125000 F100.0(Penetrate)
G02 X54.009701 Y17.792393 Z-0.125000 I3.210735 J2.533890 F400.000000
G02 X55.177800 Y20.067550 Z-0.125000 I3.160275 J-0.185094
G02 X56.810160 Y20.672449 Z-0.125000 I1.711454 J-2.113502
G02 X58.506626 Y20.164425 Z-0.125000 I0.081853 J-2.813216
G02 X60.004364 Y17.391551 Z-0.125000 I-2.017845 J-2.880848
G02 X58.677122 Y14.613162 Z-0.125000 I-3.355936 J-0.103071
G02 X58.075214 Y14.330333 Z-0.125000 I-0.966024 J1.273966
G02 X56.836209 Y14.182584 Z-0.125000 I-1.281879 J5.480733
G02 X55.667743 Y14.417584 Z-0.125000 I-0.022390 J2.911091
G02 X54.882130 Y15.019356 Z-0.125000 I0.790375 J1.845529
G01 X54.882130 Y15.019356 Z-0.125000
G00 Z5.000000

(End cutting path id: path3207)


(Start cutting path id: path3207)
(Change tool to Default tool)

G00 Z5.000000
G00 X50.887929 Y16.635521

G01 Z-0.125000 F100.0(Penetrate)
G02 X51.221786 Y17.225180 Z-0.125000 I0.687657 J0.000000 F400.000000
G02 X52.427133 Y17.559046 Z-0.125000 I1.205346 J-2.008885
G02 X53.632512 Y17.225150 Z-0.125000 I-0.000000 J-2.342686
G02 X53.966339 Y16.635521 Z-0.125000 I-0.353808 J-0.589629
G02 X53.632481 Y16.045863 Z-0.125000 I-0.687654 J0.000000
G02 X52.427133 Y15.712000 Z-0.125000 I-1.205348 J2.008905
G02 X51.221755 Y16.045895 Z-0.125000 I0.000000 J2.342683
G02 X50.887929 Y16.635521 Z-0.125000 I0.353807 J0.589626
G01 X50.887929 Y16.635521 Z-0.125000
G00 Z5.000000

(End cutting path id: path3207)


(Start cutting path id: path3207)
(Change tool to Default tool)

G00 Z5.000000
G00 X45.311342 Y14.403674

G01 Z-0.125000 F100.0(Penetrate)
G02 X45.452454 Y15.424144 Z-0.125000 I1.781873 J0.273592 F400.000000
G02 X46.606980 Y17.249973 Z-0.125000 I7.214761 J-3.284172
G03 X47.768988 Y18.690938 Z-0.125000 I-32.308271 J27.242714
G03 X47.809723 Y18.810202 Z-0.125000 I-0.155099 J0.119563
G03 X47.746652 Y18.881133 Z-0.125000 I-0.071302 J0.000106
G03 X46.655319 Y18.944330 Z-0.125000 I-1.091333 J-9.391343
G02 X45.769021 Y19.212639 Z-0.125000 I0.000000 J1.597997
G02 X45.500711 Y19.713931 Z-0.125000 I0.334134 J0.501291
G02 X45.826784 Y20.157454 Z-0.125000 I0.464676 J-0.000000
G02 X47.963438 Y20.483534 Z-0.125000 I2.136654 J-6.837226
G02 X50.194442 Y20.217754 Z-0.125000 I0.000000 J-9.496615
G02 X50.510847 Y19.867852 Z-0.125000 I-0.098355 J-0.406947
G02 X50.402876 Y19.306860 Z-0.125000 I-0.881451 J-0.121238
G02 X49.198206 Y17.559046 Z-0.125000 I-10.679456 J6.071686
G01 X47.800881 Y15.865921 Z-0.125000
G01 X49.190484 Y15.772091 Z-0.125000
G02 X50.302825 Y15.419095 Z-0.125000 I-0.165488 J-2.450553
G02 X50.580087 Y14.925528 Z-0.125000 I-0.300680 J-0.493567
G02 X50.256782 Y14.496105 Z-0.125000 I-0.446839 J-0.000000
G02 X47.963438 Y14.172794 Z-0.125000 I-2.293343 J7.972038
G02 X45.440843 Y14.282391 Z-0.125000 I0.000000 J29.086144
G02 X45.311342 Y14.403674 Z-0.125000 I0.012456 J0.143078
G01 X45.311342 Y14.403674 Z-0.125000
G00 Z5.000000

(End cutting path id: path3207)


(Start cutting path id: path3207)
(Change tool to Default tool)

G00 Z5.000000
G00 X41.652701 Y14.096726

G01 Z-0.125000 F100.0(Penetrate)
G02 X40.078769 Y15.354508 Z-0.125000 I0.353069 J2.055479 F400.000000
G02 X40.729177 Y16.327682 Z-0.125000 I0.650407 J0.269241
G02 X41.523758 Y16.198739 Z-0.125000 I-0.000000 J-2.512683
G02 X41.652701 Y16.019839 Z-0.125000 I-0.059633 J-0.178900
G03 X41.771593 Y15.830892 Z-0.125000 I0.209586 J-0.000000
G03 X42.294034 Y15.712000 Z-0.125000 I0.522441 J1.088417
G03 X42.520344 Y16.107391 Z-0.125000 I0.000000 J0.262462
G03 X41.678349 Y16.760199 Z-0.125000 I-1.237714 J-0.727001
G02 X40.286966 Y18.932709 Z-0.125000 I0.538163 J1.876477
G02 X42.273203 Y20.637455 Z-0.125000 I1.986237 J-0.304731
G02 X44.691774 Y19.893247 Z-0.125000 I0.000000 J-4.302107
G02 X44.916192 Y18.840834 Z-0.125000 I-0.437366 J-0.643399
G02 X43.604232 Y18.087884 Z-0.125000 I-1.351352 J0.835159
G02 X42.884065 Y18.790409 Z-0.125000 I-0.017426 J0.702525
G03 X42.776748 Y18.990932 Z-0.125000 I-0.240997 J0.000000
G03 X42.422301 Y19.098249 Z-0.125000 I-0.354447 J-0.531674
G03 X42.239414 Y18.781266 Z-0.125000 I0.000000 J-0.211251
G03 X42.941037 Y18.200985 Z-0.125000 I1.132058 J0.654473
G02 X44.743386 Y16.571485 Z-0.125000 I-1.027806 J-2.948345
G02 X44.500230 Y14.855063 Z-0.125000 I-1.440661 J-0.671344
G02 X43.409245 Y14.175974 Z-0.125000 I-1.656935 J1.446036
G02 X41.652701 Y14.096726 Z-0.125000 I-1.059558 J3.978609
G01 X41.652701 Y14.096726 Z-0.125000
G00 Z5.000000

(End cutting path id: path3207)


(Start cutting path id: path3207)
(Change tool to Default tool)

G00 Z5.000000
G00 X32.417473 Y17.194869

G01 Z-0.125000 F100.0(Penetrate)
G02 X32.753550 Y19.979929 Z-0.125000 I11.707870 J-0.000000 F400.000000
G02 X33.204452 Y20.408268 Z-0.125000 I0.558945 J-0.136891
G02 X34.184432 Y20.097103 Z-0.125000 I0.202697 J-1.060381
G02 X35.179466 Y18.359247 Z-0.125000 I-2.948399 J-2.841935
G03 X35.653637 Y17.161735 Z-0.125000 I5.972179 J1.672132
G03 X35.829740 Y17.113352 Z-0.125000 I0.110551 J0.057701
G03 X36.014724 Y17.328217 Z-0.125000 I-0.247177 J0.399866
G03 X36.614569 Y18.946729 Z-0.125000 I-16.016395 J6.856321
G02 X37.380314 Y20.267935 Z-0.125000 I3.338318 J-1.052316
G02 X38.089239 Y20.545072 Z-0.125000 I0.639166 J-0.589711
G01 X39.036052 Y20.468881 Z-0.125000
G01 X39.123781 Y17.320839 Z-0.125000
G01 X39.211513 Y14.172794 Z-0.125000
G01 X38.448838 Y14.172794 Z-0.125000
G02 X37.940347 Y14.446843 Z-0.125000 I0.000000 J0.608771
G02 X37.587612 Y15.481119 Z-0.125000 I1.819842 J1.197937
G01 X37.489054 Y16.789442 Z-0.125000
G01 X37.059421 Y15.481119 Z-0.125000
G02 X36.427611 Y14.451990 Z-0.125000 I-2.481280 J0.814819
G02 X35.754993 Y14.172794 Z-0.125000 I-0.672618 J0.670609
G02 X35.025923 Y14.323857 Z-0.125000 I0.000000 J1.834873
G02 X34.866315 Y14.557595 Z-0.125000 I0.105345 J0.243298
G03 X34.796967 Y14.928833 Z-0.125000 I-1.274995 J-0.046075
G03 X34.413439 Y15.865921 Z-0.125000 I-8.663048 J-2.998556
G01 X33.974445 Y16.789442 Z-0.125000
G01 X34.042520 Y15.558079 Z-0.125000
G02 X33.806575 Y14.582959 Z-0.125000 I-1.736271 J-0.095989
G02 X33.264035 Y14.229314 Z-0.125000 I-0.625397 J0.366457
G01 X32.417473 Y14.131883 Z-0.125000
G01 X32.417473 Y17.194869 Z-0.125000
G01 X32.417473 Y17.194869 Z-0.125000
G00 Z5.000000

(End cutting path id: path3207)


(Start cutting path id: path3207)
(Change tool to Default tool)

G00 Z5.000000
G00 X33.160471 Y1.217831

G01 Z-0.125000 F100.0(Penetrate)
G02 X33.088385 Y1.368829 Z-0.125000 I0.179841 J0.178560 F400.000000
G02 X33.033155 Y2.381501 Z-0.125000 I9.256177 J1.012672
G02 X33.360061 Y3.421724 Z-0.125000 I1.818457 J-0.000000
G02 X37.229201 Y8.398098 Z-0.125000 I49.847072 J-34.763866
G03 X37.913119 Y9.258965 Z-0.125000 I-10.051842 J8.687817
G03 X37.958610 Y9.398581 Z-0.125000 I-0.191504 J0.139617
G03 X37.882938 Y9.479516 Z-0.125000 I-0.081118 J0.000000
G03 X35.631216 Y9.555181 Z-0.125000 I-2.251721 J-33.466828
G01 X33.303828 Y9.555181 Z-0.125000
G01 X33.399369 Y10.709583 Z-0.125000
G01 X33.494915 Y11.863987 Z-0.125000
G01 X37.727727 Y11.949628 Z-0.125000
G01 X41.960541 Y12.035271 Z-0.125000
G01 X41.960541 Y10.895982 Z-0.125000
G02 X41.675679 Y9.858421 Z-0.125000 I-2.032002 J-0.000000
G02 X39.494799 Y6.743946 Z-0.125000 I-21.816610 J12.956054
G01 X37.029060 Y3.731198 Z-0.125000
G01 X39.571761 Y3.641739 Z-0.125000
G01 X42.114462 Y3.552280 Z-0.125000
G01 X42.209049 Y2.413886 Z-0.125000
G01 X42.303638 Y1.275489 Z-0.125000
G01 X37.795711 Y1.182522 Z-0.125000
G02 X33.313598 Y1.153376 Z-0.125000 I-3.273232 J158.713818
G02 X33.160471 Y1.217831 Z-0.125000 I0.001661 J0.218066
G01 X33.160471 Y1.217831 Z-0.125000
G00 Z5.000000

(End cutting path id: path3207)


(Start cutting path id: path3207)
(Change tool to Default tool)

G00 Z5.000000
G00 X44.423268 Y2.474869

G01 Z-0.125000 F100.0(Penetrate)
G02 X44.729847 Y3.610000 Z-0.125000 I2.254748 J-0.000000 F400.000000
G02 X46.732075 Y6.437368 Z-0.125000 I16.914205 J-9.855329
G03 X48.978711 Y9.174883 Z-0.125000 I-76.786609 J65.308228
G03 X49.040884 Y9.353575 Z-0.125000 I-0.225707 J0.178692
G03 X48.944785 Y9.459085 Z-0.125000 I-0.105970 J0.000000
G03 X46.885996 Y9.555181 Z-0.125000 I-2.058789 J-22.006021
G01 X44.731111 Y9.555181 Z-0.125000
G01 X44.731111 Y10.765118 Z-0.125000
G02 X45.352439 Y11.570365 Z-0.125000 I0.832467 J0.000000
G02 X49.733525 Y12.076766 Z-0.125000 I3.969850 J-15.140335
G01 X53.350657 Y11.981705 Z-0.125000
G01 X53.350657 Y10.933077 Z-0.125000
G02 X53.025301 Y9.804493 Z-0.125000 I-2.120075 J-0.000000
G02 X50.979240 Y7.161934 Z-0.125000 I-14.531358 J9.137847
G03 X48.588825 Y4.390157 Z-0.125000 I29.775480 J-28.095396
G03 X48.425202 Y3.917812 Z-0.125000 I0.599970 J-0.472345
G03 X48.514947 Y3.817717 Z-0.125000 I0.100691 J0.000000
G03 X50.949953 Y3.641680 Z-0.125000 I3.610915 J33.018453
G01 X53.474705 Y3.552280 Z-0.125000
G01 X53.489635 Y2.474838 Z-0.125000
G01 X53.504564 Y1.397395 Z-0.125000
G01 X48.963910 Y1.312215 Z-0.125000
G01 X44.423257 Y1.227006 Z-0.125000
G01 X44.423257 Y2.474869 Z-0.125000
G01 X44.423268 Y2.474869 Z-0.125000
G00 Z5.000000

(End cutting path id: path3207)


(Start cutting path id: path3207)
(Change tool to Default tool)

G00 Z5.000000
G00 X55.526094 Y1.916015

G01 Z-0.125000 F100.0(Penetrate)
G02 X55.094387 Y2.821273 Z-0.125000 I1.765788 J1.397649 F400.000000
G02 X55.236754 Y3.207314 Z-0.125000 I0.369858 J0.082874
G03 X58.052348 Y5.984687 Z-0.125000 I-8.829754 J11.767125
G03 X58.583952 Y7.543286 Z-0.125000 I-2.019014 J1.558600
G03 X58.361553 Y7.836767 Z-0.125000 I-0.304840 J-0.000000
G03 X57.069437 Y7.968722 Z-0.125000 I-1.025676 J-3.651279
G01 X55.554920 Y7.862054 Z-0.125000
G01 X55.445135 Y9.016458 Z-0.125000
G01 X55.335354 Y10.170863 Z-0.125000
G01 X57.094990 Y10.170863 Z-0.125000
G01 X58.854628 Y10.170863 Z-0.125000
G01 X58.950169 Y11.325265 Z-0.125000
G02 X59.480882 Y12.075978 Z-0.125000 I0.901902 J-0.074646
G02 X61.258055 Y12.363182 Z-0.125000 I1.423216 J-3.164595
G02 X61.491093 Y12.194250 Z-0.125000 I-0.029333 J-0.285665
G02 X61.719816 Y11.325265 Z-0.125000 I-2.556777 J-1.137555
G03 X62.066226 Y10.599985 Z-0.125000 I1.168318 J0.112649
G03 X62.739804 Y10.324781 Z-0.125000 I0.673577 J0.686707
G03 X63.358603 Y10.726441 Z-0.125000 I0.000000 J0.677492
G03 X63.372873 Y11.745008 Z-0.125000 I-1.179828 J0.525914
G02 X63.464895 Y12.105244 Z-0.125000 I0.287214 J0.118503
G02 X64.552523 Y12.697528 Z-0.125000 I2.165529 J-2.681860
G02 X66.047307 Y12.756834 Z-0.125000 I0.851149 J-2.585456
G02 X66.835164 Y12.142030 Z-0.125000 I-0.287242 J-1.180306
G02 X66.795439 Y11.241086 Z-0.125000 I-0.791738 J-0.416438
G02 X65.961876 Y10.786545 Z-0.125000 I-0.833564 J0.537048
G03 X65.456762 Y10.477307 Z-0.125000 I0.000000 J-0.567150
G03 X65.567154 Y10.013493 Z-0.125000 I0.327332 J-0.167136
G02 X65.829122 Y9.528870 Z-0.125000 I-0.378615 J-0.517780
G02 X65.771460 Y6.066327 Z-0.125000 I-25.312801 J-1.310221
G02 X64.467150 Y2.216134 Z-0.125000 I-8.464151 J0.721332
G02 X62.692094 Y1.243474 Z-0.125000 I-1.775056 J1.133365
G02 X61.271080 Y1.469629 Z-0.125000 I-0.000000 J4.577454
G02 X61.042477 Y1.782197 Z-0.125000 I0.102921 J0.315154
G03 X60.999214 Y2.315624 Z-0.125000 I-3.701418 J-0.031730
G03 X60.850656 Y3.021195 Z-0.125000 I-6.572261 J-1.015365
G02 X61.009626 Y3.419792 Z-0.125000 I0.346458 J0.092824
G02 X61.769007 Y3.584298 Z-0.125000 I0.614676 J-1.002470
G03 X62.622694 Y3.784752 Z-0.125000 I0.155676 J1.255067
G03 X63.036515 Y4.423227 Z-0.125000 I-0.525467 J0.793921
G03 X63.170726 Y5.402443 Z-0.125000 I-17.540080 J2.902845
G03 X63.276768 Y6.630690 Z-0.125000 I-27.495586 J2.992557
G03 X63.016857 Y7.573744 Z-0.125000 I-1.494227 J0.095525
G03 X62.365566 Y7.957733 Z-0.125000 I-0.737337 J-0.506284
G03 X61.586067 Y7.765626 Z-0.125000 I-0.116464 J-1.204945
G03 X61.189814 Y7.188129 Z-0.125000 I0.504733 J-0.771020
G02 X60.137660 Y4.361472 Z-0.125000 I-10.219367 J2.194762
G02 X58.528475 Y2.329507 Z-0.125000 I-6.770376 J3.708532
G02 X56.939025 Y1.045575 Z-0.125000 I-12.929134 J14.379888
G02 X56.626653 Y0.952658 Z-0.125000 I-0.288578 J0.398620
G02 X56.328305 Y1.073008 Z-0.125000 I0.023280 J0.487688
G02 X55.526094 Y1.916015 Z-0.125000 I4.215979 J4.815153
G01 X55.526094 Y1.916015 Z-0.125000
G00 Z5.000000

(End cutting path id: path3207)


(Start cutting path id: path3207)
(Change tool to Default tool)

G00 Z5.000000
G00 X58.430031 Y52.960753

G01 Z-0.125000 F100.0(Penetrate)
G03 X58.444561 Y53.170620 Z-0.125000 I-0.192122 J0.118739 F400.000000
G03 X58.294279 Y53.268595 Z-0.125000 I-0.150282 J-0.066271
G02 X58.101282 Y53.401337 Z-0.125000 I0.000000 J0.206672
G02 X57.969989 Y54.115158 Z-0.125000 I1.852907 J0.709792
G02 X58.404351 Y56.841741 Z-0.125000 I8.894893 J-0.019124
G02 X58.994306 Y57.270526 Z-0.125000 I0.589955 J-0.191459
G02 X60.581497 Y56.497534 Z-0.125000 I0.000000 J-2.015992
G02 X61.354522 Y54.256703 Z-0.125000 I-2.861326 J-2.240830
G03 X61.524414 Y54.034360 Z-0.125000 I0.230439 J0.000000
G03 X62.201084 Y54.026162 Z-0.125000 I0.354142 J1.300487
G03 X64.891099 Y55.197858 Z-0.125000 I-2.085319 J8.461292
G03 X66.527799 Y56.860545 Z-0.125000 I-3.019341 J4.609053
G02 X67.476607 Y57.866340 Z-0.125000 I3.060579 J-1.936748
G02 X67.694706 Y57.697994 Z-0.125000 I0.083844 J-0.116828
G03 X67.746907 Y57.444518 Z-0.125000 I0.224034 J-0.085975
G03 X67.994787 Y57.390155 Z-0.125000 I0.165224 J0.161059
G02 X68.490868 Y57.547888 Z-0.125000 I1.591850 J-4.147498
G02 X68.734201 Y57.578369 Z-0.125000 I0.243333 J-0.956044
G03 X68.886751 Y57.686712 Z-0.125000 I0.000000 J0.161568
G03 X69.108391 Y58.650855 Z-0.125000 I-4.264389 J1.487858
G01 X69.233599 Y59.723342 Z-0.125000
G01 X68.526389 Y59.058960 Z-0.125000
G02 X68.300552 Y59.202246 Z-0.125000 I-0.094531 J0.100624
G02 X69.195541 Y61.118539 Z-0.125000 I8.211034 J-2.667753
G03 X72.685414 Y67.508086 Z-0.125000 I-51.595329 J32.328407
G03 X72.984736 Y69.165470 Z-0.125000 I-2.947844 J1.388099
G03 X72.287148 Y71.548632 Z-0.125000 I-6.166577 J-0.511374
G03 X71.459694 Y72.046892 Z-0.125000 I-0.827453 J-0.437941
G03 X71.127193 Y71.647388 Z-0.125000 I0.000000 J-0.338120
G03 X71.829084 Y70.045928 Z-0.125000 I3.762952 J0.694690
G02 X72.165353 Y68.805397 Z-0.125000 I-1.390012 J-1.042630
G02 X71.511172 Y67.272835 Z-0.125000 I-2.901534 J0.332631
G02 X71.078417 Y66.923099 Z-0.125000 I-1.086235 J0.901474
G02 X70.629018 Y66.812118 Z-0.125000 I-0.452240 J0.865898
G03 X70.036719 Y66.583981 Z-0.125000 I0.005033 J-0.896014
G03 X65.818213 Y62.507670 Z-0.125000 I50.723252 J-56.713623
G02 X61.483277 Y58.787077 Z-0.125000 I-21.179994 J20.291567
G02 X60.567522 Y58.824171 Z-0.125000 I-0.433593 J0.618074
G03 X59.087189 Y58.614769 Z-0.125000 I-0.645033 J-0.777232
G03 X57.455540 Y54.246298 Z-0.125000 I8.126251 J-5.524152
G03 X57.501842 Y52.861735 Z-0.125000 I4.563354 J-0.540449
G03 X57.753301 Y52.652913 Z-0.125000 I0.251459 J0.046991
G03 X58.187324 Y52.746992 Z-0.125000 I0.000000 J1.048197
G03 X58.430031 Y52.960753 Z-0.125000 I-0.230188 J0.506024
G01 X58.430031 Y52.960753 Z-0.125000
G00 Z5.000000

(End cutting path id: path3207)


(Start cutting path id: path3207)
(Change tool to Default tool)

G00 Z5.000000
G00 X56.905373 Y53.222757

G01 Z-0.125000 F100.0(Penetrate)
G02 X56.784607 Y55.855100 Z-0.125000 I4.857912 J1.541812 F400.000000
G02 X58.049386 Y58.445711 Z-0.125000 I5.959100 J-1.305283
G03 X57.949090 Y59.055131 Z-0.125000 I-0.314688 J0.261173
G03 X56.736906 Y59.253702 Z-0.125000 I-0.847998 J-1.377438
G03 X55.084612 Y58.105588 Z-0.125000 I0.610357 J-2.641382
G03 X53.776259 Y54.767627 Z-0.125000 I7.184233 J-4.741337
G03 X53.985651 Y53.882862 Z-0.125000 I1.162337 J-0.192077
G03 X54.933362 Y53.175781 Z-0.125000 I1.611707 J1.171538
G03 X56.673978 Y52.898510 Z-0.125000 I1.624512 J4.596004
G03 X56.905373 Y53.222757 Z-0.125000 I-0.005930 J0.248922
G01 X56.905373 Y53.222757 Z-0.125000
G00 Z5.000000

(End cutting path id: path3207)


(Start cutting path id: path3207)
(Change tool to Default tool)

G00 Z5.000000
G00 X60.584919 Y53.576435

G01 Z-0.125000 F100.0(Penetrate)
G03 X60.791845 Y53.764670 Z-0.125000 I-0.169301 J0.393967 F400.000000
G03 X60.738840 Y53.857926 Z-0.125000 I-0.055318 J0.030250
G03 X60.297562 Y53.800364 Z-0.125000 I-0.048890 J-1.345425
G03 X59.815315 Y53.576435 Z-0.125000 I0.559340 J-1.835818
G03 X59.859356 Y53.427146 Z-0.125000 I0.044040 J-0.068149
G03 X60.584919 Y53.576435 Z-0.125000 I0.000000 J1.837804
G01 X60.584919 Y53.576435 Z-0.125000
G00 Z5.000000

(End cutting path id: path3207)


(Start cutting path id: path3207)
(Change tool to Default tool)

G00 Z5.000000
G00 X60.673014 Y54.331509

G01 Z-0.125000 F100.0(Penetrate)
G03 X60.706400 Y54.603350 Z-0.125000 I-0.157293 J0.157288 F400.000000
G03 X59.282587 Y56.645918 Z-0.125000 I-15.757362 J-9.466454
G03 X58.917125 Y56.589092 Z-0.125000 I-0.166377 J-0.133591
G03 X58.588665 Y54.846280 Z-0.125000 I4.577596 J-1.765078
G03 X58.891048 Y54.180176 Z-0.125000 I0.876116 J-0.003966
G03 X59.561987 Y54.002918 Z-0.125000 I0.516309 J0.595865
G03 X60.518141 Y54.239415 Z-0.125000 I-2.143985 J10.719192
G03 X60.673014 Y54.331509 Z-0.125000 I-0.103708 J0.350675
G01 X60.673014 Y54.331509 Z-0.125000
G00 Z5.000000

(End cutting path id: path3207)


(Start cutting path id: path3207)
(Change tool to Default tool)

G00 Z5.000000
G00 X59.578915 Y60.348936

G01 Z-0.125000 F100.0(Penetrate)
G02 X60.023614 Y60.856056 Z-0.125000 I1.777080 J-1.109798 F400.000000
G02 X60.326070 Y60.964618 Z-0.125000 I0.302456 J-0.367047
G03 X60.517967 Y61.136699 Z-0.125000 I0.000000 J0.193037
G03 X60.716333 Y64.538313 Z-0.125000 I-33.534901 J3.662187
G02 X60.807202 Y68.093791 Z-0.125000 I99.754310 J-0.770592
G02 X60.881088 Y68.333900 Z-0.125000 I0.497225 J-0.021583
G03 X60.958427 Y68.574116 Z-0.125000 I-0.447759 J0.276716
G03 X61.183687 Y72.687110 Z-0.125000 I-139.901451 J9.724767
G02 X61.360438 Y76.817935 Z-0.125000 I755.245217 J-30.246469
G02 X61.645089 Y82.821326 Z-0.125000 I1594.829002 J-72.610504
G01 X61.941039 Y88.824224 Z-0.125000
G01 X60.617989 Y90.157792 Z-0.125000
G01 X59.294940 Y91.491390 Z-0.125000
G01 X58.767128 Y89.542110 Z-0.125000
G02 X57.492627 Y85.492052 Z-0.125000 I-50.686789 J13.724919
G02 X55.574300 Y80.666441 Z-0.125000 I-73.913184 J26.588631
G02 X53.258085 Y75.653189 Z-0.125000 I-118.446220 J51.682647
G02 X51.465918 Y72.251206 Z-0.125000 I-56.310824 J27.491541
G03 X50.427798 Y70.059740 Z-0.125000 I14.432444 J-8.178414
G03 X50.475679 Y69.692402 Z-0.125000 I0.361061 J-0.139727
G03 X50.766266 Y69.366085 Z-0.125000 I1.786215 J1.298091
G03 X55.120741 Y65.415567 Z-0.125000 I270.905568 J294.231649
G02 X59.407083 Y61.449257 Z-0.125000 I-113.193440 J-126.626040
G02 X59.507476 Y61.214093 Z-0.125000 I-0.225233 J-0.235164
G02 X59.407562 Y61.106029 Z-0.125000 I-0.108397 J0.000000
G02 X59.075885 Y61.180199 Z-0.125000 I-0.045244 J0.576371
G02 X57.890600 Y62.031120 Z-0.125000 I3.472348 J6.087759
G02 X51.790121 Y67.660159 Z-0.125000 I150.727353 J169.471216
G03 X49.338810 Y69.594021 Z-0.125000 I-11.311127 J-11.817142
G03 X48.326139 Y69.892006 Z-0.125000 I-1.012671 J-1.571730
G02 X47.329348 Y70.027538 Z-0.125000 I-0.000000 J3.733304
G02 X47.193838 Y70.205696 Z-0.125000 I0.049360 J0.178158
G02 X47.321847 Y70.355319 Z-0.125000 I0.151448 J0.000000
G02 X47.963438 Y70.326248 Z-0.125000 I0.249333 J-1.591654
G03 X48.596150 Y70.308580 Z-0.125000 I0.356237 J1.419398
G03 X48.733041 Y70.474318 Z-0.125000 I-0.031886 J0.165738
G03 X48.598564 Y70.681044 Z-0.125000 I-0.226133 J-0.000000
G03 X47.963438 Y70.815528 Z-0.125000 I-0.635125 J-1.432507
G02 X47.319936 Y70.941645 Z-0.125000 I-0.000000 J1.704765
G02 X47.193838 Y71.129218 Z-0.125000 I0.076460 J0.187573
G02 X47.359298 Y71.281450 Z-0.125000 I0.152761 J0.000000
G02 X49.348723 Y70.949470 Z-0.125000 I-1.021987 J-12.251275
G03 X50.880309 Y71.656525 Z-0.125000 I0.328574 J1.300608
G03 X57.196920 Y86.856198 Z-0.125000 I-114.533926 J56.509838
G03 X58.101052 Y91.414291 Z-0.125000 I-16.510004 J5.643602
G03 X57.606478 Y93.426509 Z-0.125000 I-3.462569 J0.215839
G03 X56.532088 Y95.031049 Z-0.125000 I-18.061351 J-10.931791
G03 X56.352104 Y95.126221 Z-0.125000 I-0.188850 J-0.139371
G03 X56.063201 Y94.795773 Z-0.125000 I-0.010621 J-0.282230
G03 X56.582985 Y93.793641 Z-0.125000 I1.840916 J0.318977
G02 X56.838864 Y93.211082 Z-0.125000 I-0.619621 J-0.619633
G02 X56.617436 Y92.980079 Z-0.125000 I-0.221428 J-0.009377
G03 X56.338215 Y92.790945 Z-0.125000 I-0.000000 J-0.300676
G03 X55.497239 Y90.175924 Z-0.125000 I18.524714 J-7.400178
G02 X54.634792 Y87.434420 Z-0.125000 I-22.317174 J5.514333
G02 X53.157690 Y84.096065 Z-0.125000 I-34.615443 J13.320116
G03 X51.608921 Y80.796764 Z-0.125000 I60.513952 J-30.419832
G03 X51.507314 Y80.319319 Z-0.125000 I1.113142 J-0.486427
G02 X51.391927 Y79.871206 Z-0.125000 I-0.958326 J0.007852
G02 X51.017834 Y79.415127 Z-0.125000 I-1.365705 J0.738740
G03 X50.606669 Y78.952544 Z-0.125000 I1.309896 J-1.578317
G03 X49.746101 Y77.453442 Z-0.125000 I13.425754 J-8.703693
G02 X48.916534 Y75.932780 Z-0.125000 I-23.931253 J12.068608
G02 X48.738756 Y75.740986 Z-0.125000 I-0.526424 J0.309662
G03 X48.554915 Y75.554100 Z-0.125000 I0.404485 J-0.581762
G03 X48.118903 Y74.817462 Z-0.125000 I6.272449 J-4.209981
G02 X47.678038 Y74.075092 Z-0.125000 I-6.597783 J3.416082
G02 X46.841455 Y72.926118 Z-0.125000 I-16.679718 J11.265669
G03 X46.137134 Y71.277978 Z-0.125000 I2.735709 J-2.143649
G03 X46.498632 Y70.546076 Z-0.125000 I0.713567 J-0.102784
G02 X46.515866 Y70.218417 Z-0.125000 I-0.094727 J-0.169265
G02 X45.988840 Y70.185718 Z-0.125000 I-0.289981 J0.410241
G03 X45.405173 Y70.431884 Z-0.125000 I-1.621129 J-3.028715
G01 X45.346792 Y70.389138 Z-0.125000
G03 X45.499735 Y70.065990 Z-0.125000 I0.417855 J0.000000
G03 X54.274178 Y63.070529 Z-0.125000 I261.074647 J318.466612
G02 X56.848073 Y60.996165 Z-0.125000 I-53.576218 J-69.112058
G02 X57.477260 Y60.387662 Z-0.125000 I-3.936789 J-4.700137
G03 X58.655841 Y59.848170 Z-0.125000 I1.208474 J1.082929
G03 X59.578915 Y60.348936 Z-0.125000 I0.019621 J1.064976
G01 X59.578915 Y60.348936 Z-0.125000
G00 Z5.000000

(End cutting path id: path3207)


(Start cutting path id: path3207)
(Change tool to Default tool)

G00 Z5.000000
G00 X62.559915 Y62.785989

G01 Z-0.125000 F100.0(Penetrate)
G03 X62.671382 Y64.635323 Z-0.125000 I-16.101757 J1.898541 F400.000000
G03 X62.566096 Y64.824853 Z-0.125000 I-0.222021 J0.000674
G03 X61.996300 Y64.635772 Z-0.125000 I-0.205782 J-0.332958
G03 X61.588021 Y62.350303 Z-0.125000 I5.443863 J-2.151700
G02 X61.449877 Y60.781865 Z-0.125000 I-7.124353 J-0.162810
G02 X61.182270 Y60.333729 Z-0.125000 I-0.767683 J0.154458
G03 X60.824914 Y59.925274 Z-0.125000 I1.092339 J-1.316235
G03 X60.738831 Y59.625603 Z-0.125000 I0.478565 J-0.299671
G03 X60.852463 Y59.559801 Z-0.125000 I0.075868 J0.000000
G03 X61.537122 Y60.083762 Z-0.125000 I-1.627666 J2.836168
G03 X62.120272 Y60.986373 Z-0.125000 I-1.807537 J1.807478
G03 X62.559907 Y62.785989 Z-0.125000 I-7.104959 J2.689205
G01 X62.559915 Y62.785989 Z-0.125000
G00 Z5.000000

(End cutting path id: path3207)


(Start cutting path id: path3207)
(Change tool to Default tool)

G00 Z5.000000
G00 X62.726218 Y66.467798

G01 Z-0.125000 F100.0(Penetrate)
G02 X62.705075 Y66.868629 Z-0.125000 I0.662339 J0.235909 F400.000000
G02 X62.932282 Y67.321811 Z-0.125000 I1.090300 J-0.263084
G03 X63.160870 Y67.746044 Z-0.125000 I-0.940327 J0.780373
G03 X63.116110 Y67.925180 Z-0.125000 I-0.171601 J0.052283
G03 X62.960458 Y67.928178 Z-0.125000 I-0.079384 J-0.079391
G03 X62.387452 Y67.250638 Z-0.125000 I2.477569 J-2.676388
G01 X61.831988 Y66.402876 Z-0.125000
G01 X61.623939 Y67.146958 Z-0.125000
G03 X61.509787 Y67.149379 Z-0.125000 I-0.057442 J-0.016061
G03 X61.385208 Y66.414419 Z-0.125000 I2.417231 J-0.787772
G01 X61.354516 Y64.937798 Z-0.125000
G01 X62.115839 Y65.490898 Z-0.125000
G03 X62.686604 Y66.102976 Z-0.125000 I-1.288734 J1.773907
G03 X62.726212 Y66.467798 Z-0.125000 I-0.357512 J0.223376
G01 X62.726218 Y66.467798 Z-0.125000
G00 Z5.000000

(End cutting path id: path3207)


(Start cutting path id: path3207)
(Change tool to Default tool)

G00 Z5.000000
G00 X61.866238 Y69.045444

G01 Z-0.125000 F100.0(Penetrate)
G01 X61.785676 Y69.045445 Z-0.125000 F400.000000
G03 X61.710965 Y68.660643 Z-0.125000 I0.953616 J-0.384802
G03 X61.785676 Y68.275840 Z-0.125000 I1.028327 J0.000000
G01 X61.866238 Y68.275841 Z-0.125000
G03 X61.940946 Y68.660643 Z-0.125000 I-0.953655 J0.384802
G03 X61.866238 Y69.045444 Z-0.125000 I-1.028363 J-0.000000
G01 X61.866238 Y69.045444 Z-0.125000
G00 Z5.000000

(End cutting path id: path3207)


(Start cutting path id: path3207)
(Change tool to Default tool)

G00 Z5.000000
G00 X63.119130 Y73.047375

G01 Z-0.125000 F100.0(Penetrate)
G01 X63.060090 Y73.047375 Z-0.125000 F400.000000
G03 X63.001288 Y71.739052 Z-0.125000 I14.525427 J-1.308323
G03 X63.060090 Y70.430729 Z-0.125000 I14.584230 J-0.000000
G01 X63.119130 Y70.430729 Z-0.125000
G03 X63.177929 Y71.739052 Z-0.125000 I-14.526236 J1.308323
G03 X63.119130 Y73.047375 Z-0.125000 I-14.585035 J-0.000000
G01 X63.119130 Y73.047375 Z-0.125000
G00 Z5.000000

(End cutting path id: path3207)


(Start cutting path id: path3207)
(Change tool to Default tool)

G00 Z5.000000
G00 X62.062702 Y73.432177

G01 Z-0.125000 F100.0(Penetrate)
G03 X62.071586 Y75.885635 Z-0.125000 I-28.625809 J1.330397 F400.000000
G03 X61.966114 Y75.894904 Z-0.125000 I-0.053327 J-0.002091
G03 X61.220678 Y69.831296 Z-0.125000 I32.419627 J-7.063166
G03 X61.776692 Y69.609810 Z-0.125000 I0.318300 J-0.009593
G03 X61.839964 Y69.758913 Z-0.125000 I-0.188431 J0.167937
G03 X62.062702 Y73.432177 Z-0.125000 I-129.925750 J9.721758
G01 X62.062702 Y73.432177 Z-0.125000
G00 Z5.000000

(End cutting path id: path3207)


(Start cutting path id: path3207)
(Change tool to Default tool)

G00 Z5.000000
G00 X63.509407 Y77.349669

G01 Z-0.125000 F100.0(Penetrate)
G03 X63.448107 Y79.078588 Z-0.125000 I-24.412202 J0.000000 F400.000000
G01 X63.385020 Y79.101592 Z-0.125000
G03 X63.254857 Y78.819256 Z-0.125000 I0.336537 J-0.326324
G03 X63.144330 Y77.060692 Z-0.125000 I28.111367 J-2.649568
G03 X63.152335 Y75.378911 Z-0.125000 I23.145747 J-0.730743
G03 X63.265592 Y75.318781 Z-0.125000 I0.074210 J0.003050
G03 X63.400579 Y75.530136 Z-0.125000 I-0.151895 J0.245795
G03 X63.509407 Y77.349669 Z-0.125000 I-15.156312 J1.819534
G01 X63.509407 Y77.349669 Z-0.125000
G00 Z5.000000

(End cutting path id: path3207)


(Start cutting path id: path3207)
(Change tool to Default tool)

G00 Z5.000000
G00 X62.180493 Y79.184955

G01 Z-0.125000 F100.0(Penetrate)
G03 X62.084693 Y79.204611 Z-0.125000 I-0.054382 J-0.021762 F400.000000
G03 X61.994506 Y78.998956 Z-0.125000 I0.218364 J-0.218363
G03 X62.060385 Y78.614576 Z-0.125000 I0.930863 J-0.038294
G03 X62.156191 Y78.594916 Z-0.125000 I0.054385 J0.021760
G03 X62.246371 Y78.800563 Z-0.125000 I-0.218367 J0.218355
G03 X62.180490 Y79.184955 Z-0.125000 I-0.930681 J0.038332
G01 X62.180493 Y79.184955 Z-0.125000
G00 Z5.000000

(End cutting path id: path3207)


(Start cutting path id: path3207)
(Change tool to Default tool)

G00 Z5.000000
G00 X63.405445 Y80.743400

G01 Z-0.125000 F100.0(Penetrate)
G01 X63.324882 Y80.743400 Z-0.125000 F400.000000
G03 X63.250172 Y80.358599 Z-0.125000 I0.953625 J-0.384802
G03 X63.324882 Y79.973797 Z-0.125000 I1.028335 J-0.000000
G01 X63.405445 Y79.973797 Z-0.125000
G03 X63.480152 Y80.358599 Z-0.125000 I-0.953655 J0.384802
G03 X63.405445 Y80.743400 Z-0.125000 I-1.028363 J-0.000000
G01 X63.405445 Y80.743400 Z-0.125000
G00 Z5.000000

(End cutting path id: path3207)


(Start cutting path id: path3207)
(Change tool to Default tool)

G00 Z5.000000
G00 X63.817249 Y82.051723

G01 Z-0.125000 F100.0(Penetrate)
G03 X63.764548 Y82.460789 Z-0.125000 I-1.613925 J-0.000000 F400.000000
G03 X63.696263 Y82.513487 Z-0.125000 I-0.068284 J-0.017892
G03 X63.608233 Y82.465542 Z-0.125000 I-0.000000 J-0.104789
G03 X63.398084 Y82.051723 Z-0.125000 I1.887263 J-1.218671
G03 X63.378602 Y81.698366 Z-0.125000 I0.539305 J-0.206951
G03 X63.519067 Y81.589962 Z-0.125000 I0.140466 J0.036803
G03 X63.712112 Y81.695099 Z-0.125000 I0.000000 J0.229795
G03 X63.817249 Y82.051723 Z-0.125000 I-0.552261 J0.356624
G01 X63.817249 Y82.051723 Z-0.125000
G00 Z5.000000

(End cutting path id: path3207)


(Start cutting path id: path3207)
(Change tool to Default tool)

G00 Z5.000000
G00 X63.886058 Y85.822776

G01 Z-0.125000 F100.0(Penetrate)
G03 X63.869577 Y87.022024 Z-0.125000 I-6.573818 J0.509393 F400.000000
G03 X63.748424 Y87.131099 Z-0.125000 I-0.121153 J-0.012746
G03 X63.623277 Y87.019504 Z-0.125000 I0.000000 J-0.125970
G03 X63.545116 Y85.361013 Z-0.125000 I12.270665 J-1.409372
G03 X63.620131 Y84.091643 Z-0.125000 I16.364288 J0.330157
G01 X63.667139 Y84.078680 Z-0.125000
G03 X63.721229 Y84.213552 Z-0.125000 I-0.232073 J0.171356
G03 X63.886058 Y85.822776 Z-0.125000 I-32.437248 J4.135515
G01 X63.886058 Y85.822776 Z-0.125000
G00 Z5.000000

(End cutting path id: path3207)


(Start cutting path id: path3207)
(Change tool to Default tool)

G00 Z5.000000
G00 X65.811104 Y88.046772

G01 Z-0.125000 F100.0(Penetrate)
G02 X66.414897 Y88.570625 Z-0.125000 I2.463593 J-2.229645 F400.000000
G02 X67.013216 Y88.858703 Z-0.125000 I1.283321 J-1.900000
G03 X68.771814 Y89.823479 Z-0.125000 I-1.520247 J4.856293
G03 X68.809224 Y90.371925 Z-0.125000 I-0.246279 J0.292298
G01 X68.823524 Y90.427121 Z-0.125000
G02 X68.938702 Y90.416163 Z-0.125000 I0.045454 J-0.133026
G03 X69.257551 Y90.387602 Z-0.125000 I0.190593 J0.333669
G03 X69.669040 Y90.674656 Z-0.125000 I-0.315262 J0.890381
G02 X70.093056 Y91.040171 Z-0.125000 I1.298744 J-1.077915
G02 X70.425471 Y91.133033 Z-0.125000 I0.332415 J-0.548534
G03 X73.086169 Y92.447115 Z-0.125000 I-0.000000 J3.350676
G03 X76.999406 Y99.721549 Z-0.125000 I-20.615065 J15.779514
G03 X77.389297 Y101.208677 Z-0.125000 I-9.396490 J3.258220
G03 X77.346880 Y101.467079 Z-0.125000 I-0.384445 J0.069575
G03 X77.211946 Y101.481999 Z-0.125000 I-0.072732 J-0.040154
G03 X76.556774 Y100.523289 Z-0.125000 I3.481342 J-3.082331
G02 X73.801490 Y95.683567 Z-0.125000 I-57.302134 J29.418302
G02 X73.365976 Y95.442806 Z-0.125000 I-0.435515 J0.273524
G03 X73.204040 Y95.360829 Z-0.125000 I0.000000 J-0.200930
G03 X72.800648 Y94.673203 Z-0.125000 I3.124169 J-2.294916
G02 X71.758050 Y94.264119 Z-0.125000 I-0.732509 J0.333750
G02 X71.317993 Y95.292117 Z-0.125000 I0.309119 J0.740512
G03 X71.449647 Y95.751812 Z-0.125000 I-2.555141 J0.980474
G03 X71.427891 Y95.859129 Z-0.125000 I-0.140872 J0.027305
G02 X71.429455 Y95.957833 Z-0.125000 I0.071796 J0.048226
G02 X72.513755 Y97.369952 Z-0.125000 I22.847430 J-16.421109
G03 X73.587439 Y98.807622 Z-0.125000 I-15.422803 J12.637859
G03 X73.668159 Y99.070217 Z-0.125000 I-0.386770 J0.262595
G02 X73.737516 Y99.337971 Z-0.125000 I0.551516 J0.000000
G02 X74.237726 Y100.095852 Z-0.125000 I5.196446 J-2.885702
G03 X74.735915 Y100.872915 Z-0.125000 I-4.070564 J3.157939
G03 X75.975958 Y103.431400 Z-0.125000 I-43.348607 J22.589907
G03 X77.228760 Y107.942920 Z-0.125000 I-14.162231 J6.362406
G03 X76.787169 Y110.187495 Z-0.125000 I-3.679612 J0.441812
G03 X76.283140 Y111.088910 Z-0.125000 I-242.924066 J-135.240075
G03 X75.617299 Y112.270654 Z-0.125000 I-421.555910 J-236.743032
G03 X72.994524 Y115.712470 Z-0.125000 I-13.826069 J-7.815679
G03 X69.915298 Y117.945177 Z-0.125000 I-8.655208 J-8.697082
G03 X66.888674 Y118.666466 Z-0.125000 I-3.001307 J-5.883180
G03 X64.292644 Y117.923615 Z-0.125000 I0.019068 J-4.974218
G03 X61.003209 Y114.494168 Z-0.125000 I4.996960 J-8.085244
G03 X59.815315 Y109.954876 Z-0.125000 I8.079039 J-4.539292
G03 X60.158023 Y107.537741 Z-0.125000 I8.695457 J-0.000000
G03 X61.692731 Y103.467188 Z-0.125000 I26.522758 J7.675207
G02 X62.342684 Y102.079996 Z-0.125000 I-558.978534 J-262.748983
G02 X62.632288 Y101.455387 Z-0.125000 I-112.559766 J-52.568484
G03 X64.894176 Y97.350097 Z-0.125000 I29.514974 J13.586074
G03 X66.968749 Y94.775176 Z-0.125000 I13.563806 J8.804956
G02 X69.422828 Y91.613217 Z-0.125000 I-11.816881 J-11.704710
G02 X69.140480 Y91.147178 Z-0.125000 I-0.264476 J-0.158318
G02 X68.921558 Y91.255704 Z-0.125000 I0.018308 J0.312002
G02 X67.144218 Y93.407426 Z-0.125000 I57.079520 J48.958056
G02 X65.450572 Y95.619177 Z-0.125000 I59.452620 J47.280117
G02 X65.356453 Y95.905507 Z-0.125000 I0.388476 J0.286330
G03 X65.297401 Y96.103433 Z-0.125000 I-0.361224 J-0.000000
G03 X64.478741 Y97.245537 Z-0.125000 I-13.990510 J-9.163924
G02 X62.166538 Y100.896087 Z-0.125000 I17.156471 J13.424186
G02 X60.206600 Y105.755463 Z-0.125000 I28.625139 J14.370352
G02 X59.735110 Y112.066984 Z-0.125000 I13.431440 J4.176741
G02 X61.883818 Y116.678491 Z-0.125000 I8.983288 J-1.379374
G02 X63.774269 Y118.260903 Z-0.125000 I6.037112 J-5.291887
G02 X65.869801 Y119.082883 Z-0.125000 I3.456938 J-5.730882
G01 X67.018837 Y119.321643 Z-0.125000
G01 X64.915590 Y119.832290 Z-0.125000
G03 X62.822812 Y120.093643 Z-0.125000 I-2.188211 J-9.012433
G03 X61.390790 Y119.868556 Z-0.125000 I-0.045084 J-4.381032
G03 X59.733188 Y119.081561 Z-0.125000 I2.402904 J-7.200251
G03 X59.815315 Y118.871058 Z-0.125000 I0.061573 J-0.097250
G02 X61.846516 Y118.801092 Z-0.125000 I0.854609 J-4.708745
G02 X62.278043 Y118.246447 Z-0.125000 I-0.140682 J-0.554645
G02 X62.213936 Y118.034684 Z-0.125000 I-0.381809 J0.000000
G02 X61.578169 Y117.196433 Z-0.125000 I-7.183994 J4.788446
G02 X60.752252 Y116.642514 Z-0.125000 I-1.413013 J1.214165
G02 X58.884558 Y116.302000 Z-0.125000 I-2.139743 J6.443993
G02 X57.107143 Y116.406591 Z-0.125000 I-0.361436 J9.012725
G02 X56.967786 Y116.606857 Z-0.125000 I0.026561 J0.167102
G03 X56.571415 Y116.792638 Z-0.125000 I-0.221007 J0.044202
G03 X54.529375 Y113.586568 Z-0.125000 I13.222762 J-10.675315
G03 X54.080802 Y112.166333 Z-0.125000 I4.502045 J-2.202902
G03 X53.777998 Y108.833873 Z-0.125000 I24.988789 J-3.950594
G03 X54.086705 Y104.071803 Z-0.125000 I26.785394 J-0.654646
G03 X55.168552 Y99.870252 Z-0.125000 I21.885385 J3.395158
G03 X57.477341 Y94.557981 Z-0.125000 I45.469732 J16.603944
G03 X58.041983 Y94.211428 Z-0.125000 I0.564642 J0.286713
G02 X58.188988 Y94.124311 Z-0.125000 I-0.000000 J-0.167589
G02 X58.276112 Y93.783712 Z-0.125000 I-0.622200 J-0.340599
G03 X58.440375 Y93.375065 Z-0.125000 I0.590439 J0.000000
G03 X61.394810 Y90.423510 Z-0.125000 I70.161385 J67.275411
G03 X64.471832 Y87.602503 Z-0.125000 I67.412683 J70.441945
G03 X64.906006 Y87.438928 Z-0.125000 I0.434174 J0.494420
G03 X65.218753 Y87.534195 Z-0.125000 I-0.000000 J0.560981
G03 X65.811104 Y88.046758 Z-0.125000 I-1.795102 J2.673097
G01 X65.811104 Y88.046772 Z-0.125000
G00 Z5.000000

(End cutting path id: path3207)


(Start cutting path id: path3207)
(Change tool to Default tool)

G00 Z5.000000
G00 X65.565672 Y92.146013

G01 Z-0.125000 F100.0(Penetrate)
G03 X65.525061 Y92.270010 Z-0.125000 I-0.072607 J0.044869 F400.000000
G03 X65.253032 Y92.272443 Z-0.125000 I-0.139103 J-0.344018
G02 X64.852348 Y92.238181 Z-0.125000 I-0.259671 J0.676697
G02 X64.740771 Y92.374063 Z-0.125000 I0.026951 J0.135882
G02 X64.850646 Y92.562349 Z-0.125000 I0.216264 J0.000000
G02 X65.268501 Y92.672236 Z-0.125000 I0.417855 J-0.739518
G03 X65.424617 Y92.826167 Z-0.125000 I0.000000 J0.156132
G03 X65.275839 Y93.192643 Z-0.125000 I-0.508095 J0.007166
G03 X64.799927 Y93.224045 Z-0.125000 I-0.255875 J-0.255876
G03 X64.337441 Y92.473893 Z-0.125000 I0.751219 J-0.980786
G03 X64.435738 Y91.808044 Z-0.125000 I1.007480 J-0.191450
G03 X64.759778 Y91.664489 Z-0.125000 I0.252092 J0.131539
G03 X65.312031 Y91.896142 Z-0.125000 I-0.537247 J2.054880
G03 X65.565678 Y92.146013 Z-0.125000 I-0.385322 J0.644818
G01 X65.565672 Y92.146013 Z-0.125000
G00 Z5.000000

(End cutting path id: path3207)


(Start cutting path id: path3207)
(Change tool to Default tool)

G00 Z5.000000
G00 X63.474225 Y94.613175

G01 Z-0.125000 F100.0(Penetrate)
G02 X63.048933 Y95.055747 Z-0.125000 I75.603570 J73.077209 F400.000000
G02 X61.238173 Y96.953689 Z-0.125000 I1404.457605 J1341.757194
G03 X59.634946 Y98.494105 Z-0.125000 I-18.229354 J-17.368154
G03 X59.348899 Y98.643947 Z-0.125000 I-0.450887 J-0.512785
G03 X59.280449 Y98.555853 Z-0.125000 I-0.014726 J-0.059198
G03 X60.139171 Y97.227083 Z-0.125000 I8.689396 J4.673689
G03 X63.130798 Y93.879629 Z-0.125000 I23.673744 J18.146738
G03 X63.613214 Y93.884268 Z-0.125000 I0.238843 J0.248221
G03 X63.702217 Y94.173557 Z-0.125000 I-0.228719 J0.228705
G03 X63.474225 Y94.613175 Z-0.125000 I-0.850571 J-0.162190
G01 X63.474225 Y94.613175 Z-0.125000
G00 Z5.000000

(End cutting path id: path3207)


(Start cutting path id: path3207)
(Change tool to Default tool)

G00 Z5.000000
G00 X61.753691 Y94.355695

G01 Z-0.125000 F100.0(Penetrate)
G03 X61.154044 Y95.027876 Z-0.125000 I-3.674220 J-2.674183 F400.000000
G03 X60.916061 Y95.125298 Z-0.125000 I-0.250579 J-0.272730
G03 X60.859797 Y95.031517 Z-0.125000 I-0.002086 J-0.062517
G03 X61.354522 Y94.365361 Z-0.125000 I3.120688 J1.800813
G03 X61.681983 Y94.219022 Z-0.125000 I0.338567 J0.318063
G03 X61.753691 Y94.355822 Z-0.125000 I0.002059 J0.086114
G01 X61.753691 Y94.355695 Z-0.125000
G00 Z5.000000

(End cutting path id: path3207)


(Start cutting path id: path3207)
(Change tool to Default tool)

G00 Z5.000000
G00 X62.402938 Y90.552383

G01 Z-0.125000 F100.0(Penetrate)
G02 X60.131190 Y93.025733 Z-0.125000 I38.389198 J37.540073 F400.000000
G02 X58.829702 Y94.695646 Z-0.125000 I16.161842 J13.938260
G02 X56.927438 Y97.734907 Z-0.125000 I27.603847 J19.392102
G02 X56.736906 Y98.471745 Z-0.125000 I1.329507 J0.736838
G02 X57.779236 Y99.837678 Z-0.125000 I1.416165 J0.000000
G02 X61.121319 Y99.671678 Z-0.125000 I1.417846 J-5.180581
G02 X61.468743 Y99.416532 Z-0.125000 I-0.292721 J-0.762702
G02 X63.295528 Y96.929491 Z-0.125000 I-32.807393 J-26.012151
G03 X65.106442 Y94.395219 Z-0.125000 I54.170581 J36.794502
G03 X66.036969 Y93.279731 Z-0.125000 I11.387413 J8.553397
G02 X66.750674 Y91.469160 Z-0.125000 I-1.971826 J-1.823222
G02 X66.052350 Y90.013167 Z-0.125000 I-1.848863 J-0.008710
G02 X64.882681 Y89.110181 Z-0.125000 I-32.231220 J40.541181
G02 X64.557800 Y88.893027 Z-0.125000 I-2.172729 J2.898984
G02 X64.249626 Y88.911667 Z-0.125000 I-0.140340 J0.236597
G02 X62.402915 Y90.552383 Z-0.125000 I10.743914 J13.952475
G01 X62.402938 Y90.552383 Z-0.125000
G00 Z5.000000

(End cutting path id: path3207)


(Start cutting path id: path3207)
(Change tool to Default tool)

G00 Z5.000000
G00 X71.343961 Y89.917708

G01 Z-0.125000 F100.0(Penetrate)
G03 X71.371380 Y90.099501 Z-0.125000 I-0.109204 J0.109435 F400.000000
G03 X71.190040 Y90.208340 Z-0.125000 I-0.180805 J-0.095758
G03 X69.250501 Y89.696509 Z-0.125000 I0.000000 J-3.930772
G03 X68.742704 Y88.824625 Z-0.125000 I0.494614 J-0.871885
G03 X69.231296 Y88.499976 Z-0.125000 I0.352154 J-0.000000
G03 X71.343961 Y89.917708 Z-0.125000 I-2.567181 J6.108525
G01 X71.343961 Y89.917708 Z-0.125000
G00 Z5.000000

(End cutting path id: path3207)


(Start cutting path id: path3207)
(Change tool to Default tool)

G00 Z5.000000
G00 X73.365363 Y91.910792

G01 Z-0.125000 F100.0(Penetrate)
G02 X74.068615 Y92.971149 Z-0.125000 I16.892596 J-10.440151 F400.000000
G02 X74.404108 Y93.373036 Z-0.125000 I2.740583 J-1.946842
G03 X77.235678 Y96.894386 Z-0.125000 I-16.812928 J16.418662
G03 X77.670090 Y98.347593 Z-0.125000 I-2.213447 J1.453207
G03 X77.404671 Y98.448648 Z-0.125000 I-0.151947 J0.000000
G03 X75.573749 Y95.993656 Z-0.125000 I13.194577 J-11.750698
G02 X73.899226 Y93.516349 Z-0.125000 I-31.505155 J19.491148
G02 X72.730998 Y92.133514 Z-0.125000 I-10.933958 J8.052199
G03 X71.952922 Y91.031393 Z-0.125000 I3.174008 J-3.066504
G03 X72.080699 Y90.825191 Z-0.125000 I0.127777 J-0.063512
G03 X72.590422 Y91.011717 Z-0.125000 I0.000000 J0.789725
G03 X73.365363 Y91.910792 Z-0.125000 I-2.437388 J2.884373
G01 X73.365363 Y91.910792 Z-0.125000
G00 Z5.000000

(End cutting path id: path3207)


(Start cutting path id: path3207)
(Change tool to Default tool)

G00 Z5.000000
G00 X73.250888 Y96.168386

G01 Z-0.125000 F100.0(Penetrate)
G03 X76.861104 Y101.951045 Z-0.125000 I-36.348097 J26.711045 F400.000000
G03 X77.357583 Y104.009219 Z-0.125000 I-3.854312 J2.018717
G03 X77.235457 Y104.044119 Z-0.125000 I-0.066219 J-0.000594
G03 X75.632406 Y101.291783 Z-0.125000 I35.144307 J-22.312195
G02 X73.839528 Y98.104903 Z-0.125000 I-69.234887 J36.852469
G02 X72.866507 Y96.632918 Z-0.125000 I-15.705003 J9.323834
G03 X71.872167 Y95.189681 Z-0.125000 I24.266007 J-17.782584
G03 X71.821114 Y95.016752 Z-0.125000 I0.267345 J-0.172929
G03 X72.046156 Y94.909051 Z-0.125000 I0.138293 J0.000000
G03 X73.250888 Y96.168386 Z-0.125000 I-4.233154 J5.255528
G01 X73.250888 Y96.168386 Z-0.125000
G00 Z5.000000

(End cutting path id: path3207)


(Start cutting path id: path3207)
(Change tool to Default tool)

G00 Z5.000000
G00 X69.528919 Y97.153784

G01 Z-0.125000 F100.0(Penetrate)
G02 X69.346087 Y97.949550 Z-0.125000 I0.984525 J0.645087 F400.000000
G02 X69.805009 Y99.292758 Z-0.125000 I3.528018 J-0.455384
G02 X70.648361 Y100.594138 Z-0.125000 I14.900047 J-8.731939
G02 X70.905909 Y100.835161 Z-0.125000 I0.727519 J-0.519285
G03 X71.148612 Y101.082481 Z-0.125000 I-0.381197 J0.616826
G03 X71.683799 Y102.148598 Z-0.125000 I-7.394267 J4.379281
G02 X72.199568 Y103.234854 Z-0.125000 I11.680395 J-4.880442
G02 X72.371775 Y103.435865 Z-0.125000 I0.540751 J-0.288993
G03 X73.553261 Y104.880990 Z-0.125000 I-2.356149 J3.131845
G03 X75.068334 Y109.091457 Z-0.125000 I-20.330568 J9.693470
G02 X75.357394 Y109.857293 Z-0.125000 I3.459375 J-0.868246
G02 X75.596005 Y110.115181 Z-0.125000 I0.583994 J-0.301009
G02 X76.271306 Y109.967290 Z-0.125000 I0.261269 J-0.422718
G02 X76.741012 Y108.390256 Z-0.125000 I-2.345915 J-1.557176
G02 X76.451518 Y107.119274 Z-0.125000 I-3.028388 J0.021321
G02 X73.781736 Y101.835619 Z-0.125000 I-99.122688 J46.769438
G02 X70.798246 Y96.671133 Z-0.125000 I-90.584565 J48.886105
G02 X70.252023 Y96.366328 Z-0.125000 I-0.546223 J0.337024
G02 X70.084616 Y96.439883 Z-0.125000 I-0.000000 J0.227280
G02 X69.528919 Y97.153784 Z-0.125000 I4.098107 J3.763175
G01 X69.528919 Y97.153784 Z-0.125000
G00 Z5.000000

(End cutting path id: path3207)


(Start cutting path id: path3207)
(Change tool to Default tool)

G00 Z5.000000
G00 X72.358039 Y100.522180

G01 Z-0.125000 F100.0(Penetrate)
G03 X76.326390 Y107.857052 Z-0.125000 I-74.919406 J45.274216 F400.000000
G03 X76.282864 Y108.683107 Z-0.125000 I-0.776160 J0.373277
G03 X75.810923 Y108.884261 Z-0.125000 I-0.378562 J-0.233966
G03 X75.515205 Y108.518348 Z-0.125000 I0.078526 J-0.365913
G02 X75.204610 Y107.231898 Z-0.125000 I-2.819466 J0.000000
G02 X71.634771 Y100.950604 Z-0.125000 I-74.774187 J38.341248
G03 X70.103640 Y98.263366 Z-0.125000 I31.280189 J-19.602609
G03 X69.974068 Y97.729264 Z-0.125000 I1.036017 J-0.534103
G03 X70.127241 Y97.529397 Z-0.125000 I0.206983 J0.000000
G03 X70.421935 Y97.608681 Z-0.125000 I0.079035 J0.293555
G03 X70.820882 Y98.097668 Z-0.125000 I-2.292083 J2.277264
G03 X72.358039 Y100.522180 Z-0.125000 I-55.675757 J36.998353
G01 X72.358039 Y100.522180 Z-0.125000
G00 Z5.000000

(End cutting path id: path3207)


(Start cutting path id: path3207)
(Change tool to Default tool)

G00 Z5.000000
G00 X78.191262 Y100.285452

G01 Z-0.125000 F100.0(Penetrate)
G01 X78.115126 Y100.290390 Z-0.125000 F400.000000
G03 X78.037944 Y99.906498 Z-0.125000 I0.981147 J-0.396964
G03 X78.103717 Y99.366866 Z-0.125000 I2.040125 J-0.025165
G01 X78.179857 Y99.361928 Z-0.125000
G03 X78.257037 Y99.745794 Z-0.125000 I-0.981035 J0.396939
G03 X78.191287 Y100.285452 Z-0.125000 I-2.040651 J0.025208
G01 X78.191262 Y100.285452 Z-0.125000
G00 Z5.000000

(End cutting path id: path3207)


(Start cutting path id: path3207)
(Change tool to Default tool)

G00 Z5.000000
G00 X86.905319 Y100.232501

G01 Z-0.125000 F100.0(Penetrate)
G03 X86.787272 Y100.500711 Z-0.125000 I-0.363719 J0.000000 F400.000000
G03 X86.592458 Y100.519073 Z-0.125000 I-0.109544 J-0.119594
G03 X86.421309 Y100.292257 Z-0.125000 I0.206175 J-0.333556
G03 X86.456707 Y100.039148 Z-0.125000 I0.305222 J-0.086343
G03 X86.722939 Y99.955290 Z-0.125000 I0.181690 J0.112284
G03 X86.905319 Y100.232501 Z-0.125000 I-0.119486 J0.277211
G01 X86.905319 Y100.232501 Z-0.125000
G00 Z5.000000

(End cutting path id: path3207)


(Start cutting path id: path3207)
(Change tool to Default tool)

G00 Z5.000000
G00 X87.299166 Y98.841247

G01 Z-0.125000 F100.0(Penetrate)
G03 X87.090608 Y99.305593 Z-0.125000 I-1.486796 J-0.388775 F400.000000
G03 X86.982114 Y99.316306 Z-0.125000 I-0.058641 J-0.039138
G03 X86.805745 Y98.597167 Z-0.125000 I0.505065 J-0.505065
G03 X87.328601 Y98.213373 Z-0.125000 I0.522857 J0.164257
G03 X87.385768 Y98.273282 Z-0.125000 I0.000000 J0.057229
G03 X87.299171 Y98.841247 Z-0.125000 I-2.751958 J-0.129001
G01 X87.299166 Y98.841247 Z-0.125000
G00 Z5.000000

(End cutting path id: path3207)


(Start cutting path id: path3207)
(Change tool to Default tool)

G00 Z5.000000
G00 X87.658909 Y101.494836

G01 Z-0.125000 F100.0(Penetrate)
G02 X86.857131 Y104.531046 Z-0.125000 I150.681443 J41.414687 F400.000000
G02 X86.676956 Y105.370676 Z-0.125000 I11.329212 J2.870271
G03 X86.428692 Y106.099352 Z-0.125000 I-2.475264 J-0.436704
G03 X86.233952 Y106.217238 Z-0.125000 I-0.194740 J-0.101907
G03 X86.092214 Y106.105125 Z-0.125000 I0.000000 J-0.145652
G03 X86.106475 Y105.678518 Z-0.125000 I0.790725 J-0.187109
G02 X86.261966 Y105.136768 Z-0.125000 I-13.682328 J-4.220243
G02 X87.068014 Y102.061386 Z-0.125000 I-440.339448 J-117.054967
G03 X88.169150 Y98.331378 Z-0.125000 I55.034822 J14.219296
G03 X88.321338 Y98.295413 Z-0.125000 I0.087202 J0.029021
G03 X88.380976 Y98.494804 Z-0.125000 I-0.154952 J0.154961
G03 X87.658909 Y101.494836 Z-0.125000 I-47.174278 J-9.767303
G01 X87.658909 Y101.494836 Z-0.125000
G00 Z5.000000

(End cutting path id: path3207)


(Start cutting path id: path3207)
(Change tool to Default tool)

G00 Z5.000000
G00 X92.324330 Y97.212890

G01 Z-0.125000 F100.0(Penetrate)
G02 X91.961255 Y98.752567 Z-0.125000 I11.967251 J3.634668 F400.000000
G02 X91.683603 Y100.983943 Z-0.125000 I24.914134 J4.233049
G03 X91.559963 Y102.056663 Z-0.125000 I-15.182422 J-1.206429
G03 X90.877309 Y106.311283 Z-0.125000 I-239.791787 J-36.292527
G02 X90.348843 Y110.474809 Z-0.125000 I49.599512 J8.410837
G02 X90.499106 Y110.774977 Z-0.125000 I0.320668 J0.027170
G03 X90.671005 Y111.066520 Z-0.125000 I-0.194069 J0.310875
G03 X90.593105 Y112.554453 Z-0.125000 I-7.092660 J0.374676
G02 X90.378379 Y114.124191 Z-0.125000 I36.498942 J5.792279
G02 X90.172109 Y116.214957 Z-0.125000 I64.540936 J7.423033
G03 X89.918963 Y118.270534 Z-0.125000 I-25.577149 J-2.106468
G03 X89.797002 Y118.497291 Z-0.125000 I-0.391373 J-0.064323
G03 X89.704026 Y118.458025 Z-0.125000 I-0.037616 J-0.040640
G03 X89.750943 Y116.640303 Z-0.125000 I17.968005 J-0.445702
G02 X89.783557 Y114.626661 Z-0.125000 I-16.683979 J-1.277305
G02 X89.642468 Y114.177575 Z-0.125000 I-0.913317 J0.040230
G02 X89.494056 Y114.187721 Z-0.125000 I-0.071457 J0.045277
G02 X89.341529 Y114.836785 Z-0.125000 I1.545867 J0.705727
G03 X89.291359 Y115.913400 Z-0.125000 I-40.679204 J-1.356141
G03 X89.203310 Y117.145591 Z-0.125000 I-53.475492 J-3.201968
G02 X89.101639 Y118.377004 Z-0.125000 I1251.840008 J103.977803
G02 X88.927585 Y120.505305 Z-0.125000 I3707.349106 J304.261361
G03 X88.687623 Y122.602895 Z-0.125000 I-32.290642 J-2.631494
G03 X88.589209 Y122.798567 Z-0.125000 I-0.344917 J-0.050893
G03 X87.059266 Y123.273632 Z-0.125000 I-1.216451 J-1.216451
G03 X84.833077 Y122.102387 Z-0.125000 I0.772897 J-4.170332
G03 X84.450853 Y121.298003 Z-0.125000 I0.939404 J-0.939385
G03 X84.142095 Y115.337797 Z-0.125000 I59.353237 J-6.062792
G03 X84.353367 Y111.531788 Z-0.125000 I33.353332 J-0.057426
G03 X84.583028 Y111.439328 Z-0.125000 I0.139809 J0.015813
G02 X85.041078 Y111.671174 Z-0.125000 I0.737455 J-0.888569
G02 X85.331360 Y111.625942 Z-0.125000 I0.091495 J-0.366897
G03 X85.600660 Y111.570801 Z-0.125000 I0.209779 J0.339351
G03 X85.788647 Y111.694898 Z-0.125000 I-0.039984 J0.265003
G02 X86.006651 Y111.846070 Z-0.125000 I0.282487 J-0.174595
G02 X87.426081 Y112.019024 Z-0.125000 I1.873513 J-9.464794
G03 X88.897703 Y112.138494 Z-0.125000 I-1.022349 J21.716706
G03 X89.445008 Y112.252151 Z-0.125000 I-0.357555 J3.096344
G02 X89.810662 Y112.182252 Z-0.125000 I0.116236 J-0.383296
G02 X89.983728 Y111.823331 Z-0.125000 I-0.285648 J-0.358921
G02 X89.730163 Y111.462196 Z-0.125000 I-0.383953 J0.000000
G02 X87.774781 Y111.025805 Z-0.125000 I-2.687731 J7.444171
G03 X85.614886 Y110.702101 Z-0.125000 I1.802609 J-19.395534
G03 X85.158132 Y110.482129 Z-0.125000 I0.213470 J-1.027446
G03 X84.902629 Y110.072327 Z-0.125000 I0.489258 J-0.589593
G03 X84.750434 Y108.793312 Z-0.125000 I5.298175 J-1.279015
G03 X85.465376 Y102.157318 Z-0.125000 I31.154626 J0.000000
G03 X86.205780 Y102.117627 Z-0.125000 I0.375656 J0.081895
G03 X86.231710 Y102.423452 Z-0.125000 I-0.619744 J0.206557
G03 X85.874646 Y104.271406 Z-0.125000 I-24.278368 J-3.732618
G02 X85.589782 Y106.102027 Z-0.125000 I12.070258 J2.815737
G02 X85.691574 Y106.567501 Z-0.125000 I0.817197 J0.065158
G02 X86.035187 Y106.862262 Z-0.125000 I0.573606 J-0.321011
G02 X87.089048 Y107.089474 Z-0.125000 I1.304321 J-3.492114
G03 X88.339957 Y107.587501 Z-0.125000 I-0.147549 J2.190587
G03 X88.756567 Y108.467249 Z-0.125000 I-0.730938 J0.884658
G02 X89.084256 Y110.542080 Z-0.125000 I6.920526 J-0.029703
G02 X89.483681 Y110.744994 Z-0.125000 I0.299886 J-0.095728
G02 X90.336374 Y109.571925 Z-0.125000 I-0.394324 J-1.183072
G02 X89.508545 Y107.644667 Z-0.125000 I-2.608610 J-0.020925
G03 X89.362774 Y107.275645 Z-0.125000 I0.315761 J-0.338034
G03 X89.576024 Y106.639688 Z-0.125000 I1.319007 J0.088561
G02 X89.914534 Y105.938733 Z-0.125000 I-2.507975 J-1.643382
G02 X90.290724 Y104.481046 Z-0.125000 I-10.647501 J-3.525222
G03 X91.942483 Y96.900135 Z-0.125000 I130.917334 J24.554393
G03 X92.231501 Y96.674170 Z-0.125000 I0.289018 J0.071850
G03 X92.351545 Y96.775298 Z-0.125000 I0.000000 J0.121813
G03 X92.324330 Y97.212890 Z-0.125000 I-0.936627 J0.161391
G01 X92.324330 Y97.212890 Z-0.125000
G00 Z5.000000

(End cutting path id: path3207)


(Start cutting path id: path3207)
(Change tool to Default tool)

G00 Z5.000000
G00 X94.288788 Y97.058969

G01 Z-0.125000 F100.0(Penetrate)
G03 X94.222895 Y97.425306 Z-0.125000 I-1.126440 J-0.013519 F400.000000
G03 X93.985662 Y97.905534 Z-0.125000 I-2.199134 J-0.787664
G03 X93.819806 Y97.913293 Z-0.125000 I-0.085700 J-0.055382
G03 X93.682533 Y97.520732 Z-0.125000 I0.502870 J-0.396129
G03 X93.805443 Y96.801074 Z-0.125000 I2.101202 J-0.011462
G03 X93.985662 Y96.674170 Z-0.125000 I0.180219 J0.064516
G03 X94.192095 Y96.774343 Z-0.125000 I0.000000 J0.262792
G03 X94.288788 Y97.058969 Z-0.125000 I-0.354295 J0.279099
G01 X94.288788 Y97.058969 Z-0.125000
G00 Z5.000000

(End cutting path id: path3207)


(Start cutting path id: path3207)
(Change tool to Default tool)

G00 Z5.000000
G00 X93.895543 Y100.133777

G01 Z-0.125000 F100.0(Penetrate)
G01 X93.826012 Y100.136075 Z-0.125000 F400.000000
G03 X93.755453 Y99.598658 Z-0.125000 I2.094508 J-0.548334
G03 X93.819799 Y98.904711 Z-0.125000 I3.579496 J-0.018049
G01 X93.889331 Y98.902413 Z-0.125000
G03 X93.959890 Y99.439851 Z-0.125000 I-2.094737 J0.548365
G03 X93.895540 Y100.133777 Z-0.125000 I-3.578918 J0.018060
G01 X93.895543 Y100.133777 Z-0.125000
G00 Z5.000000

(End cutting path id: path3207)


(Start cutting path id: path3207)
(Change tool to Default tool)

G00 Z5.000000
G00 X96.030664 Y100.518426

G01 Z-0.125000 F100.0(Penetrate)
G02 X95.897308 Y100.987224 Z-0.125000 I2.552384 J0.979427 F400.000000
G02 X95.650228 Y102.519390 Z-0.125000 I27.230685 J5.177270
G02 X95.672291 Y103.863699 Z-0.125000 I4.510287 J0.598312
G02 X95.906689 Y104.062353 Z-0.125000 I0.234398 J-0.038960
G02 X96.222106 Y103.889033 Z-0.125000 I0.000000 J-0.373666
G02 X96.542183 Y103.061869 Z-0.125000 I-1.915675 J-1.216795
G03 X96.725666 Y102.063150 Z-0.125000 I54.591068 J9.513175
G03 X96.928780 Y101.060903 Z-0.125000 I55.198854 J10.664772
G02 X96.912241 Y100.245759 Z-0.125000 I-1.754221 J-0.372148
G02 X96.673724 Y100.060419 Z-0.125000 I-0.238517 J0.060806
G02 X96.290615 Y100.182903 Z-0.125000 I0.000000 J0.660392
G02 X96.030664 Y100.518426 Z-0.125000 I0.426606 J0.598981
G01 X96.030664 Y100.518426 Z-0.125000
G00 Z5.000000

(End cutting path id: path3207)


(Start cutting path id: path3207)
(Change tool to Default tool)

G00 Z5.000000
G00 X99.429246 Y100.733821

G01 Z-0.125000 F100.0(Penetrate)
G03 X99.333447 Y100.753477 Z-0.125000 I-0.054381 J-0.021761 F400.000000
G03 X99.243262 Y100.547825 Z-0.125000 I0.218362 J-0.218360
G03 X99.309141 Y100.163442 Z-0.125000 I0.930874 J-0.038294
G03 X99.404947 Y100.143782 Z-0.125000 I0.054385 J0.021760
G03 X99.495127 Y100.349429 Z-0.125000 I-0.218367 J0.218355
G03 X99.429246 Y100.733821 Z-0.125000 I-0.930681 J0.038332
G01 X99.429246 Y100.733821 Z-0.125000
G00 Z5.000000

(End cutting path id: path3207)


(Start cutting path id: path3207)
(Change tool to Default tool)

G00 Z5.000000
G00 X99.047933 Y102.659951

G01 Z-0.125000 F100.0(Penetrate)
G03 X98.782940 Y103.607751 Z-0.125000 I-5.553889 J-1.041855 F400.000000
G03 X98.683290 Y103.629280 Z-0.125000 I-0.056764 J-0.021354
G03 X98.613410 Y103.449370 Z-0.125000 I0.169267 J-0.169273
G03 X98.740093 Y102.352112 Z-0.125000 I7.832981 J0.348410
G03 X99.005086 Y101.404311 Z-0.125000 I5.554753 J1.042095
G03 X99.104738 Y101.382780 Z-0.125000 I0.056766 J0.021354
G03 X99.174621 Y101.562701 Z-0.125000 I-0.169283 J0.169283
G03 X99.047933 Y102.659951 Z-0.125000 I-7.832159 J-0.348364
G01 X99.047933 Y102.659951 Z-0.125000
G00 Z5.000000

(End cutting path id: path3207)


(Start cutting path id: path3207)
(Change tool to Default tool)

G00 Z5.000000
G00 X99.939699 Y104.443920

G01 Z-0.125000 F100.0(Penetrate)
G03 X99.731474 Y105.720558 Z-0.125000 I-13.589447 J-1.561189 F400.000000
G03 X99.629593 Y105.906164 Z-0.125000 I-0.358526 J-0.076034
G03 X99.145242 Y105.688592 Z-0.125000 I-0.199639 J-0.203478
G03 X99.755165 Y103.369709 Z-0.125000 I5.805776 J0.287408
G03 X99.910396 Y103.392758 Z-0.125000 I0.073828 J0.037033
G03 X99.939699 Y104.443920 Z-0.125000 I-3.654983 J0.627878
G01 X99.939699 Y104.443920 Z-0.125000
G00 Z5.000000

(End cutting path id: path3207)


(Start cutting path id: path3207)
(Change tool to Default tool)

G00 Z5.000000
G00 X101.065624 Y102.027370

G01 Z-0.125000 F100.0(Penetrate)
G03 X100.914120 Y101.991674 Z-0.125000 I-0.064581 J-0.065263 F400.000000
G03 X100.867769 Y101.445704 Z-0.125000 I1.077156 J-0.366399
G02 X100.998921 Y100.520149 Z-0.125000 I-26.037156 J-4.161535
G02 X101.096177 Y99.598658 Z-0.125000 I-25.714575 J-3.179872
G01 X101.172563 Y99.589424 Z-0.125000
G03 X101.294032 Y100.180324 Z-0.125000 I-2.288015 J0.778275
G03 X101.261096 Y101.629673 Z-0.125000 I-7.215190 J0.561087
G03 X101.065624 Y102.027370 Z-0.125000 I-0.671185 J-0.083009
G01 X101.065624 Y102.027370 Z-0.125000
G00 Z5.000000

(End cutting path id: path3207)


(Start cutting path id: path3207)
(Change tool to Default tool)

G00 Z5.000000
G00 X102.038182 Y97.561090

G01 Z-0.125000 F100.0(Penetrate)
G02 X102.020897 Y97.747772 Z-0.125000 I0.063386 J0.100010 F400.000000
G02 X102.499942 Y97.990867 Z-0.125000 I0.662288 J-0.711560
G02 X103.340045 Y98.023114 Z-0.125000 I0.525836 J-2.739752
G02 X103.749261 Y97.849137 Z-0.125000 I-0.087851 J-0.774890
G03 X104.142901 Y97.662706 Z-0.125000 I0.564004 J0.682073
G03 X104.518864 Y97.698202 Z-0.125000 I0.128033 J0.652702
G03 X104.538379 Y97.792481 Z-0.125000 I-0.021539 J0.053617
G03 X104.337601 Y97.881212 Z-0.125000 I-0.213407 J-0.211368
G02 X104.076368 Y98.045490 Z-0.125000 I0.013053 J0.310602
G02 X104.104153 Y98.318778 Z-0.125000 I0.217363 J0.115957
G03 X104.317173 Y98.850532 Z-0.125000 I-0.718636 J0.596429
G03 X104.546587 Y103.533400 Z-0.125000 I-114.888645 J7.975470
G03 X104.582670 Y108.232381 Z-0.125000 I-112.298003 J3.211943
G03 X104.397077 Y108.560154 Z-0.125000 I-0.391384 J-0.005181
G03 X104.266057 Y108.496858 Z-0.125000 I-0.045351 J-0.073377
G03 X104.132564 Y106.312361 Z-0.125000 I19.380915 J-2.280676
G02 X103.826878 Y100.399305 Z-0.125000 I-63.386682 J0.312459
G02 X103.462394 Y99.521696 Z-0.125000 I-1.624927 J0.160365
G02 X103.094317 Y99.245359 Z-0.125000 I-0.753853 J0.620815
G02 X102.567515 Y99.136898 Z-0.125000 I-0.526802 J1.225118
G03 X102.139504 Y98.986918 Z-0.125000 I0.000000 J-0.685716
G03 X101.989527 Y98.675134 Z-0.125000 I0.249090 J-0.311784
G02 X101.889891 Y98.313006 Z-0.125000 I-0.707900 J0.000000
G02 X101.714622 Y98.213373 Z-0.125000 I-0.175269 J0.104346
G03 X101.501347 Y98.123708 Z-0.125000 I-0.000000 J-0.298478
G03 X101.262519 Y97.751613 Z-0.125000 I0.778973 J-0.762673
G03 X101.332096 Y97.460730 Z-0.125000 I0.246845 J-0.094719
G03 X101.768307 Y97.294559 Z-0.125000 I0.431765 J0.477788
G03 X102.054109 Y97.413051 Z-0.125000 I-0.002812 J0.410705
G03 X102.038182 Y97.561090 Z-0.125000 I-0.066850 J0.067684
G01 X102.038182 Y97.561090 Z-0.125000
G00 Z5.000000

(End cutting path id: path3207)


(Start cutting path id: path3207)
(Change tool to Default tool)

G00 Z5.000000
G00 X98.485210 Y96.453478

G01 Z-0.125000 F100.0(Penetrate)
G03 X98.642374 Y96.923564 Z-0.125000 I-0.392551 J0.392557 F400.000000
G03 X97.564053 Y102.984907 Z-0.125000 I-84.808241 J-11.960901
G03 X96.920973 Y104.533320 Z-0.125000 I-4.537052 J-0.976563
G03 X96.357249 Y104.846022 Z-0.125000 I-0.575645 J-0.373267
G02 X95.973991 Y105.107926 Z-0.125000 I0.007385 J0.422179
G02 X96.130218 Y105.399398 Z-0.125000 I0.198254 J0.081341
G03 X96.724434 Y105.853169 Z-0.125000 I-0.166901 J0.834508
G03 X96.997484 Y107.133128 Z-0.125000 I-2.332120 J1.166608
G03 X96.387377 Y108.201258 Z-0.125000 I-1.342301 J-0.058403
G03 X94.921604 Y108.482362 Z-0.125000 I-1.077890 J-1.658411
G03 X94.299962 Y108.039882 Z-0.125000 I0.183040 J-0.915068
G03 X94.153229 Y107.174039 Z-0.125000 I1.065877 J-0.625988
G02 X94.377994 Y105.801994 Z-0.125000 I-20.734424 J-4.101105
G02 X94.738769 Y102.677068 Z-0.125000 I-107.286496 J-13.969588
G03 X95.636479 Y99.855399 Z-0.125000 I7.146254 J0.719933
G03 X96.627355 Y99.344997 Z-0.125000 I0.885383 J0.501825
G02 X97.854781 Y99.339524 Z-0.125000 I0.588532 J-5.649633
G02 X97.987593 Y99.190830 Z-0.125000 I-0.016831 J-0.148693
G02 X97.703051 Y98.805769 Z-0.125000 I-0.402817 J0.000000
G02 X95.807528 Y98.521216 Z-0.125000 I-1.895524 J6.171146
G03 X94.742694 Y98.379841 Z-0.125000 I-0.000000 J-4.080861
G03 X94.601344 Y98.195212 Z-0.125000 I0.049905 J-0.184629
G03 X94.697012 Y98.040785 Z-0.125000 I0.172472 J-0.000000
G03 X94.893630 Y98.049848 Z-0.125000 I0.090162 J0.181286
G02 X95.083528 Y97.998663 Z-0.125000 I0.070915 J-0.114759
G02 X95.396296 Y97.109055 Z-0.125000 I-2.735041 J-1.461369
G03 X95.896878 Y96.380211 Z-0.125000 I1.074334 J0.201544
G03 X96.966264 Y96.140866 Z-0.125000 I0.881352 J1.429186
G03 X98.297745 Y96.352481 Z-0.125000 I-1.664686 J14.768851
G03 X98.485210 Y96.453478 Z-0.125000 I-0.074764 J0.363251
G01 X98.485210 Y96.453478 Z-0.125000
G00 Z5.000000

(End cutting path id: path3207)


(Start cutting path id: path3207)
(Change tool to Default tool)

G00 Z5.000000
G00 X90.444891 Y95.761514

G01 Z-0.125000 F100.0(Penetrate)
G02 X90.366801 Y95.962239 Z-0.125000 I0.049648 J0.134867 F400.000000
G02 X90.676372 Y96.210499 Z-0.125000 I0.433614 J-0.223559
G03 X91.437825 Y96.497084 Z-0.125000 I-1.007638 J3.832159
G03 X91.518221 Y96.630578 Z-0.125000 I-0.064879 J0.130030
G03 X91.152616 Y97.385548 Z-0.125000 I-1.012200 J-0.024163
G03 X90.473886 Y97.497274 Z-0.125000 I-0.434805 J-0.523931
G02 X89.978197 Y97.425825 Z-0.125000 I-0.405129 J1.055467
G02 X89.211455 Y97.598708 Z-0.125000 I0.223094 J2.776145
G03 X88.681576 Y97.546556 Z-0.125000 I-0.212499 J-0.558898
G03 X88.444525 Y97.118382 Z-0.125000 I0.268170 J-0.428174
G03 X88.637083 Y96.476613 Z-0.125000 I1.165745 J-0.000000
G03 X89.137166 Y96.068061 Z-0.125000 I0.903909 J0.596084
G02 X89.474642 Y95.849081 Z-0.125000 I-0.390287 J-0.971016
G01 X89.445008 Y95.770164 Z-0.125000
G03 X89.148260 Y95.666916 Z-0.125000 I0.028530 J-0.560068
G03 X89.060207 Y95.496124 Z-0.125000 I0.121613 J-0.170792
G03 X89.172293 Y95.371309 Z-0.125000 I0.125537 J0.000000
G03 X90.060089 Y95.388349 Z-0.125000 I0.376929 J3.497700
G03 X90.480078 Y95.595324 Z-0.125000 I-0.110682 J0.754197
G03 X90.444891 Y95.761514 Z-0.125000 I-0.069852 J0.072030
G01 X90.444891 Y95.761514 Z-0.125000
G00 Z5.000000

(End cutting path id: path3207)


(Start cutting path id: path3207)
(Change tool to Default tool)

G00 Z5.000000
G00 X86.807769 Y91.806435

G01 Z-0.125000 F100.0(Penetrate)
G03 X86.711968 Y91.826091 Z-0.125000 I-0.054382 J-0.021763 F400.000000
G03 X86.621781 Y91.620436 Z-0.125000 I0.218366 J-0.218363
G03 X86.687662 Y91.236054 Z-0.125000 I0.930857 J-0.038294
G03 X86.783466 Y91.216396 Z-0.125000 I0.054384 J0.021760
G03 X86.873649 Y91.422041 Z-0.125000 I-0.218351 J0.218351
G03 X86.807766 Y91.806435 Z-0.125000 I-0.930702 J0.038326
G01 X86.807769 Y91.806435 Z-0.125000
G00 Z5.000000

(End cutting path id: path3207)


(Start cutting path id: path3207)
(Change tool to Default tool)

G00 Z5.000000
G00 X83.354910 Y90.594310

G01 Z-0.125000 F100.0(Penetrate)
G03 X83.966644 Y95.100747 Z-0.125000 I-64.188321 J11.008100 F400.000000
G03 X84.132226 Y98.341652 Z-0.125000 I-32.993138 J3.310341
G03 X83.929006 Y98.373780 Z-0.125000 I-0.104115 J0.000219
G03 X83.628256 Y96.776371 Z-0.125000 I6.185648 J-1.991612
G02 X83.449445 Y94.368379 Z-0.125000 I-89.768775 J5.455341
G02 X83.268042 Y92.672236 Z-0.125000 I-44.721193 J3.925190
G02 X82.740602 Y91.351485 Z-0.125000 I-2.803355 J0.353822
G02 X82.055344 Y91.024056 Z-0.125000 I-0.649036 J0.477548
G03 X81.466808 Y90.602536 Z-0.125000 I-0.026338 J-0.584851
G03 X81.748983 Y89.969547 Z-0.125000 I0.515261 J-0.149695
G03 X82.810712 Y89.927929 Z-0.125000 I0.578715 J1.199922
G03 X83.354910 Y90.594310 Z-0.125000 I-0.316691 J0.814024
G01 X83.354910 Y90.594310 Z-0.125000
G00 Z5.000000

(End cutting path id: path3207)


(Start cutting path id: path3207)
(Change tool to Default tool)

G00 Z5.000000
G00 X82.595546 Y92.228637

G01 Z-0.125000 F100.0(Penetrate)
G03 X82.489806 Y92.566486 Z-0.125000 I-0.592604 J0.000000 F400.000000
G03 X82.287706 Y92.672236 Z-0.125000 I-0.202100 J-0.140243
G03 X82.098379 Y92.553711 Z-0.125000 I0.000000 J-0.210473
G03 X81.979864 Y92.038393 Z-0.125000 I1.061068 J-0.515318
G03 X82.106929 Y91.632434 Z-0.125000 I0.712031 J-0.000000
G03 X82.287706 Y91.594794 Z-0.125000 I0.110236 J0.076503
G03 X82.505122 Y91.835465 Z-0.125000 I-0.305757 J0.494753
G03 X82.595546 Y92.228637 Z-0.125000 I-0.809569 J0.393172
G01 X82.595546 Y92.228637 Z-0.125000
G00 Z5.000000

(End cutting path id: path3207)


(Start cutting path id: path3207)
(Change tool to Default tool)

G00 Z5.000000
G00 X82.133785 Y88.008571

G01 Z-0.125000 F100.0(Penetrate)
G02 X80.959019 Y88.645228 Z-0.125000 I4.154008 J9.067186 F400.000000
G02 X80.555279 Y89.006314 Z-0.125000 I0.875654 J1.385352
G02 X80.215580 Y89.816026 Z-0.125000 I1.249314 J1.000238
G02 X79.623074 Y96.781050 Z-0.125000 I100.700135 J12.074155
G01 X79.439119 Y100.428104 Z-0.125000
G01 X81.863896 Y100.211724 Z-0.125000
G02 X84.225802 Y99.855964 Z-0.125000 I-1.754707 J-19.667882
G02 X84.697937 Y99.607647 Z-0.125000 I-0.205383 J-0.963505
G02 X84.899474 Y99.139086 Z-0.125000 I-0.443920 J-0.468561
G02 X84.697937 Y93.409700 Z-0.125000 I-81.539729 J0.000000
G02 X83.400769 Y88.469577 Z-0.125000 I-13.741967 J0.967975
G02 X82.133785 Y88.008571 Z-0.125000 I-0.867157 J0.411678
G01 X82.133785 Y88.008571 Z-0.125000
G00 Z5.000000

(End cutting path id: path3207)


(Start cutting path id: path3207)
(Change tool to Default tool)

G00 Z5.000000
G00 X85.054432 Y87.054140

G01 Z-0.125000 F100.0(Penetrate)
G03 X85.431464 Y88.828516 Z-0.125000 I-63.474671 J14.414779 F400.000000
G03 X85.533233 Y89.472754 Z-0.125000 I-8.254804 J1.634162
G02 X85.628897 Y90.118281 Z-0.125000 I11.090651 J-1.313718
G02 X85.944648 Y91.781560 Z-0.125000 I74.005699 J-13.187402
G03 X86.515994 Y96.471752 Z-0.125000 I-29.856322 J6.016903
G03 X86.259388 Y99.000031 Z-0.125000 I-8.802175 J0.383794
G03 X85.620849 Y101.438728 Z-0.125000 I-119.633448 J-30.021441
G03 X85.214359 Y102.830989 Z-0.125000 I-39.392703 J-10.745776
G02 X84.826804 Y104.226186 Z-0.125000 I22.387016 J6.970039
G02 X84.649203 Y105.139795 Z-0.125000 I9.408219 J2.302978
G03 X84.486308 Y106.057767 Z-0.125000 I-14.564632 J-2.111078
G03 X84.001737 Y108.218205 Z-0.125000 I-81.229546 J-17.084626
G02 X83.389760 Y111.580438 Z-0.125000 I30.832108 J7.348721
G02 X83.153744 Y114.906880 Z-0.125000 I29.941425 J3.795980
G03 X83.052122 Y117.424524 Z-0.125000 I-50.836476 J-0.791104
G01 X82.989319 Y117.428067 Z-0.125000
G02 X82.679956 Y116.957871 Z-0.125000 I-0.704483 J0.126641
G02 X81.245516 Y116.273663 Z-0.125000 I-3.149897 J4.757993
G02 X79.607580 Y115.821152 Z-0.125000 I-7.132631 J22.627066
G02 X79.089315 Y115.760309 Z-0.125000 I-0.518265 J2.176887
G03 X78.822886 Y115.503530 Z-0.125000 I0.000000 J-0.266611
G03 X78.728624 Y105.986358 Z-0.125000 I176.270758 J-6.504910
G03 X79.044435 Y95.703469 Z-0.125000 I377.505560 J6.447747
G03 X79.339666 Y92.210476 Z-0.125000 I43.793596 J1.942510
G03 X79.891590 Y89.052815 Z-0.125000 I32.651965 J4.080128
G03 X80.194232 Y88.420398 Z-0.125000 I1.535617 J0.346245
G03 X82.807182 Y85.869394 Z-0.125000 I11.336515 J8.998097
G03 X84.316644 Y85.306558 Z-0.125000 I1.697747 J2.247641
G03 X84.535315 Y85.441346 Z-0.125000 I0.014716 J0.220899
G03 X85.054432 Y87.054140 Z-0.125000 I-8.870181 J3.745023
G01 X85.054432 Y87.054140 Z-0.125000
G00 Z5.000000

(End cutting path id: path3207)


(Start cutting path id: path3207)
(Change tool to Default tool)

G00 Z5.000000
G00 X97.231528 Y72.367541

G01 Z-0.125000 F100.0(Penetrate)
G03 X96.797099 Y74.044730 Z-0.125000 I-118.314950 J-29.751353 F400.000000
G03 X95.675515 Y78.203713 Z-0.125000 I-728.111875 J-194.124478
G02 X94.558675 Y82.363873 Z-0.125000 I520.410263 J141.939827
G02 X94.089638 Y84.206611 Z-0.125000 I101.637999 J26.851241
G03 X93.623318 Y86.050000 Z-0.125000 I-121.947637 J-29.868288
G03 X93.205687 Y87.592860 Z-0.125000 I-85.846480 J-22.409502
G02 X92.787491 Y89.135556 Z-0.125000 I89.065815 J24.972087
G02 X92.419825 Y90.594310 Z-0.125000 I79.263586 J20.753401
G03 X91.985752 Y91.955144 Z-0.125000 I-9.776374 J-2.368780
G03 X91.836074 Y92.056554 Z-0.125000 I-0.149678 J-0.059754
G03 X90.517533 Y90.813332 Z-0.125000 I0.000000 J-1.320823
G03 X91.496129 Y86.280349 Z-0.125000 I8.634172 J-0.508147
G02 X91.737686 Y85.729245 Z-0.125000 I-3.756098 J-1.974846
G02 X92.618408 Y83.129168 Z-0.125000 I-83.215351 J-29.636676
G03 X93.605992 Y80.289410 Z-0.125000 I60.575680 J19.474817
G03 X97.101519 Y71.157632 Z-0.125000 I630.198072 J235.996840
G03 X97.313954 Y71.186032 Z-0.125000 I0.102743 J0.040187
G03 X97.231528 Y72.367541 Z-0.125000 I-3.349748 J0.359941
G01 X97.231528 Y72.367541 Z-0.125000
G00 Z5.000000

(End cutting path id: path3207)


(Start cutting path id: path3207)
(Change tool to Default tool)

G00 Z5.000000
G00 X97.890043 Y69.949726

G01 Z-0.125000 F100.0(Penetrate)
G03 X97.794243 Y69.969382 Z-0.125000 I-0.054381 J-0.021762 F400.000000
G03 X97.704058 Y69.763728 Z-0.125000 I0.218364 J-0.218360
G03 X97.769937 Y69.379347 Z-0.125000 I0.930873 J-0.038295
G03 X97.865741 Y69.359687 Z-0.125000 I0.054384 J0.021759
G03 X97.955922 Y69.565335 Z-0.125000 I-0.218360 J0.218354
G03 X97.890040 Y69.949726 Z-0.125000 I-0.930695 J0.038326
G01 X97.890043 Y69.949726 Z-0.125000
G00 Z5.000000

(End cutting path id: path3207)


(Start cutting path id: path3207)
(Change tool to Default tool)

G00 Z5.000000
G00 X102.133660 Y67.336927

G01 Z-0.125000 F100.0(Penetrate)
G02 X102.177587 Y69.094503 Z-0.125000 I4.539075 J0.765892 F400.000000
G02 X102.595472 Y69.430246 Z-0.125000 I0.417884 J-0.092190
G02 X103.136137 Y69.163444 Z-0.125000 I0.000000 J-0.681222
G02 X103.619549 Y68.094214 Z-0.125000 I-2.048081 J-1.569855
G02 X103.529733 Y66.874895 Z-0.125000 I-2.258390 J-0.446613
G02 X103.006847 Y66.374676 Z-0.125000 I-0.759657 J0.270681
G02 X102.538452 Y66.503272 Z-0.125000 I-0.132983 J0.432959
G02 X102.133660 Y67.336927 Z-0.125000 I1.221008 J1.107980
G01 X102.133660 Y67.336927 Z-0.125000
G00 Z5.000000

(End cutting path id: path3207)


(Start cutting path id: path3207)
(Change tool to Default tool)

G00 Z5.000000
G00 X102.995544 Y67.968002

G01 Z-0.125000 F100.0(Penetrate)
G03 X102.742489 Y68.851309 Z-0.125000 I-3.561510 J-0.542421 F400.000000
G03 X102.564405 Y68.968482 Z-0.125000 I-0.178085 J-0.076743
G03 X102.435224 Y68.850436 Z-0.125000 I0.000000 J-0.129706
G03 X102.487985 Y68.121920 Z-0.125000 I2.250729 J-0.203165
G03 X102.795855 Y67.795058 Z-0.125000 I0.438799 J0.104882
G03 X102.995544 Y67.968002 Z-0.125000 I0.045316 J0.149433
G01 X102.995544 Y67.968002 Z-0.125000
G00 Z5.000000

(End cutting path id: path3207)


(Start cutting path id: path3207)
(Change tool to Default tool)

G00 Z5.000000
G00 X106.511503 Y73.201296

G01 Z-0.125000 F100.0(Penetrate)
G01 X106.439949 Y73.201296 Z-0.125000 F400.000000
G03 X106.370719 Y72.662573 Z-0.125000 I2.061466 J-0.538723
G03 X106.439949 Y72.123853 Z-0.125000 I2.130677 J-0.000000
G01 X106.511503 Y72.123854 Z-0.125000
G03 X106.580729 Y72.662575 Z-0.125000 I-2.061554 J0.538721
G03 X106.511503 Y73.201296 Z-0.125000 I-2.130780 J0.000000
G01 X106.511503 Y73.201296 Z-0.125000
G00 Z5.000000

(End cutting path id: path3207)


(Start cutting path id: path3207)
(Change tool to Default tool)

G00 Z5.000000
G00 X109.069867 Y72.596203

G01 Z-0.125000 F100.0(Penetrate)
G03 X108.981638 Y72.787306 Z-0.125000 I-0.251078 J0.000000 F400.000000
G03 X108.146345 Y73.383200 Z-0.125000 I-3.870143 J-4.541583
G03 X107.347311 Y73.710616 Z-0.125000 I-1.523146 J-2.578423
G03 X107.222821 Y73.613341 Z-0.125000 I-0.024240 J-0.097275
G03 X107.332897 Y73.363407 Z-0.125000 I0.338782 J0.000000
G03 X108.069386 Y72.838660 Z-0.125000 I2.507907 J2.740672
G03 X108.948117 Y72.500434 Z-0.125000 I1.736257 J3.200280
G03 X109.069867 Y72.596203 Z-0.125000 I0.023209 J0.095769
G01 X109.069867 Y72.596203 Z-0.125000
G00 Z5.000000

(End cutting path id: path3207)


(Start cutting path id: path3207)
(Change tool to Default tool)

G00 Z5.000000
G00 X110.916913 Y70.249195

G01 Z-0.125000 F100.0(Penetrate)
G03 X110.819520 Y70.724893 Z-0.125000 I-1.210427 J0.000000 F400.000000
G03 X110.609073 Y70.969449 Z-0.125000 I-0.491357 J-0.210000
G02 X110.403123 Y71.216517 Z-0.125000 I0.266875 J0.431832
G02 X110.301231 Y71.757216 Z-0.125000 I1.383684 J0.540699
G03 X110.000332 Y72.193641 Z-0.125000 I-0.466946 J0.000000
G03 X109.623624 Y72.015032 Z-0.125000 I-0.102707 J-0.269946
G02 X109.415883 Y71.883264 Z-0.125000 I-0.184711 J0.061568
G02 X108.328049 Y72.169353 Z-0.125000 I0.481472 J4.042015
G01 X107.145701 Y72.663375 Z-0.125000
G01 X107.338182 Y71.700972 Z-0.125000
G02 X107.498144 Y70.735320 Z-0.125000 I-14.444055 J-2.888749
G02 X107.530782 Y70.238327 Z-0.125000 I-3.780706 J-0.497854
G03 X107.744648 Y69.950674 Z-0.125000 I0.300482 J0.000074
G03 X109.223909 Y69.728636 Z-0.125000 I1.508413 J5.010776
G03 X110.692253 Y69.945099 Z-0.125000 I0.026991 J4.905280
G03 X110.916913 Y70.249195 Z-0.125000 I-0.093480 J0.304096
G01 X110.916913 Y70.249195 Z-0.125000
G00 Z5.000000

(End cutting path id: path3207)


(Start cutting path id: path3207)
(Change tool to Default tool)

G00 Z5.000000
G00 X113.225722 Y66.505755

G01 Z-0.125000 F100.0(Penetrate)
G02 X113.476305 Y66.705394 Z-0.125000 I0.403483 J-0.249362 F400.000000
G02 X114.129716 Y66.813597 Z-0.125000 I0.653411 J-1.918787
G03 X115.016685 Y67.463834 Z-0.125000 I0.000000 J0.930062
G03 X114.979470 Y69.507081 Z-0.125000 I-3.062544 J0.966183
G02 X114.274125 Y71.687567 Z-0.125000 I37.011633 J13.176883
G02 X113.828444 Y73.455020 Z-0.125000 I23.861592 J6.956854
G03 X113.407422 Y75.053390 Z-0.125000 I-17.122069 J-3.655436
G03 X111.463046 Y80.974280 Z-0.125000 I-237.435977 J-74.692480
G02 X110.603625 Y83.601617 Z-0.125000 I95.576744 J32.718087
G02 X110.262360 Y84.822293 Z-0.125000 I20.274201 J6.326111
G03 X108.962713 Y89.221565 Z-0.125000 I-50.064693 J-12.398662
G03 X107.498327 Y92.846382 Z-0.125000 I-35.418649 J-12.200545
G02 X106.960169 Y94.107973 Z-0.125000 I18.875970 J8.797498
G02 X106.914982 Y94.349263 Z-0.125000 I0.621614 J0.241290
G03 X106.859814 Y94.584837 Z-0.125000 I-0.530556 J0.000000
G03 X106.286786 Y95.616983 Z-0.125000 I-11.319981 J-5.609508
G03 X105.527176 Y96.266411 Z-0.125000 I-1.393978 J-0.861523
G03 X104.670621 Y96.295524 Z-0.125000 I-0.466541 J-1.111217
G03 X103.523444 Y95.524208 Z-0.125000 I0.862320 J-2.521283
G03 X103.541548 Y94.998992 Z-0.125000 I0.290417 J-0.252909
G02 X103.755265 Y94.670109 Z-0.125000 I-0.667897 J-0.667897
G02 X103.838469 Y94.226832 Z-0.125000 I-1.165674 J-0.448246
G03 X103.910710 Y93.766848 Z-0.125000 I1.532027 J0.004943
G03 X104.235197 Y92.980079 Z-0.125000 I4.899928 J1.560577
G02 X105.370591 Y90.498499 Z-0.125000 I-27.038313 J-13.871338
G02 X105.853033 Y88.978145 Z-0.125000 I-9.623334 J-3.890416
G03 X105.899609 Y88.827599 Z-0.125000 I1.104444 J0.259211
G03 X106.236353 Y87.988620 Z-0.125000 I34.711159 J13.445100
G02 X106.549032 Y87.141002 Z-0.125000 I-10.327677 J-4.291276
G02 X107.083214 Y85.371974 Z-0.125000 I-44.523640 J-14.409686
G03 X107.600341 Y83.596211 Z-0.125000 I90.131628 J25.284407
G03 X108.132277 Y81.897805 Z-0.125000 I83.001606 J25.063328
G02 X108.660290 Y80.198276 Z-0.125000 I-67.403212 J-21.872747
G02 X109.229291 Y78.203713 Z-0.125000 I-92.262740 J-27.398834
G03 X110.210520 Y74.718646 Z-0.125000 I238.303559 J65.214232
G03 X111.349534 Y70.879282 Z-0.125000 I290.468599 J84.083908
G02 X112.084330 Y68.316401 Z-0.125000 I-80.685933 J-24.519991
G02 X112.324984 Y67.262152 Z-0.125000 I-13.394811 J-3.612242
G03 X112.806400 Y66.438362 Z-0.125000 I1.392575 J0.261246
G03 X113.225722 Y66.505755 Z-0.125000 I0.180526 J0.214976
G01 X113.225722 Y66.505755 Z-0.125000
G00 Z5.000000

(End cutting path id: path3207)


(Start cutting path id: path3207)
(Change tool to Default tool)

G00 Z5.000000
G00 X114.590907 Y66.019768

G01 Z-0.125000 F100.0(Penetrate)
G03 X114.581933 Y66.220425 Z-0.125000 I-0.114941 J0.095388 F400.000000
G03 X114.320758 Y66.291714 Z-0.125000 I-0.192520 J-0.191251
G03 X113.788999 Y66.047709 Z-0.125000 I0.426555 J-1.631020
G03 X113.687482 Y65.854180 Z-0.125000 I0.133713 J-0.193529
G03 X113.943578 Y65.640763 Z-0.125000 I0.216973 J0.000000
G03 X114.590907 Y66.019768 Z-0.125000 I-0.198105 J1.080669
G01 X114.590907 Y66.019768 Z-0.125000
G00 Z5.000000

(End cutting path id: path3207)


(Start cutting path id: path3207)
(Change tool to Default tool)

G00 Z5.000000
G00 X109.473414 Y65.149533

G01 Z-0.125000 F100.0(Penetrate)
G02 X110.458395 Y65.354923 Z-0.125000 I6.066968 J-26.630657 F400.000000
G02 X111.070834 Y65.452047 Z-0.125000 I1.931025 J-10.197015
G02 X111.686524 Y65.530831 Z-0.125000 I306.438202 J-2392.556382
G02 X111.888575 Y65.556590 Z-0.125000 I38.756425 J-303.178259
G03 X112.008215 Y65.717848 Z-0.125000 I-0.017496 J0.137991
G03 X111.479438 Y67.968002 Z-0.125000 I-18.172108 J-3.083167
G03 X110.917471 Y68.618887 Z-0.125000 I-1.012371 J-0.306028
G03 X109.353836 Y68.968482 Z-0.125000 I-1.563635 J-3.322045
G01 X107.530664 Y68.968482 Z-0.125000
G01 X107.495216 Y67.814080 Z-0.125000
G03 X107.600724 Y65.794100 Z-0.125000 I12.210349 J-0.374976
G03 X107.936697 Y64.565434 Z-0.125000 I4.800240 J0.652336
G03 X108.235099 Y64.234998 Z-0.125000 I0.622668 J0.262349
G03 X108.395971 Y64.314206 Z-0.125000 I0.052595 J0.096149
G02 X108.662757 Y64.766158 Z-0.125000 I0.702407 J-0.109912
G02 X109.473414 Y65.149533 Z-0.125000 I1.271652 J-1.640175
G01 X109.473414 Y65.149533 Z-0.125000
G00 Z5.000000

(End cutting path id: path3207)


(Start cutting path id: path3207)
(Change tool to Default tool)

G00 Z5.000000
G00 X109.331382 Y62.196537

G01 Z-0.125000 F100.0(Penetrate)
G03 X108.935886 Y63.061769 Z-0.125000 I-4.820535 J-1.680457 F400.000000
G03 X108.684154 Y63.321543 Z-0.125000 I-0.639635 J-0.367977
G03 X108.568035 Y63.313488 Z-0.125000 I-0.052452 J-0.084865
G03 X108.551298 Y63.211425 Z-0.125000 I0.050270 J-0.060648
G02 X108.721570 Y62.889500 Z-0.125000 I-2.312917 J-1.429335
G02 X109.053004 Y62.086423 Z-0.125000 I-14.130219 J-6.301551
G03 X109.242670 Y62.002768 Z-0.125000 I0.136106 J0.051747
G03 X109.331382 Y62.196537 Z-0.125000 I-0.056610 J0.143109
G01 X109.331382 Y62.196537 Z-0.125000
G00 Z5.000000

(End cutting path id: path3207)


(Start cutting path id: path3207)
(Change tool to Default tool)

G00 Z5.000000
G00 X111.491085 Y60.544877

G01 Z-0.125000 F100.0(Penetrate)
G02 X110.060490 Y63.165554 Z-0.125000 I57.581085 J33.133599 F400.000000
G02 X109.993391 Y63.441414 Z-0.125000 I0.533509 J0.275859
G03 X109.905340 Y63.647146 Z-0.125000 I-0.284372 J0.000000
G03 X109.685549 Y63.735187 Z-0.125000 I-0.219791 J-0.230327
G03 X109.465110 Y63.647774 Z-0.125000 I-0.000000 J-0.321658
G03 X109.377709 Y63.445509 Z-0.125000 I0.190344 J-0.202265
G03 X109.450694 Y63.196538 Z-0.125000 I0.461147 J0.000000
G03 X109.685549 Y62.965584 Z-0.125000 I0.625560 J0.401240
G02 X109.901656 Y62.724190 Z-0.125000 I-0.300773 J-0.486697
G02 X109.993391 Y62.316933 Z-0.125000 I-0.858135 J-0.407257
G03 X110.095086 Y61.888326 Z-0.125000 I0.954063 J-0.000000
G03 X111.070834 Y60.174237 Z-0.125000 I17.087485 J8.592314
G02 X112.056604 Y58.463137 Z-0.125000 I-17.916388 J-11.461191
G02 X112.148276 Y58.085443 Z-0.125000 I-0.732223 J-0.377694
G03 X112.419206 Y57.535885 Z-0.125000 I0.692829 J-0.000000
G03 X112.778383 Y57.601703 Z-0.125000 I0.149850 J0.195192
G03 X112.802678 Y57.945050 Z-0.125000 I-0.315243 J0.194840
G03 X111.491085 Y60.544877 Z-0.125000 I-24.298454 J-10.627630
G01 X111.491085 Y60.544877 Z-0.125000
G00 Z5.000000

(End cutting path id: path3207)


(Start cutting path id: path3207)
(Change tool to Default tool)

G00 Z5.000000
G00 X111.604787 Y57.883716

G01 Z-0.125000 F100.0(Penetrate)
G03 X110.175231 Y60.535491 Z-0.125000 I-58.387371 J-29.765054 F400.000000
G03 X110.088957 Y60.547126 Z-0.125000 I-0.047573 J-0.027076
G03 X110.058012 Y60.375388 Z-0.125000 I0.108143 J-0.108143
G03 X111.303907 Y57.776245 Z-0.125000 I72.255447 J33.037334
G03 X112.644297 Y55.221147 Z-0.125000 I71.641618 J35.953682
G03 X112.812986 Y55.119211 Z-0.125000 I0.172115 J0.094279
G03 X112.871030 Y55.205288 Z-0.125000 I0.001694 J0.061467
G03 X111.604787 Y57.883716 Z-0.125000 I-45.502816 J-19.873210
G01 X111.604787 Y57.883716 Z-0.125000
G00 Z5.000000

(End cutting path id: path3207)


(Start cutting path id: path3207)
(Change tool to Default tool)

G00 Z5.000000
G00 X114.700959 Y54.803150

G01 Z-0.125000 F100.0(Penetrate)
G02 X115.073711 Y55.105178 Z-0.125000 I48.296172 J-59.224276 F400.000000
G02 X116.073251 Y55.907963 Z-0.125000 I343.717480 J-426.935952
G03 X116.903540 Y57.158684 Z-0.125000 I-1.542072 J1.924656
G03 X116.821213 Y58.540924 Z-0.125000 I-2.018320 J0.573359
G03 X116.491671 Y58.727798 Z-0.125000 I-0.285364 J-0.119222
G03 X115.004746 Y58.278768 Z-0.125000 I0.742661 J-5.145685
G01 X113.397522 Y57.515783 Z-0.125000
G01 X113.837786 Y56.462106 Z-0.125000
G02 X114.147268 Y55.406466 Z-0.125000 I-4.598194 J-1.921242
G02 X114.103752 Y54.954179 Z-0.125000 I-0.837287 J-0.147678
G03 X114.235568 Y54.699959 Z-0.125000 I0.178759 J-0.068595
G03 X114.700959 Y54.803150 Z-0.125000 I0.130081 J0.514385
G01 X114.700959 Y54.803150 Z-0.125000
G00 Z5.000000

(End cutting path id: path3207)


(Start cutting path id: path3207)
(Change tool to Default tool)

G00 Z5.000000
G00 X114.898746 Y53.706130

G01 Z-0.125000 F100.0(Penetrate)
G03 X114.889772 Y53.906786 Z-0.125000 I-0.114941 J0.095388 F400.000000
G03 X114.628598 Y53.978077 Z-0.125000 I-0.192521 J-0.191251
G03 X114.096839 Y53.734072 Z-0.125000 I0.426563 J-1.631041
G03 X113.995322 Y53.540542 Z-0.125000 I0.133713 J-0.193530
G03 X114.251418 Y53.327125 Z-0.125000 I0.216973 J-0.000000
G03 X114.898746 Y53.706130 Z-0.125000 I-0.198105 J1.080669
G01 X114.898746 Y53.706130 Z-0.125000
G00 Z5.000000

(End cutting path id: path3207)


(Start cutting path id: path3207)
(Change tool to Default tool)

G00 Z5.000000
G00 X113.263147 Y53.075149

G01 Z-0.125000 F100.0(Penetrate)
G03 X113.003714 Y53.692645 Z-0.125000 I-2.147456 J-0.538981 F400.000000
G03 X112.391072 Y54.498850 Z-0.125000 I-4.314716 J-2.642908
G02 X111.761718 Y55.255071 Z-0.125000 I6.440386 J5.999916
G02 X111.766565 Y55.340857 Z-0.125000 I0.053908 J0.039984
G03 X111.789458 Y55.486553 Z-0.125000 I-0.096122 J0.089750
G03 X110.744266 Y57.609906 Z-0.125000 I-59.528799 J-27.983319
G03 X109.635889 Y59.667777 Z-0.125000 I-55.737828 J-28.693178
G03 X109.531755 Y59.682061 Z-0.125000 I-0.057486 J-0.032359
G03 X109.480975 Y59.546045 Z-0.125000 I0.123579 J-0.123624
G03 X109.699646 Y57.320581 Z-0.125000 I41.329060 J2.937460
G03 X110.298982 Y55.217457 Z-0.125000 I7.132286 J0.895558
G03 X111.526809 Y53.339921 Z-0.125000 I6.874866 J3.155624
G02 X112.994329 Y51.571105 Z-0.125000 I-24.227138 J-21.593524
G02 X113.113722 Y51.283145 Z-0.125000 I-0.472725 J-0.364730
G01 X113.164966 Y51.275617 Z-0.125000
G03 X113.293156 Y51.683737 Z-0.125000 I-1.682112 J0.752542
G03 X113.353250 Y52.405427 Z-0.125000 I-3.405753 J0.646939
G03 X113.263142 Y53.075149 Z-0.125000 I-3.017605 J-0.065084
G01 X113.263147 Y53.075149 Z-0.125000
G00 Z5.000000

(End cutting path id: path3207)


(Start cutting path id: path3207)
(Change tool to Default tool)

G00 Z5.000000
G00 X116.631337 Y55.192600

G01 Z-0.125000 F100.0(Penetrate)
G01 X117.535495 Y56.193084 Z-0.125000 F400.000000
G01 X116.535012 Y55.288925 Z-0.125000
G03 X115.568228 Y54.369800 Z-0.125000 I17.702150 J-19.588060
G03 X115.534528 Y54.288442 Z-0.125000 I0.081358 J-0.081358
G03 X115.635363 Y54.240890 Z-0.125000 I0.061630 J-0.000000
G03 X116.631337 Y55.192600 Z-0.125000 I-5.991584 J7.267257
G01 X116.631337 Y55.192600 Z-0.125000
G00 Z5.000000

(End cutting path id: path3207)


(Start cutting path id: path3207)
(Change tool to Default tool)

G00 Z5.000000
G00 X119.966230 Y61.152185

G01 Z-0.125000 F100.0(Penetrate)
G01 X120.857767 Y61.935981 Z-0.125000 F400.000000
G01 X118.734866 Y64.133411 Z-0.125000
G03 X116.595077 Y66.311951 Z-0.125000 I-132.469577 J-127.973180
G03 X116.304131 Y66.567508 Z-0.125000 I-2.098021 J-2.095155
G03 X115.764742 Y66.742969 Z-0.125000 I-0.517015 J-0.672562
G03 X115.660792 Y66.550574 Z-0.125000 I0.003326 J-0.126077
G02 X115.582246 Y65.843460 Z-0.125000 I-0.490901 J-0.303391
G02 X114.073066 Y64.928838 Z-0.125000 I-2.537189 J2.484082
G03 X113.976399 Y64.611360 Z-0.125000 I0.057779 J-0.191048
G03 X115.847715 Y62.573820 Z-0.125000 I18.814969 J15.401933
G03 X118.056435 Y60.619026 Z-0.125000 I22.111465 J22.758510
G03 X118.766859 Y60.368482 Z-0.125000 I0.710546 J0.882287
G03 X119.043619 Y60.450893 Z-0.125000 I-0.000000 J0.505928
G03 X119.966230 Y61.152276 Z-0.125000 I-4.456646 J6.819850
G01 X119.966230 Y61.152185 Z-0.125000
G00 Z5.000000

(End cutting path id: path3207)


(Start cutting path id: path3207)
(Change tool to Default tool)

G00 Z5.000000
G00 X120.694516 Y63.350386

G01 Z-0.125000 F100.0(Penetrate)
G02 X120.307667 Y64.202313 Z-0.125000 I24.677931 J11.719702 F400.000000
G02 X119.393107 Y66.351836 Z-0.125000 I156.392027 J67.809625
G03 X118.873087 Y67.580565 Z-0.125000 I-124.458812 J-51.948860
G03 X118.600607 Y68.198882 Z-0.125000 I-31.785226 J-13.637875
G02 X118.337364 Y68.820870 Z-0.125000 I12.571442 J5.687298
G02 X117.689413 Y70.507688 Z-0.125000 I91.896633 J36.267735
G03 X117.039405 Y72.193565 Z-0.125000 I-81.389249 J-30.412282
G03 X116.771536 Y72.816495 Z-0.125000 I-11.369408 J-4.519947
G02 X116.513665 Y73.443174 Z-0.125000 I7.079636 J3.279579
G02 X115.268977 Y76.972350 Z-0.125000 I223.736028 J80.892507
G03 X112.266931 Y85.572408 Z-0.125000 I-926.728385 J-318.671613
G03 X111.778847 Y86.823260 Z-0.125000 I-20.070607 J-7.110917
G02 X111.141210 Y88.445363 Z-0.125000 I27.606357 J11.788242
G02 X110.472054 Y90.453874 Z-0.125000 I41.663224 J14.996254
G03 X109.841087 Y92.022359 Z-0.125000 I-9.544495 J-2.928383
G03 X108.530732 Y94.301886 Z-0.125000 I-21.558777 J-10.876387
G02 X107.111974 Y96.533656 Z-0.125000 I111.760536 J72.614089
G02 X106.673038 Y97.289175 Z-0.125000 I12.356075 J7.683819
G03 X106.220018 Y98.032132 Z-0.125000 I-7.470161 J-4.045350
G03 X105.816223 Y98.544764 Z-0.125000 I-3.943769 J-2.691122
G02 X105.575276 Y99.108327 Z-0.125000 I0.698095 J0.631754
G02 X105.375776 Y104.610155 Z-0.125000 I75.764892 J5.501827
G03 X105.247300 Y110.175236 Z-0.125000 I-120.593134 J0.000000
G03 X105.047294 Y111.720512 Z-0.125000 I-9.438305 J-0.436019
G01 X104.718816 Y113.252174 Z-0.125000
G01 X103.585050 Y113.078120 Z-0.125000
G03 X102.471058 Y112.843007 Z-0.125000 I1.551098 J-10.105964
G03 X101.906203 Y112.624825 Z-0.125000 I0.753718 J-2.791591
G02 X101.365926 Y112.465371 Z-0.125000 I-0.692785 J1.352317
G02 X101.049151 Y112.538384 Z-0.125000 I-0.050780 J0.503374
G03 X100.878893 Y112.429677 Z-0.125000 I-0.058942 J-0.095369
G03 X101.308606 Y110.373090 Z-0.125000 I12.041953 J1.442920
G02 X101.497353 Y109.451280 Z-0.125000 I-4.971106 J-1.498096
G02 X101.454730 Y109.064767 Z-0.125000 I-0.881258 J-0.098425
G03 X101.621013 Y108.817283 Z-0.125000 I0.176879 J-0.060761
G03 X103.288762 Y108.960686 Z-0.125000 I0.333967 J5.885494
G02 X104.369647 Y109.035448 Z-0.125000 I0.773306 J-3.329323
G02 X104.765614 Y108.827238 Z-0.125000 I-0.052438 J-0.580347
G02 X104.940842 Y108.372904 Z-0.125000 I-0.587507 J-0.487549
G02 X105.005582 Y103.316699 Z-0.125000 I-82.244365 J-3.581574
G03 X105.100253 Y98.471764 Z-0.125000 I64.700684 J-1.159129
G03 X105.288956 Y98.349963 Z-0.125000 I0.138771 J0.007917
G02 X105.623984 Y98.375806 Z-0.125000 I0.210733 J-0.547377
G02 X105.824966 Y98.233722 Z-0.125000 I-0.066680 J-0.307510
G02 X105.633641 Y97.519974 Z-0.125000 I-0.431701 J-0.266796
G02 X103.497598 Y96.982010 Z-0.125000 I-2.136044 J3.971711
G03 X103.364364 Y96.871569 Z-0.125000 I0.000000 J-0.135587
G03 X103.434112 Y96.645632 Z-0.125000 I0.248741 J-0.046947
G03 X103.797957 Y96.494935 Z-0.125000 I0.363845 J0.363887
G03 X104.398968 Y96.645632 Z-0.125000 I0.000000 J1.273825
G02 X105.663501 Y96.650691 Z-0.125000 I0.637039 J-1.190288
G02 X107.130128 Y95.211923 Z-0.125000 I-1.656408 J-3.155380
G02 X110.010687 Y88.753088 Z-0.125000 I-37.345309 J-20.527301
G02 X110.607676 Y85.268661 Z-0.125000 I-10.052089 J-3.515585
G03 X110.682454 Y84.819568 Z-0.125000 I1.404083 J0.003020
G03 X110.869084 Y84.499058 Z-0.125000 I0.886083 J0.301368
G02 X111.306663 Y83.748059 Z-0.125000 I-1.641452 J-1.459392
G02 X113.381235 Y77.126268 Z-0.125000 I-132.512054 J-45.151180
G03 X115.370417 Y70.398896 Z-0.125000 I388.908219 J111.336512
G03 X115.541722 Y70.045928 Z-0.125000 I1.210144 J0.369262
G02 X115.701623 Y69.715357 Z-0.125000 I-0.964400 J-0.670449
G02 X115.960495 Y68.660643 Z-0.125000 I-9.833613 J-2.972716
G03 X116.379446 Y67.696033 Z-0.125000 I2.346833 J0.445997
G03 X118.381874 Y65.351353 Z-0.125000 I16.571530 J12.125181
G03 X120.601267 Y63.279433 Z-0.125000 I28.521325 J28.326760
G03 X120.694516 Y63.350386 Z-0.125000 I0.039171 J0.045272
G01 X120.694516 Y63.350386 Z-0.125000
G00 Z5.000000

(End cutting path id: path3207)


(Start cutting path id: path3207)
(Change tool to Default tool)

G00 Z5.000000
G00 X106.268490 Y58.845103

G01 Z-0.125000 F100.0(Penetrate)
G03 X106.952717 Y59.386194 Z-0.125000 I-0.438382 J1.257508 F400.000000
G03 X107.106035 Y60.157521 Z-0.125000 I-0.912383 J0.582257
G02 X106.966192 Y61.122582 Z-0.125000 I15.152992 J2.688421
G02 X106.728876 Y63.504307 Z-0.125000 I92.157378 J10.385279
G03 X106.432156 Y65.791870 Z-0.125000 I-26.991401 J-2.338032
G03 X106.315474 Y65.890073 Z-0.125000 I-0.116682 J-0.020218
G03 X106.218709 Y65.791278 Z-0.125000 I0.000000 J-0.096786
G03 X106.365007 Y63.504307 Z-0.125000 I26.572863 J0.551704
G02 X106.565860 Y61.120930 Z-0.125000 I-51.844600 J-5.569239
G02 X106.537255 Y60.690393 Z-0.125000 I-1.693792 J-0.103682
G02 X105.938580 Y59.997654 Z-0.125000 I-0.905881 J0.177814
G02 X102.990893 Y59.438989 Z-0.125000 I-3.298146 J9.346241
G02 X102.694923 Y59.568691 Z-0.125000 I-0.013053 J0.372757
G02 X102.143134 Y60.425898 Z-0.125000 I2.814314 J2.417786
G01 X101.679297 Y61.426381 Z-0.125000
G01 X101.851452 Y60.502857 Z-0.125000
G02 X101.980911 Y59.575878 Z-0.125000 I-10.104226 J-1.883658
G02 X102.006511 Y58.844302 Z-0.125000 I-6.261353 J-0.585332
G03 X102.290377 Y58.439846 Z-0.125000 I0.416265 J-0.009689
G03 X103.624928 Y58.301487 Z-0.125000 I0.976219 J2.910749
G03 X105.244570 Y58.562699 Z-0.125000 I-2.231394 J18.987607
G03 X106.268490 Y58.845103 Z-0.125000 I-1.614776 J7.852158
G01 X106.268490 Y58.845103 Z-0.125000
G00 Z5.000000

(End cutting path id: path3207)


(Start cutting path id: path3207)
(Change tool to Default tool)

G00 Z5.000000
G00 X105.382241 Y60.909299

G01 Z-0.125000 F100.0(Penetrate)
G03 X105.745607 Y61.180591 Z-0.125000 I-0.421763 J0.943896 F400.000000
G03 X105.825229 Y61.426381 Z-0.125000 I-0.254894 J0.218363
G03 X105.794234 Y61.733621 Z-0.125000 I-8.223681 J-0.674432
G03 X105.553350 Y63.695321 Z-0.125000 I-335.158537 J-40.159659
G01 X105.306710 Y65.656455 Z-0.125000
G01 X103.930431 Y65.467809 Z-0.125000
G03 X102.570523 Y65.233618 Z-0.125000 I2.729100 J-19.912876
G03 X102.316901 Y65.132540 Z-0.125000 I0.160081 J-0.770401
G03 X101.734870 Y63.854390 Z-0.125000 I0.663709 J-1.073828
G03 X102.987905 Y61.041580 Z-0.125000 I5.988468 J0.982206
G03 X103.809301 Y60.618943 Z-0.125000 I0.883879 J0.708311
G03 X105.382241 Y60.909299 Z-0.125000 I0.187336 J3.390852
G01 X105.382241 Y60.909299 Z-0.125000
G00 Z5.000000

(End cutting path id: path3207)


(Start cutting path id: path3207)
(Change tool to Default tool)

G00 Z5.000000
G00 X101.681684 Y55.698907

G01 Z-0.125000 F100.0(Penetrate)
G02 X101.921141 Y56.091724 Z-0.125000 I0.441927 J-0.000000 F400.000000
G02 X103.759613 Y56.769949 Z-0.125000 I3.673655 J-7.127324
G02 X108.106513 Y57.434764 Z-0.125000 I6.364646 J-27.071752
G02 X108.454185 Y57.111466 Z-0.125000 I0.023519 J-0.323298
G02 X108.284808 Y56.845553 Z-0.125000 I-0.293424 J0.000000
G02 X107.819693 Y56.815477 Z-0.125000 I-0.271110 J0.581165
G03 X102.894245 Y57.093511 Z-0.125000 I-3.005065 J-9.468693
G03 X102.802597 Y55.826968 Z-0.125000 I0.127240 J-0.645794
G03 X103.158893 Y55.792532 Z-0.125000 I0.247679 J0.702198
G03 X105.233612 Y56.185387 Z-0.125000 I-3.781085 J25.643236
G02 X107.372222 Y56.431438 Z-0.125000 I2.150152 J-9.271426
