%
(Header)
(Generated by gcodetools from Inkscape.)
(Using default header. To add your own header create file "header" in the output dir.)
M3
(Header end.)
G21 (All units in mm)

(Start cutting path id: path10-0-9)
(Change tool to Default tool)

G00 Z5.000000
G00 X132.807993 Y247.433965

G01 Z-0.125000 F100.0(Penetrate)
G03 X132.589516 Y247.428904 Z-0.125000 I-0.055421 J-2.325721 F400.000000
G03 X132.359511 Y247.405339 Z-0.125000 I0.253633 J-3.609762
G03 X131.908824 Y247.315855 Z-0.125000 I0.490201 J-3.648586
G03 X131.443460 Y247.166785 Z-0.125000 I1.211799 J-4.583879
G03 X130.562378 Y246.721479 Z-0.125000 I1.643745 J-4.346621
G03 X129.869001 Y246.126687 Z-0.125000 I1.848925 J-2.856925
G03 X129.575052 Y245.712105 Z-0.125000 I1.724221 J-1.534020
G03 X128.924325 Y244.304130 Z-0.125000 I9.235613 J-5.122807
G03 X128.301263 Y242.568716 Z-0.125000 I58.530280 J-21.993528
G03 X126.242971 Y236.517710 Z-0.125000 I1460.871016 J-500.301258
G02 X125.418424 Y234.112887 Z-0.125000 I-266.519192 J90.038211
G02 X124.811644 Y232.414572 Z-0.125000 I-102.368396 J35.616996
G02 X124.502454 Y231.589895 Z-0.125000 I-57.624235 J21.134289
G02 X124.305910 Y231.088209 Z-0.125000 I-33.489704 J12.830824
G03 X124.206424 Y230.836681 Z-0.125000 I29.976014 J-12.001826
G02 X124.143692 Y230.687437 Z-0.125000 I-2.962582 J1.157461
G02 X124.057071 Y230.525743 Z-0.125000 I-1.218154 J0.548526
G01 X124.057811 Y230.525220 Z-0.125000
G02 X123.956822 Y230.433369 Z-0.125000 I-0.331919 J0.263497
G02 X123.704751 Y230.305750 Z-0.125000 I-0.716642 J1.102748
G02 X123.437574 Y230.228166 Z-0.125000 I-0.627552 J1.662285
G02 X123.170389 Y230.200786 Z-0.125000 I-0.267185 J1.289954
G03 X122.845880 Y230.177368 Z-0.125000 I0.000000 J-2.260141
G03 X122.569233 Y230.114906 Z-0.125000 I0.261355 J-1.801424
G03 X122.327015 Y230.014424 Z-0.125000 I0.416410 J-1.345959
G03 X122.158919 Y229.857267 Z-0.125000 I0.205107 J-0.387861
G01 X122.157459 Y229.858506 Z-0.125000
G02 X122.063497 Y229.790472 Z-0.125000 I-0.366597 J0.407406
G02 X121.964583 Y229.740781 Z-0.125000 I-0.509030 J0.889954
G02 X121.805859 Y229.675966 Z-0.125000 I-1.437590 J3.293757
G02 X121.466018 Y229.562079 Z-0.125000 I-1.576412 J4.140046
G02 X121.023398 Y229.456496 Z-0.125000 I-1.303841 J4.485351
G03 X120.560630 Y229.346696 Z-0.125000 I0.921703 J-4.914756
G03 X120.231397 Y229.227483 Z-0.125000 I0.725415 J-2.517631
G03 X120.082259 Y229.154975 Z-0.125000 I0.867063 J-1.973032
G03 X119.973760 Y229.084351 Z-0.125000 I0.355342 J-0.664568
G03 X119.883217 Y228.992548 Z-0.125000 I0.307768 J-0.394092
G03 X119.830625 Y228.836254 Z-0.125000 I0.205940 J-0.156294
G03 X119.850010 Y228.750876 Z-0.125000 I0.198191 J0.000108
G03 X119.897421 Y228.683579 Z-0.125000 I0.222369 J0.106314
G03 X119.956728 Y228.639975 Z-0.125000 I0.168338 J0.166825
G03 X120.011927 Y228.616784 Z-0.125000 I0.171684 J0.331350
G03 X120.132781 Y228.591835 Z-0.125000 I0.169505 J0.515917
G03 X120.279107 Y228.588173 Z-0.125000 I0.101436 J1.127665
G03 X120.584058 Y228.622423 Z-0.125000 I-0.088931 J2.166492
G03 X121.023398 Y228.731305 Z-0.125000 I-0.682538 J3.694852
G02 X122.013494 Y229.026773 Z-0.125000 I11.686160 J-37.353092
G02 X123.227644 Y229.351547 Z-0.125000 I11.125377 J-39.159683
G03 X124.422653 Y229.667941 Z-0.125000 I-11.707706 J46.634520
G03 X124.916608 Y229.828656 Z-0.125000 I-1.625849 J5.836466
G02 X125.417288 Y229.977394 Z-0.125000 I1.329716 J-3.559015
G02 X127.302153 Y230.363018 Z-0.125000 I11.551698 J-51.663434
G03 X128.299423 Y230.596784 Z-0.125000 I-2.006653 J10.804727
G03 X128.867073 Y230.821043 Z-0.125000 I-0.840785 J2.958766
G02 X129.321866 Y231.016359 Z-0.125000 I1.620474 J-3.146120
G02 X130.641918 Y231.422200 Z-0.125000 I6.085527 J-17.444231
G03 X131.196371 Y231.596233 Z-0.125000 I-1.732658 J6.490362
G03 X131.548424 Y231.756177 Z-0.125000 I-0.833774 J2.302638
G03 X131.707352 Y231.858137 Z-0.125000 I-0.704930 J1.273631
G03 X131.815607 Y231.956563 Z-0.125000 I-0.424034 J0.575127
G03 X131.858580 Y232.013890 Z-0.125000 I-0.306643 J0.274634
G03 X131.891945 Y232.090153 Z-0.125000 I-0.246823 J0.153415
G03 X131.897229 Y232.179144 Z-0.125000 I-0.208215 J0.057017
G03 X131.863333 Y232.271455 Z-0.125000 I-0.240894 J-0.036076
G03 X131.677050 Y232.425105 Z-0.125000 I-0.319021 J-0.197026
G03 X131.424393 Y232.471840 Z-0.125000 I-0.255518 J-0.675049
G03 X131.163793 Y232.442592 Z-0.125000 I-0.000000 J-1.175566
G03 X130.832776 Y232.338250 Z-0.125000 I0.470702 J-2.070507
G02 X129.738799 Y231.950826 Z-0.125000 I-4.683332 J11.486163
G02 X127.645688 Y231.355405 Z-0.125000 I-19.179115 J63.444527
G02 X126.701151 Y231.114722 Z-0.125000 I-11.232182 J42.105774
G02 X126.042601 Y230.964176 Z-0.125000 I-5.870693 J24.165205
G02 X125.721078 Y230.898943 Z-0.125000 I-3.125128 J14.578319
G02 X125.536865 Y230.868754 Z-0.125000 I-0.656665 J3.429838
G03 X125.510918 Y230.863314 Z-0.125000 I0.033461 J-0.224209
G02 X125.489155 Y230.859226 Z-0.125000 I-0.036546 J0.134581
G03 X125.501898 Y230.941972 Z-0.125000 I-4.912697 J0.798898
G02 X125.527323 Y231.078696 Z-0.125000 I1.743755 J-0.253540
G02 X125.615154 Y231.429258 Z-0.125000 I7.528705 J-1.699996
G02 X125.784964 Y232.042457 Z-0.125000 I245.713853 J-67.713851
G02 X126.146327 Y233.292539 Z-0.125000 I62.872088 J-17.497276
G02 X126.720096 Y235.143666 Z-0.125000 I100.942402 J-30.273259
G02 X127.543977 Y237.598472 Z-0.125000 I87.675051 J-28.059819
G02 X127.970123 Y238.674273 Z-0.125000 I13.898264 J-4.883070
G02 X128.500077 Y239.613803 Z-0.125000 I5.085215 J-2.249154
G02 X128.790749 Y239.895672 Z-0.125000 I0.877965 J-0.614576
G02 X130.157245 Y240.173485 Z-0.125000 I1.031529 J-1.574200
G02 X132.302273 Y239.227720 Z-0.125000 I-0.890974 J-4.926140
G02 X132.971623 Y238.499659 Z-0.125000 I-1.714609 J-2.248060
G02 X133.246947 Y237.691428 Z-0.125000 I-1.518838 J-0.968404
G02 X133.193077 Y236.761452 Z-0.125000 I-3.170391 J-0.282897
G02 X132.664875 Y234.838316 Z-0.125000 I-15.428084 J3.203315
G03 X132.291793 Y233.623128 Z-0.125000 I17.954513 J-6.177191
G03 X132.101887 Y232.786747 Z-0.125000 I10.066892 J-2.725505
G03 X132.038843 Y232.375389 Z-0.125000 I6.783197 J-1.250086
G03 X132.025549 Y232.118794 Z-0.125000 I1.819608 J-0.222919
G03 X132.036271 Y231.995167 Z-0.125000 I1.218562 J0.043411
G03 X132.063719 Y231.889782 Z-0.125000 I0.460605 J0.063699
G03 X132.087086 Y231.839677 Z-0.125000 I0.403314 J0.157585
G03 X132.130513 Y231.784818 Z-0.125000 I0.182127 J0.099555
G03 X132.195376 Y231.743528 Z-0.125000 I0.156808 J0.174739
G03 X132.273645 Y231.727565 Z-0.125000 I0.078269 J0.183897
G03 X132.304691 Y231.734657 Z-0.125000 I0.000000 J0.071497
G01 X132.311815 Y231.737092 Z-0.125000
G01 X132.321179 Y231.736146 Z-0.125000
G01 X132.330894 Y231.737092 Z-0.125000
G03 X132.353702 Y231.744500 Z-0.125000 I-0.046089 J0.180736
G02 X132.388148 Y231.756176 Z-0.125000 I0.130427 J-0.328119
G02 X132.450998 Y231.773213 Z-0.125000 I0.862147 J-3.056161
G03 X132.559906 Y231.803887 Z-0.125000 I-0.708703 J2.724874
G03 X132.788272 Y231.876864 Z-0.125000 I-2.329935 J7.684857
G02 X133.180148 Y232.004273 Z-0.125000 I6.639112 J-19.753780
G02 X133.973683 Y232.252611 Z-0.125000 I102.432063 J-325.917923
G03 X135.145837 Y232.624515 Z-0.125000 I-35.472778 J113.835012
G02 X137.899857 Y233.459624 Z-0.125000 I24.582469 J-76.109323
G02 X140.623048 Y234.170348 Z-0.125000 I18.174280 J-64.063629
G03 X141.798526 Y234.460767 Z-0.125000 I-17.454446 J73.171355
G03 X142.750956 Y234.714253 Z-0.125000 I-12.385753 J48.453513
G03 X143.695897 Y234.987882 Z-0.125000 I-11.087777 J40.058508
G03 X144.010525 Y235.105482 Z-0.125000 I-0.760209 J2.513549
G02 X144.245546 Y235.195537 Z-0.125000 I0.923053 J-2.057228
G02 X145.279633 Y235.515796 Z-0.125000 I16.940178 J-52.868752
G02 X146.268033 Y235.804425 Z-0.125000 I22.663501 J-75.773553
G02 X147.502963 Y236.145580 Z-0.125000 I21.739882 J-76.289514
G03 X150.397244 Y236.942237 Z-0.125000 I-54.388225 J203.249932
G03 X152.999260 Y237.700955 Z-0.125000 I-46.192341 J163.257357
G02 X154.107756 Y238.013187 Z-0.125000 I9.672286 J-32.215038
G02 X154.964949 Y238.216233 Z-0.125000 I4.512883 J-17.140982
G02 X155.390110 Y238.298010 Z-0.125000 I2.519346 J-11.952099
G02 X155.671069 Y238.340282 Z-0.125000 I1.060699 J-6.095123
G02 X155.991915 Y238.353247 Z-0.125000 I0.235363 J-1.848068
G02 X156.014587 Y238.349809 Z-0.125000 I-0.005041 J-0.109751
G03 X156.158900 Y238.323279 Z-0.125000 I0.261700 J1.017774
G03 X156.281770 Y238.321198 Z-0.125000 I0.072356 J0.643700
G03 X156.403431 Y238.353646 Z-0.125000 I-0.027827 J0.348638
G03 X156.510782 Y238.435704 Z-0.125000 I-0.137870 J0.291615
G01 X156.510922 Y238.421743 Z-0.125000
G01 X156.510782 Y238.407093 Z-0.125000
G02 X156.348798 Y238.240883 Z-0.125000 I-0.566493 J0.390053
G02 X155.842830 Y237.929984 Z-0.125000 I-2.248157 J3.091565
G03 X154.891621 Y237.366680 Z-0.125000 I4.094116 J-7.998201
G03 X153.896225 Y236.613163 Z-0.125000 I6.776344 J-9.985764
G02 X151.479481 Y235.135546 Z-0.125000 I-6.066831 J7.207530
G02 X149.287349 Y234.666558 Z-0.125000 I-2.334773 J5.555442
G03 X147.321370 Y234.374843 Z-0.125000 I0.190491 J-8.054404
G03 X138.409263 Y231.660770 Z-0.125000 I50.590368 J-182.111087
G02 X136.573330 Y231.078025 Z-0.125000 I-23.472607 J70.766768
G02 X133.981690 Y230.315323 Z-0.125000 I-47.677427 J157.222005
G03 X132.874433 Y229.992364 Z-0.125000 I27.068012 J-94.861539
G03 X131.968292 Y229.714166 Z-0.125000 I16.445432 J-55.180585
G03 X131.058859 Y229.413690 Z-0.125000 I11.116131 J-35.171023
G03 X130.756432 Y229.294309 Z-0.125000 I1.208441 J-3.504119
G02 X130.530100 Y229.204175 Z-0.125000 I-1.213217 J2.717225
G02 X129.000671 Y228.683610 Z-0.125000 I-26.857216 J76.399866
G02 X127.538483 Y228.211469 Z-0.125000 I-41.716533 J126.692900
G02 X125.584572 Y227.595801 Z-0.125000 I-233.291184 J736.975915
G03 X121.005083 Y226.157874 Z-0.125000 I2266.414118 J-7226.024788
G03 X119.782924 Y225.773244 Z-0.125000 I566.989982 J-1803.747789
G02 X118.561110 Y225.391300 Z-0.125000 I-88.218178 J280.058661
G02 X116.882103 Y224.876279 Z-0.125000 I-82.062694 J264.536476
G03 X114.993582 Y224.294293 Z-0.125000 I63.457024 J-209.270444
G03 X114.572893 Y224.122447 Z-0.125000 I0.805917 J-2.573787
G03 X114.473068 Y224.067067 Z-0.125000 I0.758142 J-1.484250
G03 X114.391593 Y223.988857 Z-0.125000 I0.130744 J-0.217743
G03 X114.362883 Y223.929936 Z-0.125000 I0.208887 J-0.138240
G03 X114.353423 Y223.855266 Z-0.125000 I0.183128 J-0.061136
G03 X114.372470 Y223.780443 Z-0.125000 I0.214664 J0.014812
G03 X114.401135 Y223.731218 Z-0.125000 I0.265602 J0.121703
G03 X114.540373 Y223.608487 Z-0.125000 I0.342479 J0.248196
G02 X114.706483 Y223.511747 Z-0.125000 I-1.768691 J-3.227954
G02 X114.797257 Y223.450125 Z-0.125000 I-0.673419 J-1.089662
G02 X114.840075 Y223.416326 Z-0.125000 I-0.561365 J-0.755182
G02 X114.757604 Y223.381073 Z-0.125000 I-0.396445 J0.813366
G02 X114.582435 Y223.320904 Z-0.125000 I-1.367598 J3.696384
G03 X113.967321 Y223.116408 Z-0.125000 I7.154568 J-22.547940
G03 X111.986961 Y222.414397 Z-0.125000 I57.439182 J-165.179130
G02 X109.984596 Y221.716033 Z-0.125000 I-32.430935 J89.766941
G02 X109.257897 Y221.498348 Z-0.125000 I-3.618816 J10.758879
G03 X108.471820 Y221.259585 Z-0.125000 I2.803236 J-10.642461
G03 X106.395244 Y220.515503 Z-0.125000 I30.350684 J-87.972067
G02 X105.254899 Y220.128498 Z-0.125000 I-7.297723 J19.629832
G02 X104.725361 Y220.000225 Z-0.125000 I-1.318957 J4.287758
G02 X104.239410 Y219.990695 Z-0.125000 I-0.273018 J1.527259
G02 X104.124205 Y220.047934 Z-0.125000 I0.027775 J0.200461
G02 X104.093117 Y220.089172 Z-0.125000 I0.131367 J0.131367
G03 X104.076492 Y220.114731 Z-0.125000 I-0.190057 J-0.105443
G02 X104.169336 Y220.123062 Z-0.125000 I0.100867 J-0.602545
G02 X104.353217 Y220.124270 Z-0.125000 I0.183881 J-14.000220
G03 X105.037502 Y220.206666 Z-0.125000 I0.000000 J2.882629
G03 X105.631870 Y220.439162 Z-0.125000 I-0.570402 J2.334200
G02 X105.709206 Y220.477409 Z-0.125000 I0.434650 J-0.781567
G02 X106.137603 Y220.649087 Z-0.125000 I3.086797 J-7.082284
G02 X106.546234 Y220.795181 Z-0.125000 I9.422075 J-25.709509
G02 X107.177702 Y221.011692 Z-0.125000 I21.440243 J-61.502617
G02 X108.471404 Y221.438429 Z-0.125000 I32.742174 J-97.087324
G02 X110.202574 Y221.984994 Z-0.125000 I45.266466 J-140.360295
G03 X111.934704 Y222.531965 Z-0.125000 I-43.298465 J140.132360
G03 X113.046144 Y222.910586 Z-0.125000 I-11.081428 J34.350100
G03 X113.581030 Y223.112576 Z-0.125000 I-5.845791 J16.289387
G03 X113.876315 Y223.235020 Z-0.125000 I-3.803961 J9.590804
G03 X114.019813 Y223.302484 Z-0.125000 I-1.017928 J2.351524
G03 X114.105327 Y223.349526 Z-0.125000 I-0.680374 J1.338023
G03 X114.141218 Y223.372522 Z-0.125000 I-0.355421 J0.594260
G03 X114.181665 Y223.406779 Z-0.125000 I-0.146862 J0.214399
G03 X114.200678 Y223.427881 Z-0.125000 I-0.241633 J0.236840
G03 X114.229375 Y223.483117 Z-0.125000 I-0.113801 J0.094194
G03 X114.232723 Y223.566676 Z-0.125000 I-0.177652 J0.048965
G03 X114.191207 Y223.645334 Z-0.125000 I-0.149359 J-0.028547
G03 X114.105480 Y223.688251 Z-0.125000 I-0.107288 J-0.107231
G03 X114.067159 Y223.693045 Z-0.125000 I-0.151200 J-1.052956
G03 X114.025041 Y223.695296 Z-0.125000 I-0.040323 J-0.359278
G03 X113.981279 Y223.693045 Z-0.125000 I0.002344 J-0.472051
G03 X113.889427 Y223.684627 Z-0.125000 I0.106315 J-1.665296
G03 X113.752267 Y223.664434 Z-0.125000 I0.303407 J-2.536796
G03 X113.471141 Y223.609464 Z-0.125000 I1.249121 J-7.134624
G03 X113.007976 Y223.502217 Z-0.125000 I3.423153 J-15.837151
G03 X112.078554 Y223.257943 Z-0.125000 I7.736841 J-31.327784
G03 X110.727395 Y222.862890 Z-0.125000 I15.061331 J-54.020871
G02 X107.566778 Y221.928094 Z-0.125000 I-51.276264 J167.558373
G02 X106.309364 Y221.612865 Z-0.125000 I-5.472637 J19.164283
G02 X105.139008 Y221.469800 Z-0.125000 I-1.365280 J6.310182
G02 X104.610855 Y221.526985 Z-0.125000 I-0.058277 J1.929357
G03 X103.851231 Y221.601004 Z-0.125000 I-0.626723 J-2.496897
G03 X103.408540 Y221.479275 Z-0.125000 I0.055120 J-1.066282
G03 X103.355925 Y221.413703 Z-0.125000 I0.049307 J-0.093459
G02 X103.313118 Y221.336140 Z-0.125000 I-0.181797 J0.049741
G02 X103.247593 Y221.600864 Z-0.125000 I5.984826 J1.621841
G02 X103.198612 Y221.946841 Z-0.125000 I2.132911 J0.478420
G03 X103.169347 Y222.369930 Z-0.125000 I-25.338952 J-1.540138
G02 X103.160444 Y222.586167 Z-0.125000 I2.975536 J0.230807
G02 X103.160426 Y222.596062 Z-0.125000 I2.724649 J0.009895
G02 X103.160444 Y222.605251 Z-0.125000 I2.349931 J0.000000
G03 X103.229535 Y222.527907 Z-0.125000 I4.739112 J4.163895
G02 X103.341746 Y222.395323 Z-0.125000 I-1.839797 J-1.670874
G03 X103.654761 Y222.067464 Z-0.125000 I1.884842 J1.486150
G03 X103.942902 Y221.908672 Z-0.125000 I0.516006 J0.595510
G03 X104.276952 Y221.884041 Z-0.125000 I0.222158 J0.735424
G03 X104.696735 Y221.994552 Z-0.125000 I-0.284734 J1.934133
G03 X104.995063 Y222.139079 Z-0.125000 I-0.729983 J1.886975
G03 X105.221555 Y222.299901 Z-0.125000 I-0.838387 J1.420625
G03 X105.401427 Y222.485993 Z-0.125000 I-0.832472 J0.984619
G03 X105.479193 Y222.710215 Z-0.125000 I-0.284180 J0.224158
G02 X105.501029 Y222.828971 Z-0.125000 I0.333845 J-0.000000
G02 X105.517364 Y222.853348 Z-0.125000 I0.061014 J-0.023223
G02 X105.539280 Y222.867520 Z-0.125000 I0.049596 J-0.052664
G02 X105.584157 Y222.872432 Z-0.125000 I0.030864 J-0.074525
G02 X105.688692 Y222.822672 Z-0.125000 I-0.036471 J-0.211302
G02 X105.841798 Y222.567082 Z-0.125000 I-0.317688 J-0.363957
G03 X105.888872 Y222.419806 Z-0.125000 I0.909258 J0.209469
G03 X105.975388 Y222.290359 Z-0.125000 I0.367807 J0.152187
G03 X106.109144 Y222.211918 Z-0.125000 I0.217836 J0.218191
G03 X106.271196 Y222.194937 Z-0.125000 I0.129959 J0.458493
G03 X106.568999 Y222.263246 Z-0.125000 I-0.065740 J0.969914
G03 X107.187244 Y222.538455 Z-0.125000 I-3.561780 J8.833410
G03 X107.628788 Y222.777832 Z-0.125000 I-2.600511 J5.323706
G03 X107.902909 Y222.967854 Z-0.125000 I-1.279589 J2.138637
G03 X108.131029 Y223.193049 Z-0.125000 I-0.947869 J1.188317
G03 X108.236885 Y223.406794 Z-0.125000 I-0.411083 J0.336673
G03 X108.215324 Y223.649755 Z-0.125000 I-0.375002 J0.089158
G03 X108.055583 Y223.855277 Z-0.125000 I-0.481864 J-0.209687
G03 X107.833235 Y223.984315 Z-0.125000 I-0.590232 J-0.760952
G03 X107.463969 Y224.103373 Z-0.125000 I-0.926466 J-2.241316
G02 X107.093165 Y224.222664 Z-0.125000 I0.564585 J2.390909
G02 X106.929606 Y224.313301 Z-0.125000 I0.309127 J0.750722
G02 X106.824035 Y224.427134 Z-0.125000 I0.225907 J0.315383
G02 X106.815100 Y224.465976 Z-0.125000 I0.054096 J0.032892
G02 X106.830907 Y224.508506 Z-0.125000 I0.086649 J-0.008001
G02 X106.977316 Y224.647278 Z-0.125000 I0.429033 J-0.306027
G02 X107.170038 Y224.745514 Z-0.125000 I0.612903 J-0.964242
G02 X107.559391 Y224.866748 Z-0.125000 I1.004195 J-2.539229
G03 X108.546419 Y225.101944 Z-0.125000 I-16.946641 J73.307154
G03 X108.876212 Y225.191182 Z-0.125000 I-1.726076 J7.033014
G02 X109.176244 Y225.279144 Z-0.125000 I17.699637 J-59.816403
G02 X111.471685 Y225.945014 Z-0.125000 I969.651728 J-3338.372838
G03 X113.758770 Y226.626061 Z-0.125000 I-44.720470 J154.360583
G03 X115.450773 Y227.166413 Z-0.125000 I-21.160693 J69.179635
G02 X117.134489 Y227.702645 Z-0.125000 I21.327929 J-64.056185
G02 X118.494729 Y228.092005 Z-0.125000 I12.514702 J-41.149769
G03 X119.072522 Y228.269034 Z-0.125000 I-2.236394 J8.330624
G03 X119.391696 Y228.397355 Z-0.125000 I-1.124651 J3.258473
G03 X119.531364 Y228.466154 Z-0.125000 I-1.281015 J2.776749
G03 X119.630250 Y228.540488 Z-0.125000 I-0.178778 J0.340767
G03 X119.673378 Y228.595408 Z-0.125000 I-0.255347 J0.244913
G03 X119.697046 Y228.721789 Z-0.125000 I-0.145586 J0.092672
G03 X119.628053 Y228.830298 Z-0.125000 I-0.175236 J-0.035231
G03 X119.563454 Y228.864922 Z-0.125000 I-0.151275 J-0.204666
G03 X119.363930 Y228.895983 Z-0.125000 I-0.178996 J-0.493440
G03 X118.952756 Y228.855394 Z-0.125000 I0.136374 J-3.484455
G03 X118.522085 Y228.775441 Z-0.125000 I1.344472 J-8.441909
G03 X117.616848 Y228.569128 Z-0.125000 I6.470207 J-30.478458
G03 X115.827127 Y228.112345 Z-0.125000 I20.018065 J-82.167294
G03 X111.089997 Y226.832451 Z-0.125000 I206.008753 J-771.883982
G02 X107.567877 Y225.896380 Z-0.125000 I-66.923475 J244.715970
G02 X105.889507 Y225.487004 Z-0.125000 I-16.181440 J62.695878
G03 X104.375495 Y225.049681 Z-0.125000 I3.193716 J-13.896066
G03 X103.523046 Y224.647292 Z-0.125000 I1.491292 J-4.263397
G03 X102.817796 Y224.050886 Z-0.125000 I1.538979 J-2.535024
G03 X102.349360 Y223.311387 Z-0.125000 I2.249024 J-1.942761
G01 X102.015381 Y222.567096 Z-0.125000
G01 X99.419910 Y222.700687 Z-0.125000
G02 X98.265694 Y222.778827 Z-0.125000 I2.143967 J40.232349
G02 X97.463763 Y222.853362 Z-0.125000 I3.074077 J37.425800
G02 X97.072977 Y222.897153 Z-0.125000 I2.687146 J25.745344
G02 X96.843520 Y222.929699 Z-0.125000 I0.634643 J5.299438
G03 X96.730386 Y222.946748 Z-0.125000 I-0.615444 J-3.700158
G02 X96.671760 Y222.958310 Z-0.125000 I0.066271 J0.490417
G01 X96.665604 Y222.963866 Z-0.125000
G01 X96.662249 Y222.967838 Z-0.125000
G01 X96.663474 Y222.968840 Z-0.125000
G01 X96.662249 Y222.977366 Z-0.125000
G03 X96.644115 Y223.033081 Z-0.125000 I-1.544629 J-0.471945
G02 X96.614537 Y223.139583 Z-0.125000 I0.844190 J0.291809
G02 X96.575040 Y223.359118 Z-0.125000 I3.578179 J0.757063
G03 X96.519114 Y223.731199 Z-0.125000 I-110.451149 J-16.411269
G02 X96.413706 Y224.488118 Z-0.125000 I30.257499 J4.599462
G02 X96.290102 Y225.572840 Z-0.125000 I43.588048 J5.516234
G03 X95.828520 Y228.083539 Z-0.125000 I-15.732500 J-1.594581
G03 X95.192752 Y229.647351 Z-0.125000 I-6.615893 J-1.778550
G02 X94.717535 Y230.570187 Z-0.125000 I13.279701 J7.422196
G02 X94.620222 Y230.859208 Z-0.125000 I1.184665 J0.559768
G02 X94.607827 Y230.991731 Z-0.125000 I0.571707 J0.120313
G02 X94.620222 Y231.040510 Z-0.125000 I0.111337 J-0.002327
G02 X94.654226 Y231.085231 Z-0.125000 I0.144461 J-0.074554
G02 X94.763353 Y231.164558 Z-0.125000 I0.387806 J-0.418767
G03 X95.234919 Y231.467079 Z-0.125000 I-2.273303 J4.062396
G03 X95.984752 Y232.051981 Z-0.125000 I-8.804689 J12.060516
G03 X96.248609 Y232.274081 Z-0.125000 I-20.197410 J24.262551
G03 X96.395066 Y232.405042 Z-0.125000 I-2.603842 J3.059319
G03 X96.461940 Y232.473037 Z-0.125000 I-0.820179 J0.873523
G03 X96.509572 Y232.529090 Z-0.125000 I-0.827773 J0.751696
G03 X96.551799 Y232.585797 Z-0.125000 I-0.878526 J0.698267
G03 X96.585911 Y232.672223 Z-0.125000 I-0.165335 J0.115202
G03 X96.569472 Y232.790684 Z-0.125000 I-0.211323 J0.031045
G03 X96.500031 Y232.872609 Z-0.125000 I-0.176393 J-0.079121
G03 X96.417891 Y232.907180 Z-0.125000 I-0.131805 J-0.198294
G03 X96.347357 Y232.920320 Z-0.125000 I-0.288324 J-1.351882
G03 X96.204992 Y232.933948 Z-0.125000 I-0.178465 J-1.113837
G03 X95.975210 Y232.939403 Z-0.125000 I-0.444580 J-13.884905
G03 X95.284390 Y232.808683 Z-0.125000 I-0.027301 J-1.746476
G03 X94.505716 Y232.357330 Z-0.125000 I1.264018 J-3.078046
G02 X94.105056 Y232.133813 Z-0.125000 I-0.929772 J1.195781
G02 X93.150724 Y231.889763 Z-0.125000 I-1.618851 J4.342428
G02 X92.075467 Y231.778306 Z-0.125000 I-1.909395 J13.178020
G02 X89.438816 Y231.641667 Z-0.125000 I-7.581434 J120.787450
G03 X86.087451 Y231.413649 Z-0.125000 I2.536016 J-62.016807
G03 X84.352833 Y231.155015 Z-0.125000 I1.569646 J-16.473623
G03 X82.789370 Y230.635824 Z-0.125000 I1.377989 J-6.763257
G03 X82.263096 Y230.124460 Z-0.125000 I0.481417 J-1.021944
G03 X82.161171 Y229.871319 Z-0.125000 I1.413763 J-0.716331
G03 X81.976830 Y229.237037 Z-0.125000 I22.978474 J-7.022158
G03 X81.806213 Y228.587034 Z-0.125000 I26.129374 J-7.205994
G03 X81.623770 Y227.805710 Z-0.125000 I26.119520 J-6.511003
G01 X81.356587 Y226.574768 Z-0.125000
G01 X81.137117 Y227.338143 Z-0.125000
G03 X80.947079 Y227.915012 Z-0.125000 I-8.010478 J-2.319160
G03 X80.755431 Y228.397325 Z-0.125000 I-10.328389 J-3.824762
G03 X80.544198 Y228.845567 Z-0.125000 I-5.909241 J-2.510821
G03 X80.383285 Y229.065278 Z-0.125000 I-0.792121 J-0.411361
G03 X80.215151 Y229.177793 Z-0.125000 I-0.367926 J-0.367918
G03 X79.972973 Y229.256121 Z-0.125000 I-0.601810 J-1.447147
G03 X79.710103 Y229.304791 Z-0.125000 I-0.635063 J-2.695810
G03 X79.352730 Y229.342001 Z-0.125000 I-0.777763 J-5.735068
G03 X78.612382 Y229.366107 Z-0.125000 I-0.669273 J-9.173954
G03 X77.692392 Y229.332473 Z-0.125000 I0.123449 J-15.975870
G03 X76.779274 Y229.246133 Z-0.125000 I1.052107 J-15.998547
G03 X76.012966 Y229.122545 Z-0.125000 I1.285358 J-10.407403
G03 X75.288691 Y228.937638 Z-0.125000 I1.377730 J-6.907470
G03 X74.925158 Y228.731315 Z-0.125000 I0.294825 J-0.942898
G03 X74.700385 Y228.446789 Z-0.125000 I0.702135 J-0.785727
G03 X74.467133 Y227.948857 Z-0.125000 I4.200100 J-2.271091
G03 X74.286444 Y227.415364 Z-0.125000 I4.845258 J-1.938389
G03 X74.161783 Y226.832421 Z-0.125000 I4.640664 J-1.297199
G02 X74.066145 Y226.267185 Z-0.125000 I-15.197384 J2.280691
G02 X73.990023 Y225.897288 Z-0.125000 I-11.115914 J2.094796
G02 X73.963105 Y225.790743 Z-0.125000 I-1.901978 J0.423851
G03 X73.942313 Y225.715986 Z-0.125000 I8.490134 J-2.401591
G02 X73.798710 Y225.846102 Z-0.125000 I4.484049 J5.093143
G02 X73.551082 Y226.078589 Z-0.125000 I33.765393 J36.212438
G02 X73.050331 Y226.559566 Z-0.125000 I30.019846 J31.755244
G02 X72.320142 Y227.280904 Z-0.125000 I58.778115 J60.229570
G03 X71.569573 Y227.983330 Z-0.125000 I-10.975457 J-10.975477
G03 X71.012863 Y228.435508 Z-0.125000 I-6.386064 J-7.293560
G03 X70.731313 Y228.635087 Z-0.125000 I-3.624258 J-4.814430
G03 X70.535755 Y228.750400 Z-0.125000 I-1.140758 J-1.711119
G03 X70.433582 Y228.797803 Z-0.125000 I-0.599898 J-1.159229
G03 X70.344911 Y228.826737 Z-0.125000 I-0.234819 J-0.569271
G03 X70.251976 Y228.840128 Z-0.125000 I-0.117100 J-0.483511
G03 X70.125441 Y228.807653 Z-0.125000 I-0.010743 J-0.220897
G02 X70.058897 Y228.781485 Z-0.125000 I-0.105602 J0.170843
G01 X70.058644 Y228.779042 Z-0.125000
G01 X70.060897 Y228.780727 Z-0.125000
G02 X70.058644 Y228.817211 Z-0.125000 I0.294342 J0.036484
G03 X69.925325 Y229.147017 Z-0.125000 I-0.474599 J-0.000000
G03 X69.600620 Y229.284778 Z-0.125000 I-0.324705 J-0.313789
G03 X69.356385 Y229.203317 Z-0.125000 I0.000000 J-0.406862
G03 X69.209390 Y229.017597 Z-0.125000 I0.279256 J-0.372060
G03 X69.151261 Y228.791255 Z-0.125000 I0.668585 J-0.292340
G03 X69.152138 Y228.521403 Z-0.125000 I1.434357 J-0.130265
G03 X69.291834 Y227.970745 Z-0.125000 I1.874867 J0.182583
G03 X69.648330 Y227.490848 Z-0.125000 I1.162598 J0.491286
G02 X70.177790 Y226.951353 Z-0.125000 I-2.368010 J-2.853520
G02 X71.165537 Y225.620580 Z-0.125000 I-18.296559 J-14.612305
G02 X71.561968 Y225.017706 Z-0.125000 I-13.809338 J-9.512361
G02 X71.795322 Y224.618651 Z-0.125000 I-6.313796 J-3.959848
G02 X71.833960 Y224.543763 Z-0.125000 I-1.720336 J-0.935012
G02 X71.862118 Y224.485060 Z-0.125000 I-3.875988 J-1.895326
G03 X71.803575 Y224.504899 Z-0.125000 I-0.371319 J-0.999462
G02 X71.709441 Y224.542313 Z-0.125000 I0.184574 J0.601505
G02 X71.391065 Y224.710646 Z-0.125000 I3.038493 J6.132117
G02 X70.736139 Y225.086218 Z-0.125000 I23.148018 J41.124574
G02 X69.463036 Y225.847606 Z-0.125000 I36.364063 J62.248673
G02 X66.365820 Y227.758029 Z-0.125000 I278.054322 J454.253260
G03 X65.531385 Y228.260950 Z-0.125000 I-18.731864 J-30.135772
G03 X64.924952 Y228.607283 Z-0.125000 I-18.004335 J-30.821707
G03 X64.623316 Y228.773742 Z-0.125000 I-17.451973 J-31.267593
G03 X64.428757 Y228.874464 Z-0.125000 I-2.411577 J-4.420067
G03 X64.333550 Y228.921046 Z-0.125000 I-35.894596 J-73.243156
G03 X64.266541 Y228.950801 Z-0.125000 I-0.441198 J-0.903235
G03 X64.212743 Y228.968844 Z-0.125000 I-0.176953 J-0.438392
G03 X64.142493 Y228.979413 Z-0.125000 I-0.081187 J-0.300894
G01 X64.142340 Y228.978743 Z-0.125000
G03 X64.123415 Y228.979413 Z-0.125000 I-0.018925 J-0.267030
G01 X64.119163 Y228.983485 Z-0.125000
G01 X64.113904 Y228.988941 Z-0.125000
G02 X64.080322 Y229.004216 Z-0.125000 I0.125798 J0.321109
G02 X64.018482 Y229.036651 Z-0.125000 I6.099329 J11.703946
G02 X63.897141 Y229.106002 Z-0.125000 I0.986440 J1.866760
G02 X63.703590 Y229.227495 Z-0.125000 I7.306163 J11.854472
G02 X63.314443 Y229.484910 Z-0.125000 I8.053379 J12.597527
G02 X62.797084 Y229.857279 Z-0.125000 I7.547507 J11.031898
G03 X61.862166 Y230.462775 Z-0.125000 I-4.606081 J-6.087496
G03 X61.193996 Y230.744702 Z-0.125000 I-1.705558 J-3.109448
G03 X60.854598 Y230.819488 Z-0.125000 I-0.636680 J-2.081875
G03 X60.602380 Y230.811497 Z-0.125000 I-0.102643 J-0.744635
G03 X60.480129 Y230.768761 Z-0.125000 I0.092888 J-0.461941
G03 X60.373368 Y230.687449 Z-0.125000 I0.174245 J-0.339523
G03 X60.303679 Y230.573416 Z-0.125000 I0.254500 J-0.233843
G03 X60.277945 Y230.439352 Z-0.125000 I0.391291 J-0.144610
G03 X60.299083 Y230.069764 Z-0.125000 I2.240682 J-0.057247
G03 X60.449706 Y229.103447 Z-0.125000 I32.666795 J4.596966
G03 X60.624273 Y228.142335 Z-0.125000 I47.108436 J8.059919
G03 X60.850478 Y227.013709 Z-0.125000 I71.424981 J13.728400
G03 X61.094685 Y225.883713 Z-0.125000 I79.500615 J16.589756
G03 X61.289419 Y225.067104 Z-0.125000 I28.980010 J6.479206
G03 X61.397363 Y224.673697 Z-0.125000 I10.075775 J2.553116
G03 X61.470718 Y224.437320 Z-0.125000 I8.797777 J2.600651
G02 X61.507826 Y224.322562 Z-0.125000 I-17.915619 J-5.856504
G03 X61.537515 Y224.246476 Z-0.125000 I0.622895 J0.199218
G03 X61.553867 Y224.213937 Z-0.125000 I0.518465 J0.240182
G03 X61.575682 Y224.179681 Z-0.125000 I0.257013 J0.139596
G03 X61.603096 Y224.145870 Z-0.125000 I0.398732 J0.295273
G03 X61.718817 Y224.093801 Z-0.125000 I0.115720 J0.102558
G03 X61.813052 Y224.112403 Z-0.125000 I0.000000 J0.247989
G03 X61.909658 Y224.179681 Z-0.125000 I-0.103179 J0.251159
G03 X61.961400 Y224.262831 Z-0.125000 I-0.193800 J0.178268
G03 X61.985997 Y224.351440 Z-0.125000 I-0.434656 J0.168376
G03 X61.997656 Y224.538052 Z-0.125000 I-0.845581 J0.146504
G03 X61.966918 Y224.914429 Z-0.125000 I-5.431213 J-0.254114
G03 X61.856741 Y225.671063 Z-0.125000 I-13.030409 J-1.511087
G03 X61.451640 Y227.891590 Z-0.125000 I-165.841029 J-29.107938
G02 X61.330780 Y228.580974 Z-0.125000 I25.204177 J4.773978
G02 X61.279882 Y228.979398 Z-0.125000 I6.036561 J0.973618
G02 X61.277771 Y229.394395 Z-0.125000 I2.321360 J0.219316
G02 X61.298961 Y229.485134 Z-0.125000 I0.320438 J-0.026987
G02 X61.308124 Y229.502303 Z-0.125000 I0.075483 J-0.029257
G01 X61.308500 Y229.504218 Z-0.125000
G01 X61.308706 Y229.504282 Z-0.125000
G02 X61.337109 Y229.494690 Z-0.125000 I-0.117366 J-0.394375
G02 X61.446693 Y229.434658 Z-0.125000 I-0.154501 J-0.412065
G02 X61.756965 Y229.179798 Z-0.125000 I-2.735915 J-3.647059
G03 X62.646102 Y228.435274 Z-0.125000 I11.188753 J12.458832
G03 X63.665402 Y227.672133 Z-0.125000 I19.768231 J25.341432
G03 X64.159685 Y227.322582 Z-0.125000 I24.263053 J33.784901
G03 X64.514657 Y227.090061 Z-0.125000 I4.277943 J6.143576
G03 X64.693020 Y226.985168 Z-0.125000 I2.723212 J4.426581
G03 X64.820007 Y226.918301 Z-0.125000 I1.300274 J2.315326
G03 X64.934473 Y226.866562 Z-0.125000 I0.837605 J1.700583
G03 X65.058561 Y226.841964 Z-0.125000 I0.124088 J0.300693
G03 X65.344430 Y226.968874 Z-0.125000 I0.000000 J0.385419
G03 X65.468873 Y227.261820 Z-0.125000 I-0.360599 J0.326086
G01 X65.472296 Y227.262692 Z-0.125000
G02 X65.497485 Y227.271348 Z-0.125000 I0.038116 J-0.069942
G02 X65.592264 Y227.277982 Z-0.125000 I0.083106 J-0.506962
G02 X65.793293 Y227.252264 Z-0.125000 I-0.022071 J-0.971073
G02 X66.200033 Y227.095853 Z-0.125000 I-0.371400 J-1.572868
G02 X66.423078 Y226.908745 Z-0.125000 I-0.360522 J-0.656262
G03 X66.471952 Y226.863960 Z-0.125000 I0.170843 J0.137383
G02 X66.528042 Y226.822865 Z-0.125000 I-0.457141 J-0.682769
G02 X66.588246 Y226.772635 Z-0.125000 I-1.178428 J-1.473601
G03 X66.680715 Y226.698817 Z-0.125000 I0.915908 J1.052512
G03 X66.879013 Y226.556461 Z-0.125000 I8.133169 J11.119918
G03 X67.195994 Y226.336214 Z-0.125000 I17.021105 J24.158723
G03 X67.844018 Y225.899310 Z-0.125000 I29.558195 J43.142206
G03 X68.751369 Y225.305659 Z-0.125000 I47.095602 J70.991777
G03 X71.642373 Y223.454631 Z-0.125000 I266.700004 J413.359086
G03 X72.425109 Y222.996451 Z-0.125000 I6.676691 J10.508472
G03 X73.150011 Y222.724697 Z-0.125000 I1.366903 J2.543492
G03 X73.780100 Y222.614763 Z-0.125000 I1.381902 J6.059791
G02 X73.832151 Y222.593915 Z-0.125000 I-0.013350 J-0.108728
G02 X73.932774 Y222.481173 Z-0.125000 I-0.224459 J-0.301607
G02 X73.997754 Y222.328024 Z-0.125000 I-0.577840 J-0.335534
G02 X74.028196 Y222.109028 Z-0.125000 I-0.771238 J-0.218821
G03 X74.057449 Y221.829587 Z-0.125000 I1.351423 J0.000222
G03 X74.133160 Y221.612834 Z-0.125000 I0.882581 J0.186682
G03 X74.269569 Y221.430756 Z-0.125000 I0.570672 J0.285400
G03 X74.486220 Y221.345654 Z-0.125000 I0.216651 J0.233222
G03 X74.812846 Y221.490779 Z-0.125000 I0.000000 J0.440123
G03 X74.944244 Y221.832304 Z-0.125000 I-0.378142 J0.341525
G02 X74.954167 Y221.888419 Z-0.125000 I0.163637 J-0.000000
G01 X74.963322 Y221.899100 Z-0.125000
G02 X74.987810 Y221.906720 Z-0.125000 I0.031446 J-0.057894
G02 X75.077828 Y221.899100 Z-0.125000 I0.025227 J-0.237494
G02 X75.224951 Y221.812034 Z-0.125000 I-0.088663 J-0.317657
G02 X75.297299 Y221.641460 Z-0.125000 I-0.181698 J-0.177696
G03 X75.314001 Y221.523437 Z-0.125000 I0.563948 J0.019614
G03 X75.364092 Y221.336109 Z-0.125000 I6.315308 J1.588355
G03 X75.426308 Y221.129369 Z-0.125000 I6.449908 J1.828294
G03 X75.526311 Y220.820834 Z-0.125000 I30.811526 J9.816148
G03 X75.740182 Y220.195421 Z-0.125000 I28.497981 J9.396144
G03 X76.041589 Y219.370420 Z-0.125000 I42.413376 J15.027804
G02 X76.154330 Y219.043061 Z-0.125000 I-5.732358 J-2.157287
G03 X76.241973 Y218.769264 Z-0.125000 I21.466563 J6.720547
G02 X76.214543 Y218.824810 Z-0.125000 I27.522842 J13.625925
G03 X76.184721 Y218.883770 Z-0.125000 I-2.798615 J-1.378508
G03 X75.922436 Y219.363641 Z-0.125000 I-11.568054 J-6.011178
G03 X75.583562 Y219.923866 Z-0.125000 I-12.441231 J-7.142959
G03 X75.222933 Y220.470435 Z-0.125000 I-16.822777 J-10.707526
G03 X74.925152 Y220.878085 Z-0.125000 I-6.672608 J-4.561626
G03 X74.767042 Y221.067888 Z-0.125000 I-3.009575 J-2.346282
G03 X74.648430 Y221.192977 Z-0.125000 I-2.019347 J-1.796002
G02 X74.588727 Y221.252370 Z-0.125000 I10.850024 J10.966559
G03 X74.533924 Y221.297942 Z-0.125000 I-0.274853 J-0.274789
G03 X74.478804 Y221.326928 Z-0.125000 I-0.147610 J-0.213790
G03 X74.390789 Y221.345654 Z-0.125000 I-0.104182 J-0.273469
G02 X74.377341 Y221.350830 Z-0.125000 I0.387138 J1.025916
G02 X74.343080 Y221.364732 Z-0.125000 I0.587745 J1.497644
G02 X74.287965 Y221.393641 Z-0.125000 I0.193378 J0.435668
G03 X74.190406 Y221.450610 Z-0.125000 I-1.481755 J-2.425494
G02 X73.990036 Y221.565497 Z-0.125000 I4.700980 J8.430922
G02 X73.665586 Y221.765502 Z-0.125000 I4.876853 J8.274470
G02 X73.027011 Y222.191859 Z-0.125000 I12.640794 J19.624110
G02 X72.148379 Y222.815144 Z-0.125000 I25.857181 J37.381277
G03 X70.085467 Y224.247655 Z-0.125000 I-33.786033 J-46.452517
G03 X69.161675 Y224.790375 Z-0.125000 I-5.488656 J-8.284949
G02 X68.294679 Y225.333945 Z-0.125000 I2.842920 J5.497682
G02 X67.883022 Y225.725509 Z-0.125000 I1.451033 J1.937668
G03 X67.360301 Y226.208325 Z-0.125000 I-2.074921 J-1.722044
G03 X66.585285 Y226.689269 Z-0.125000 I-4.529051 J-6.433399
G03 X66.206125 Y226.871139 Z-0.125000 I-1.997331 J-3.677853
G03 X65.936416 Y226.965993 Z-0.125000 I-0.940415 J-2.243114
G03 X65.809692 Y226.999101 Z-0.125000 I-0.805771 J-2.825076
G03 X65.688320 Y227.004161 Z-0.125000 I-0.073731 J-0.310341
G03 X65.622554 Y226.984093 Z-0.125000 I0.036487 J-0.237366
G03 X65.545189 Y226.927824 Z-0.125000 I0.108405 J-0.230369
G03 X65.497286 Y226.844893 Z-0.125000 I0.153776 J-0.144124
G03 X65.487934 Y226.765607 Z-0.125000 I0.216718 J-0.065756
G03 X65.541213 Y226.606310 Z-0.125000 I0.322533 J0.019316
G03 X65.688320 Y226.422088 Z-0.125000 I1.115915 J0.740255
G03 X65.870771 Y226.245975 Z-0.125000 I2.233069 J2.130857
G03 X66.260851 Y225.916352 Z-0.125000 I6.774162 J7.621013
G03 X67.058795 Y225.299496 Z-0.125000 I17.035304 J21.211737
G03 X69.199842 Y223.721651 Z-0.125000 I177.892595 J239.148795
G02 X70.174216 Y222.855511 Z-0.125000 I-4.009478 J-5.491646
G02 X70.449869 Y222.347577 Z-0.125000 I-0.853040 J-0.791705
G02 X70.440507 Y221.779644 Z-0.125000 I-1.060261 J-0.266565
G02 X69.982303 Y220.658609 Z-0.125000 I-5.363602 J1.538122
G02 X69.357781 Y219.592306 Z-0.125000 I-16.425079 J8.903942
G02 X69.037627 Y219.198657 Z-0.125000 I-1.793882 J1.131950
G02 X68.642658 Y218.942925 Z-0.125000 I-0.849974 J0.879881
G02 X68.016614 Y218.750175 Z-0.125000 I-1.479877 J3.693510
G03 X67.205676 Y218.372010 Z-0.125000 I0.439439 J-2.000907
G03 X66.050922 Y217.328387 Z-0.125000 I6.066783 J-7.873481
G03 X65.046976 Y216.107587 Z-0.125000 I8.295254 J-7.844953
G03 X64.381042 Y214.923758 Z-0.125000 I5.201371 J-3.705123
G02 X64.190008 Y214.510116 Z-0.125000 I-7.803111 J3.352810
G02 X64.047066 Y214.236722 Z-0.125000 I-6.207102 J3.071271
G02 X64.032193 Y214.211535 Z-0.125000 I-0.421793 J0.232071
G03 X64.018454 Y214.189012 Z-0.125000 I0.696870 J-0.440566
G02 X63.982265 Y214.332868 Z-0.125000 I6.091949 J1.608994
G02 X63.932574 Y214.551614 Z-0.125000 I9.649497 J2.307038
G02 X63.808774 Y215.169025 Z-0.125000 I21.547404 J4.641669
G02 X63.646310 Y216.106989 Z-0.125000 I38.685567 J7.183760
G03 X63.252958 Y218.315908 Z-0.125000 I-65.743658 J-10.567780
G03 X62.854307 Y220.162418 Z-0.125000 I-47.405489 J-9.268291
G02 X62.265988 Y222.869955 Z-0.125000 I74.058773 J17.509854
G02 X62.138645 Y223.750277 Z-0.125000 I8.377260 J1.661188
G03 X62.063853 Y223.922059 Z-0.125000 I-0.298133 J-0.027631
G03 X61.909633 Y224.007916 Z-0.125000 I-0.200842 J-0.179324
G03 X61.742732 Y223.997678 Z-0.125000 I-0.062167 J-0.352090
G03 X61.575657 Y223.922037 Z-0.125000 I0.210699 J-0.687726
G03 X61.417240 Y223.748806 Z-0.125000 I0.226110 J-0.365823
G03 X61.356187 Y223.521265 Z-0.125000 I0.524488 J-0.262692
G03 X61.378307 Y223.286369 Z-0.125000 I0.772509 J-0.045743
G03 X61.480235 Y223.015529 Z-0.125000 I1.244091 J0.313602
G02 X61.660859 Y222.488006 Z-0.125000 I-1.742887 J-0.891449
G02 X62.300861 Y218.616582 Z-0.125000 I-83.261114 J-15.752874
G03 X62.453447 Y217.729625 Z-0.125000 I15.002104 J2.124255
G03 X62.711175 Y216.612725 Z-0.125000 I21.027976 J4.264092
G02 X63.437918 Y212.407950 Z-0.125000 I-25.122953 J-6.507381
G02 X63.245538 Y211.030547 Z-0.125000 I-3.069503 J-0.273421
G02 X63.177738 Y210.917350 Z-0.125000 I-0.357659 J0.137316
G01 X63.178741 Y210.916041 Z-0.125000
G01 X63.178559 Y210.918538 Z-0.125000
G02 X63.111948 Y210.954212 Z-0.125000 I0.133885 J0.330021
G02 X62.934052 Y211.113324 Z-0.125000 I0.499454 J0.737421
G02 X62.319945 Y211.879802 Z-0.125000 I11.968923 J10.218834
G02 X60.452895 Y214.604904 Z-0.125000 I30.322806 J22.777212
G02 X58.903845 Y217.376100 Z-0.125000 I28.436887 J17.714263
G03 X58.439832 Y218.213868 Z-0.125000 I-9.853102 J-4.909931
G03 X58.064132 Y218.750175 Z-0.125000 I-4.523893 J-2.769382
G03 X57.619729 Y219.206786 Z-0.125000 I-2.519761 J-2.007827
G03 X57.262590 Y219.389498 Z-0.125000 I-0.574053 J-0.681674
G02 X57.106005 Y219.460036 Z-0.125000 I0.118533 J0.472201
G02 X56.928614 Y219.637597 Z-0.125000 I0.384857 J0.561878
G02 X56.796383 Y219.887983 Z-0.125000 I1.031413 J0.704807
G02 X56.604180 Y220.467765 Z-0.125000 I5.452739 J2.129384
G02 X56.344615 Y221.637271 Z-0.125000 I11.656698 J3.200695
G02 X55.850347 Y224.828544 Z-0.125000 I104.911297 J17.882674
G03 X55.721941 Y225.563966 Z-0.125000 I-10.731483 J-1.494815
G03 X55.382778 Y227.070957 Z-0.125000 I-53.777477 J-11.311480
G02 X55.144608 Y228.674298 Z-0.125000 I8.967631 J2.151468
G02 X55.230105 Y229.571008 Z-0.125000 I2.921055 J0.173924
G02 X55.616073 Y230.311349 Z-0.125000 I1.766510 J-0.450171
G02 X56.298829 Y230.821034 Z-0.125000 I1.492292 J-1.286880
G02 X56.720236 Y230.991457 Z-0.125000 I2.391633 J-5.307610
G02 X57.090830 Y231.107299 Z-0.125000 I1.554103 J-4.321040
G02 X57.511530 Y231.178510 Z-0.125000 I0.592113 J-2.219784
G02 X57.577482 Y231.174095 Z-0.125000 I0.017481 J-0.233645
G03 X57.796165 Y231.174870 Z-0.125000 I0.107533 J0.510503
G03 X57.978252 Y231.259974 Z-0.125000 I-0.097019 J0.444927
G03 X58.066843 Y231.380727 Z-0.125000 I-0.167644 J0.215867
G03 X58.111845 Y231.536698 Z-0.125000 I-1.021854 J0.379310
G02 X58.161988 Y231.490319 Z-0.125000 I-0.306981 J-0.382196
G02 X58.274060 Y231.355396 Z-0.125000 I-1.039265 J-0.977261
G03 X58.557773 Y231.064554 Z-0.125000 I1.162410 J0.850116
G03 X58.884761 Y230.906914 Z-0.125000 I0.538733 J0.699526
G03 X59.249930 Y230.878507 Z-0.125000 I0.268120 J1.085360
G03 X59.810351 Y230.964167 Z-0.125000 I-0.380238 J4.363757
G03 X60.212403 Y231.056991 Z-0.125000 I-4.179786 J19.021196
G03 X60.468762 Y231.145468 Z-0.125000 I-0.336887 J1.391739
G03 X60.693239 Y231.303506 Z-0.125000 I-0.306747 J0.674149
G03 X60.821824 Y231.527155 Z-0.125000 I-0.375151 J0.364478
G03 X60.841779 Y231.775513 Z-0.125000 I-0.626817 J0.175344
G03 X60.774112 Y232.128313 Z-0.125000 I-2.317605 J-0.261631
G03 X60.662737 Y232.486644 Z-0.125000 I-5.222180 J-1.426657
G03 X60.449678 Y233.072989 Z-0.125000 I-23.519011 J-8.214198
G02 X60.097747 Y234.222813 Z-0.125000 I8.783460 J3.317156
G02 X59.838980 Y235.620751 Z-0.125000 I13.865105 J3.289436
G03 X59.423985 Y236.991756 Z-0.125000 I-4.433413 J-0.593657
G03 X58.569869 Y238.225767 Z-0.125000 I-4.490397 J-2.195419
G03 X58.116402 Y238.681966 Z-0.125000 I-8.921203 J-8.414302
G03 X57.758782 Y239.008226 Z-0.125000 I-7.396414 J-7.748222
G03 X57.575798 Y239.164317 Z-0.125000 I-7.365614 J-8.449352
G03 X57.443890 Y239.265865 Z-0.125000 I-1.352508 J-1.620427
G03 X57.376210 Y239.310131 Z-0.125000 I-0.626322 J-0.883717
G03 X57.319842 Y239.342202 Z-0.125000 I-0.679624 J-1.128950
G03 X57.264762 Y239.369333 Z-0.125000 I-0.402239 J-0.747125
G03 X57.186252 Y239.389913 Z-0.125000 I-0.100998 J-0.225252
G02 X56.970885 Y239.416783 Z-0.125000 I0.284508 J3.156887
G02 X56.241575 Y239.542588 Z-0.125000 I4.687067 J29.348535
G03 X55.491994 Y239.518598 Z-0.125000 I-0.319928 J-1.726204
G03 X54.752997 Y239.179985 Z-0.125000 I0.548332 J-2.172403
G03 X54.516079 Y239.010328 Z-0.125000 I8.965003 J-12.769417
G03 X54.390392 Y238.912804 Z-0.125000 I1.612499 J-2.207919
G03 X54.333266 Y238.862370 Z-0.125000 I0.704349 J-0.855376
G03 X54.285428 Y238.807840 Z-0.125000 I0.268345 J-0.283663
G03 X54.266931 Y238.777081 Z-0.125000 I0.175866 J-0.126694
G03 X54.247260 Y238.712418 Z-0.125000 I0.186527 J-0.092068
G03 X54.255610 Y238.630121 Z-0.125000 I0.177411 J-0.023573
G03 X54.304515 Y238.559743 Z-0.125000 I0.150142 J0.052153
G03 X54.416618 Y238.513899 Z-0.125000 I0.129767 J0.157332
G03 X54.476272 Y238.512032 Z-0.125000 I0.046639 J0.536476
G03 X54.548375 Y238.516933 Z-0.125000 I0.000000 J0.532841
G03 X54.648033 Y238.531116 Z-0.125000 I-1.208949 J8.852006
G03 X54.843976 Y238.565172 Z-0.125000 I-0.648556 J4.312213
G03 X55.201479 Y238.636080 Z-0.125000 I-38.865216 J196.887535
G02 X56.033653 Y238.671132 Z-0.125000 I0.528548 J-2.652404
G02 X56.957240 Y238.473863 Z-0.125000 I-0.542219 J-4.799275
G02 X57.367784 Y238.309182 Z-0.125000 I-0.917548 J-2.881484
G02 X57.577482 Y238.178055 Z-0.125000 I-0.522454 J-1.068756
G02 X57.662696 Y238.095872 Z-0.125000 I-0.348811 J-0.446945
G02 X57.682446 Y238.063549 Z-0.125000 I-0.096759 J-0.081318
G02 X57.687098 Y238.043669 Z-0.125000 I-0.053886 J-0.023091
G01 X57.682446 Y238.025381 Z-0.125000
G03 X57.639334 Y237.881334 Z-0.125000 I0.245981 J-0.152097
G03 X57.653835 Y237.748657 Z-0.125000 I0.489495 J-0.013630
G03 X57.696444 Y237.624693 Z-0.125000 I0.751030 J0.188844
G03 X57.768341 Y237.491019 Z-0.125000 I0.894930 J0.395162
G03 X57.962651 Y237.246969 Z-0.125000 I1.301081 J0.836532
G03 X58.264533 Y236.975741 Z-0.125000 I2.221385 J2.168822
G02 X58.789921 Y236.361933 Z-0.125000 I-1.279817 J-1.627217
G02 X58.999281 Y235.678004 Z-0.125000 I-1.465160 J-0.822514
G03 X59.232086 Y234.178367 Z-0.125000 I10.596377 J0.877103
G03 X59.772198 Y232.252361 Z-0.125000 I20.329634 J4.662318
G03 X59.754896 Y232.244378 Z-0.125000 I0.079341 J-0.194684
G02 X59.724488 Y232.233277 Z-0.125000 I-0.058455 J0.112929
G02 X59.551011 Y232.206250 Z-0.125000 I-0.264369 J1.126643
G02 X59.266464 Y232.195108 Z-0.125000 I-0.283293 J3.595766
G02 X58.991799 Y232.204549 Z-0.125000 I0.001412 J4.041136
G02 X58.770269 Y232.233277 Z-0.125000 I0.126015 J1.840257
G02 X58.666472 Y232.259622 Z-0.125000 I0.170943 J0.891161
G02 X58.608053 Y232.280988 Z-0.125000 I0.218933 J0.689148
G02 X58.579260 Y232.295297 Z-0.125000 I0.091573 J0.220388
G03 X58.569883 Y232.300072 Z-0.125000 I-0.046031 J-0.078809
G03 X58.452424 Y232.406147 Z-0.125000 I-0.259979 J-0.169808
G03 X58.312245 Y232.462289 Z-0.125000 I-0.361910 J-0.700572
G03 X58.161059 Y232.493968 Z-0.125000 I-0.278487 J-0.952439
G03 X57.968727 Y232.509999 Z-0.125000 I-0.272284 J-2.104944
G03 X57.576192 Y232.499604 Z-0.125000 I-0.115655 J-3.049160
G03 X57.062218 Y232.433662 Z-0.125000 I0.640114 J-7.025272
G03 X55.988613 Y232.182335 Z-0.125000 I1.384383 J-8.332486
G03 X55.220577 Y231.822962 Z-0.125000 I0.869487 J-2.858624
G02 X54.910695 Y231.639788 Z-0.125000 I-2.136635 J3.260907
G02 X54.695759 Y231.536697 Z-0.125000 I-1.381091 J2.603849
G02 X54.617656 Y231.504334 Z-0.125000 I-1.181516 J2.740992
G02 X54.571708 Y231.488986 Z-0.125000 I-0.159190 J0.400114
G02 X54.559790 Y231.530715 Z-0.125000 I1.351767 J0.408652
G02 X54.543100 Y231.593950 Z-0.125000 I6.599245 J1.775640
G02 X54.497934 Y231.780624 Z-0.125000 I7.699069 J1.961576
G02 X54.428594 Y232.099686 Z-0.125000 I14.082330 J3.227531
G02 X54.303720 Y232.747834 Z-0.125000 I25.868903 J5.320067
G02 X54.142327 Y233.683688 Z-0.125000 I66.213088 J11.900623
G02 X53.931279 Y235.178004 Z-0.125000 I31.898503 J5.267215
G02 X53.932399 Y235.658920 Z-0.125000 I2.006669 J0.235785
G02 X54.077504 Y236.053093 Z-0.125000 I0.909775 J-0.111117
G02 X54.476303 Y236.565427 Z-0.125000 I3.498071 J-2.311508
G03 X54.817362 Y236.973900 Z-0.125000 I-4.555341 J4.150152
G03 X54.934327 Y237.185669 Z-0.125000 I-0.652297 J0.498465
G03 X54.953122 Y237.246049 Z-0.125000 I-0.530337 J0.198193
G03 X54.953405 Y237.338344 Z-0.125000 I-0.186160 J0.046720
G03 X54.900843 Y237.433248 Z-0.125000 I-0.197607 J-0.047436
G03 X54.819816 Y237.481476 Z-0.125000 I-0.131926 J-0.129465
G03 X54.673721 Y237.483431 Z-0.125000 I-0.076638 J-0.267375
G03 X54.543094 Y237.443307 Z-0.125000 I0.374057 J-1.450476
G02 X54.409930 Y237.402735 Z-0.125000 I-0.494403 J1.383869
G02 X54.361792 Y237.395597 Z-0.125000 I-0.059233 J0.233570
G03 X54.354941 Y237.395569 Z-0.125000 I-0.000000 J-0.845361
G02 X54.352252 Y237.395597 Z-0.125000 I-0.000591 J0.072949
G01 X54.352919 Y237.395865 Z-0.125000
G02 X54.352252 Y237.433765 Z-0.125000 I0.235948 J0.023106
G02 X54.362288 Y237.510180 Z-0.125000 I0.548131 J-0.033120
G02 X54.399965 Y237.672320 Z-0.125000 I2.965591 J-0.603675
G03 X54.438671 Y237.948839 Z-0.125000 I-1.159722 J0.303300
G03 X54.409476 Y238.168513 Z-0.125000 I-0.719997 J0.016089
G03 X54.365725 Y238.269949 Z-0.125000 I-0.430351 J-0.125465
G03 X54.294970 Y238.359357 Z-0.125000 I-0.355580 J-0.208695
G03 X54.196859 Y238.422158 Z-0.125000 I-0.209269 J-0.218892
G03 X54.075500 Y238.445237 Z-0.125000 I-0.121359 J-0.307546
G03 X53.925583 Y238.405434 Z-0.125000 I0.000000 J-0.302230
G03 X53.817862 Y238.321188 Z-0.125000 I0.235238 J-0.411780
G03 X53.728949 Y238.208649 Z-0.125000 I0.552517 J-0.527916
G03 X53.636559 Y238.054007 Z-0.125000 I2.092613 J-1.355134
G03 X53.481273 Y237.726126 Z-0.125000 I2.642681 J-1.452304
G03 X53.312125 Y237.252464 Z-0.125000 I5.965120 J-2.397211
G03 X53.052465 Y236.211804 Z-0.125000 I8.626813 J-2.705240
G03 X52.959065 Y235.219979 Z-0.125000 I5.371246 J-1.006121
G03 X53.039162 Y234.386273 Z-0.125000 I4.378969 J-0.000000
G03 X53.398005 Y232.891687 Z-0.125000 I17.122538 J3.320675
G02 X53.765205 Y231.384184 Z-0.125000 I-18.268732 J-5.248398
G02 X54.037332 Y229.723683 Z-0.125000 I-23.133538 J-4.643724
G03 X54.290675 Y228.035508 Z-0.125000 I38.195934 J4.868932
G03 X54.982009 Y224.236928 Z-0.125000 I213.712400 J36.933032
G02 X55.285638 Y222.612424 Z-0.125000 I-193.679523 J-37.040436
G02 X55.497284 Y221.412442 Z-0.125000 I-99.824903 J-18.225252
G02 X55.592931 Y220.824573 Z-0.125000 I-40.483810 J-6.888473
G02 X55.649961 Y220.448681 Z-0.125000 I-54.200528 J-8.415491
G02 X55.704064 Y220.043694 Z-0.125000 I-14.236742 J-2.108005
G02 X55.707213 Y219.990657 Z-0.125000 I-0.445057 J-0.053037
G02 X55.693202 Y219.936702 Z-0.125000 I-0.110894 J0.000000
G02 X55.630877 Y219.876151 Z-0.125000 I-0.131992 J0.073507
G02 X55.498514 Y219.827428 Z-0.125000 I-0.258297 J0.497548
G02 X55.039260 Y219.752103 Z-0.125000 I-0.817233 J3.544958
G02 X54.135332 Y219.702452 Z-0.125000 I-1.020550 J10.326605
G02 X51.355978 Y219.694849 Z-0.125000 I-1.836741 J163.420444
G02 X40.040004 Y219.820776 Z-0.125000 I6.046369 J1051.829493
G02 X26.765775 Y220.086079 Z-0.125000 I31.520541 J1909.319868
G02 X20.565417 Y220.245124 Z-0.125000 I33.412213 J1423.512160
G02 X16.517473 Y220.372346 Z-0.125000 I15.669992 J563.051905
G02 X14.526797 Y220.450543 Z-0.125000 I8.231318 J234.922575
G02 X13.387638 Y220.505936 Z-0.125000 I4.873550 J111.966974
G02 X12.821638 Y220.539521 Z-0.125000 I2.716300 J50.562173
G02 X12.509757 Y220.563187 Z-0.125000 I0.932819 J14.360061
G02 X12.354290 Y220.580253 Z-0.125000 I0.282161 J3.287151
G02 X12.271202 Y220.591799 Z-0.125000 I1.103688 J8.247084
G02 X12.231292 Y220.598075 Z-0.125000 I0.238025 J1.643724
G02 X12.213949 Y220.601338 Z-0.125000 I0.082702 J0.487237
G03 X11.985504 Y220.654979 Z-0.125000 I-0.203051 J-0.351484
G03 X11.717756 Y220.620416 Z-0.125000 I0.128483 J-2.049722
G03 X11.421439 Y220.542015 Z-0.125000 I0.460952 J-2.341326
G03 X11.087972 Y220.420030 Z-0.125000 I2.029804 J-6.065608
G03 X10.766777 Y220.281975 Z-0.125000 I2.353742 J-5.918807
G03 X10.515441 Y220.143308 Z-0.125000 I0.852398 J-1.842102
G03 X10.401965 Y220.061181 Z-0.125000 I0.736419 J-1.136981
G03 X10.315055 Y219.981090 Z-0.125000 I0.558870 J-0.693645
G03 X10.246871 Y219.889753 Z-0.125000 I0.349315 J-0.331885
G03 X10.210091 Y219.752078 Z-0.125000 I0.238665 J-0.137511
G03 X10.224774 Y219.674659 Z-0.125000 I0.212809 J0.000258
G03 X10.248260 Y219.637572 Z-0.125000 I0.107707 J0.042227
G03 X10.284376 Y219.616924 Z-0.125000 I0.052775 J0.050402
G02 X10.305513 Y219.608960 Z-0.125000 I-0.019881 J-0.084795
G02 X10.337814 Y219.590948 Z-0.125000 I-0.323579 J-0.618254
G03 X10.362766 Y219.580348 Z-0.125000 I0.051950 J0.087621
G03 X10.425109 Y219.566323 Z-0.125000 I0.245612 J0.946142
G03 X10.515441 Y219.551737 Z-0.125000 I0.300845 J1.576162
G03 X10.702576 Y219.530703 Z-0.125000 I0.689128 J5.288170
G03 X11.040261 Y219.504027 Z-0.125000 I1.032767 J10.922828
G03 X11.725380 Y219.471993 Z-0.125000 I1.319249 J20.872752
G03 X12.939155 Y219.437231 Z-0.125000 I10.874818 J358.500297
G03 X15.404677 Y219.386874 Z-0.125000 I5.095514 J189.098099
G03 X19.141573 Y219.360895 Z-0.125000 I3.736896 J268.756746
G02 X32.021005 Y219.254428 Z-0.125000 I0.000000 J-779.071626
G02 X42.844353 Y218.988749 Z-0.125000 I-11.173375 J-675.780578
G02 X48.045796 Y218.785962 Z-0.125000 I-13.191092 J-405.159589
G02 X51.098340 Y218.616605 Z-0.125000 I-6.910374 J-152.148857
G02 X52.603422 Y218.506196 Z-0.125000 I-6.371971 J-97.176072
G02 X53.369380 Y218.425760 Z-0.125000 I-1.316852 J-16.227017
G02 X53.564871 Y218.393584 Z-0.125000 I-0.372702 J-2.874313
G03 X53.693814 Y218.368506 Z-0.125000 I2.462861 J12.319371
G03 X53.456620 Y218.247924 Z-0.125000 I10.583147 J-21.111403
G02 X53.207161 Y218.168122 Z-0.125000 I-0.362379 J0.702994
G03 X52.643324 Y217.850296 Z-0.125000 I0.127682 J-0.885562
G03 X52.415161 Y217.328410 Z-0.125000 I0.809827 J-0.664866
G03 X52.501297 Y216.774255 Z-0.125000 I0.967858 J-0.133330
G03 X52.968607 Y216.355107 Z-0.125000 I0.737228 J0.351861
G02 X53.512092 Y216.152764 Z-0.125000 I-4.850164 J-13.858382
G02 X53.884655 Y215.992505 Z-0.125000 I-2.477835 J-6.273565
G03 X54.022920 Y215.954363 Z-0.125000 I0.182354 J0.391350
G03 X54.170922 Y215.973427 Z-0.125000 I0.033364 J0.325010
G03 X54.296231 Y216.054159 Z-0.125000 I-0.122183 J0.327263
G03 X54.380850 Y216.173813 Z-0.125000 I-0.310634 J0.309428
G03 X54.463772 Y216.448925 Z-0.125000 I-0.839627 J0.403126
G03 X54.504898 Y216.965816 Z-0.125000 I-4.393534 J0.609651
G02 X54.509627 Y217.132304 Z-0.125000 I21.760518 J-0.534754
G02 X54.514437 Y217.252080 Z-0.125000 I7.565349 J-0.243849
G03 X54.578022 Y217.105101 Z-0.125000 I11.133262 J4.729120
G03 X54.628943 Y217.003984 Z-0.125000 I1.004468 J0.442460
G03 X54.700906 Y216.903430 Z-0.125000 I0.523525 J0.298640
G03 X54.829329 Y216.822682 Z-0.125000 I0.201727 J0.178333
G03 X54.918129 Y216.815987 Z-0.125000 I0.060957 J0.216250
G03 X54.991545 Y216.841760 Z-0.125000 I-0.022767 J0.182304
G03 X55.049087 Y216.889589 Z-0.125000 I-0.137888 J0.224415
G03 X55.086967 Y216.937182 Z-0.125000 I-0.361100 J0.326281
G03 X55.145605 Y217.041336 Z-0.125000 I-0.507930 J0.354544
G03 X55.211015 Y217.194823 Z-0.125000 I-5.747169 J2.539906
G02 X55.455006 Y217.502333 Z-0.125000 I0.654793 J-0.268988
G02 X55.716752 Y217.586050 Z-0.125000 I0.261746 J-0.367320
G03 X55.732885 Y217.586759 Z-0.125000 I-0.000000 J0.184142
G01 X55.745363 Y217.586050 Z-0.125000
G03 X55.731636 Y217.563513 Z-0.125000 I0.410605 J-0.265554
G02 X55.707193 Y217.528799 Z-0.125000 I-0.197566 J0.113147
G02 X55.617165 Y217.432113 Z-0.125000 I-1.227934 J1.053120
G02 X55.449555 Y217.271158 Z-0.125000 I-5.430356 J5.487139
G03 X55.192844 Y217.010085 Z-0.125000 I2.851785 J-3.060879
G03 X55.001073 Y216.774966 Z-0.125000 I2.301577 J-2.073018
G03 X54.917052 Y216.650474 Z-0.125000 I1.444995 J-1.065829
G03 X54.857941 Y216.545954 Z-0.125000 I1.376903 J-0.847689
G03 X54.812256 Y216.443056 Z-0.125000 I0.835188 J-0.432401
G03 X54.791145 Y216.326484 Z-0.125000 I0.311962 J-0.116694
G03 X54.839274 Y216.116948 Z-0.125000 I0.480186 J0.000000
G03 X54.962905 Y215.954338 Z-0.125000 I0.466018 J0.226007
G03 X55.139320 Y215.843028 Z-0.125000 I0.434500 J0.493189
G03 X55.363675 Y215.773038 Z-0.125000 I0.457086 J1.070607
G03 X55.832148 Y215.747944 Z-0.125000 I0.318549 J1.561442
G03 X56.441941 Y215.887544 Z-0.125000 I-0.225557 J2.386896
G03 X56.973452 Y216.299156 Z-0.125000 I-0.392385 J1.055655
G03 X57.214858 Y216.908556 Z-0.125000 I-1.171311 J0.816515
G03 X57.179122 Y217.477852 Z-0.125000 I-1.365396 J0.200060
G03 X56.909510 Y218.044075 Z-0.125000 I-1.749918 J-0.485937
G03 X56.918894 Y218.039344 Z-0.125000 I0.233568 J0.451667
G02 X56.928589 Y218.034564 Z-0.125000 I-1.539920 J-3.135001
G02 X57.185217 Y217.875094 Z-0.125000 I-0.854590 J-1.661494
G02 X57.377071 Y217.700588 Z-0.125000 I-0.763867 J-1.032512
G02 X57.524512 Y217.473849 Z-0.125000 I-0.651253 J-0.584800
G02 X57.539286 Y217.404779 Z-0.125000 I-0.154068 J-0.069070
G03 X57.600598 Y217.162692 Z-0.125000 I0.508952 J0.000091
G03 X57.758756 Y216.956297 Z-0.125000 I0.727071 J0.393353
G03 X57.972413 Y216.799057 Z-0.125000 I0.735204 J0.775213
G03 X58.245409 Y216.689114 Z-0.125000 I0.566595 J1.012993
G02 X58.444369 Y216.592741 Z-0.125000 I-0.143985 J-0.550813
G02 X58.550760 Y216.469644 Z-0.125000 I-0.233329 J-0.309186
G02 X58.607200 Y216.302917 Z-0.125000 I-0.444726 J-0.243466
G02 X58.608011 Y216.030704 Z-0.125000 I-0.906534 J-0.138809
G02 X58.432013 Y215.505033 Z-0.125000 I-1.555105 J0.228362
G02 X57.844637 Y214.694799 Z-0.125000 I-3.468312 J1.896316
G03 X57.462441 Y214.237833 Z-0.125000 I3.772131 J-3.543229
G03 X57.329358 Y213.931425 Z-0.125000 I0.590158 J-0.438430
G03 X57.327014 Y213.748823 Z-0.125000 I0.538397 J-0.098230
G03 X57.377071 Y213.568823 Z-0.125000 I0.794335 J0.123942
G03 X57.462014 Y213.405925 Z-0.125000 I1.022467 J0.429567
G03 X57.596541 Y213.206218 Z-0.125000 I3.483011 J2.201079
G02 X58.014213 Y212.615872 Z-0.125000 I-47.989759 J-34.395863
G02 X59.590856 Y210.353107 Z-0.125000 I-1065.810411 J-744.312804
G01 X61.050811 Y208.253828 Z-0.125000
G01 X60.354230 Y207.986645 Z-0.125000
G02 X59.977274 Y207.852701 Z-0.125000 I-3.626116 J9.607464
G02 X59.791242 Y207.805343 Z-0.125000 I-0.418308 J1.254141
G02 X59.641581 Y207.805088 Z-0.125000 I-0.075556 J0.425506
G02 X59.581314 Y207.833955 Z-0.125000 I0.021146 J0.121493
G02 X59.531430 Y207.898738 Z-0.125000 I0.137468 J0.157449
G02 X59.428640 Y208.167931 Z-0.125000 I1.367601 J0.676432
G02 X59.359834 Y208.459632 Z-0.125000 I3.736389 J1.035299
G02 X59.256880 Y209.007643 Z-0.125000 I37.586833 J7.345083
G03 X58.870682 Y210.071110 Z-0.125000 I-3.291632 J-0.593498
G03 X57.930517 Y211.374105 Z-0.125000 I-6.550259 J-3.735602
G02 X56.843107 Y212.623239 Z-0.125000 I39.814106 J35.757304
G02 X56.441936 Y213.139408 Z-0.125000 I6.227102 J5.253739
G03 X56.146452 Y213.419287 Z-0.125000 I-0.867711 J-0.620171
G03 X55.640394 Y213.654686 Z-0.125000 I-1.146924 J-1.803984
G03 X55.085920 Y213.784871 Z-0.125000 I-1.157852 J-3.685564
G03 X54.142271 Y213.893240 Z-0.125000 I-1.746293 J-11.043521
G02 X52.358976 Y214.047145 Z-0.125000 I4.535699 J62.963616
G02 X51.146024 Y214.198591 Z-0.125000 I2.555115 J25.397404
G03 X50.579699 Y214.259772 Z-0.125000 I-1.037639 J-6.953187
G03 X48.789108 Y214.360809 Z-0.125000 I-5.605488 J-83.424287
G03 X47.026769 Y214.428856 Z-0.125000 I-5.709252 J-125.008419
G03 X44.876813 Y214.484857 Z-0.125000 I-6.162474 J-195.286885
G02 X40.859407 Y214.602267 Z-0.125000 I4.767363 J231.915592
G02 X38.025525 Y214.742495 Z-0.125000 I4.646874 J122.614131
G02 X35.109497 Y214.992036 Z-0.125000 I3.662293 J59.958465
G02 X34.447206 Y215.124184 Z-0.125000 I0.424537 J3.853357
G03 X34.199390 Y215.161846 Z-0.125000 I-0.264387 J-0.905524
G03 X34.008266 Y215.133695 Z-0.125000 I-0.010405 J-0.592229
G03 X33.841475 Y215.037172 Z-0.125000 I0.137050 J-0.429192
G03 X33.741086 Y214.885599 Z-0.125000 I0.252052 J-0.275967
G03 X33.764731 Y214.552667 Z-0.125000 I0.394328 J-0.139300
G03 X34.094146 Y214.198562 Z-0.125000 I0.809674 J0.422944
G02 X34.153393 Y214.146557 Z-0.125000 I-0.123221 J-0.200132
G02 X34.256365 Y213.979092 Z-0.125000 I-0.586003 J-0.475714
G02 X34.318009 Y213.800235 Z-0.125000 I-0.970223 J-0.434443
G02 X34.342242 Y213.616488 Z-0.125000 I-0.807135 J-0.199921
G03 X34.393149 Y213.334539 Z-0.125000 I0.908669 J0.018494
G03 X34.542629 Y212.986703 Z-0.125000 I2.592398 J0.908022
G03 X34.741804 Y212.645575 Z-0.125000 I3.274853 J1.683383
G03 X34.981569 Y212.309209 Z-0.125000 I4.647269 J3.058984
G03 X35.243526 Y211.994809 Z-0.125000 I4.249526 J3.274374
G03 X35.468222 Y211.784388 Z-0.125000 I1.341590 J1.207418
G03 X35.589012 Y211.702533 Z-0.125000 I0.633462 J0.804723
G03 X35.706776 Y211.650799 Z-0.125000 I0.292337 J0.505546
G03 X35.844443 Y211.632981 Z-0.125000 I0.119610 J0.383426
G03 X35.993042 Y211.698511 Z-0.125000 I-0.010087 J0.224123
G03 X36.063998 Y211.839132 Z-0.125000 I-0.178183 J0.178123
G03 X36.069377 Y211.956149 Z-0.125000 I-0.560762 J0.084409
G03 X36.051751 Y212.078175 Z-0.125000 I-0.722607 J-0.042093
G03 X36.012126 Y212.232871 Z-0.125000 I-3.529810 J-0.821737
G03 X35.903844 Y212.550034 Z-0.125000 I-2.919753 J-0.819759
G03 X35.716317 Y212.958077 Z-0.125000 I-4.477656 J-1.810706
G01 X35.372799 Y213.626030 Z-0.125000
G01 X36.088464 Y213.559236 Z-0.125000
G02 X36.503794 Y213.523304 Z-0.125000 I-6.921674 J-82.424091
G02 X36.832752 Y213.492440 Z-0.125000 I-3.097697 J-34.784438
G02 X37.157450 Y213.455428 Z-0.125000 I-1.089759 J-11.003055
G02 X37.233524 Y213.444730 Z-0.125000 I-0.429852 J-3.332566
G03 X37.251148 Y213.431548 Z-0.125000 I0.166821 J0.204667
G02 X37.290779 Y213.397018 Z-0.125000 I-0.128040 J-0.186957
G02 X37.360780 Y213.310873 Z-0.125000 I-0.720345 J-0.656871
G03 X37.472078 Y213.158464 Z-0.125000 I14.364683 J10.373059
G02 X37.692690 Y212.846901 Z-0.125000 I-7.638696 J-5.642724
G02 X37.968273 Y212.423715 Z-0.125000 I-11.112283 J-7.537734
G02 X38.224431 Y211.993321 Z-0.125000 I-9.852618 J-6.155405
G02 X38.416755 Y211.641257 Z-0.125000 I-11.392006 J-6.451756
G02 X38.506480 Y211.469236 Z-0.125000 I-20.575463 J-10.841405
G02 X38.559887 Y211.354990 Z-0.125000 I-1.425759 J-0.736116
G02 X38.565267 Y211.339872 Z-0.125000 I-0.120775 J-0.051495
G03 X38.569426 Y211.326381 Z-0.125000 I0.370099 J0.106717
G02 X38.471921 Y211.323139 Z-0.125000 I-0.089391 J1.220414
G02 X38.302246 Y211.326381 Z-0.125000 I0.045097 J6.800937
G02 X37.880001 Y211.353978 Z-0.125000 I0.208181 J6.429405
G02 X37.223980 Y211.431343 Z-0.125000 I1.683494 J17.095439
G03 X36.673242 Y211.503078 Z-0.125000 I-5.272797 J-38.330974
G03 X36.355641 Y211.536307 Z-0.125000 I-1.076430 J-8.754193
G03 X36.052118 Y211.547415 Z-0.125000 I-0.263681 J-3.052625
G03 X35.868988 Y211.517228 Z-0.125000 I0.008056 J-0.619458
G03 X35.775745 Y211.471324 Z-0.125000 I0.114466 J-0.350162
G03 X35.697231 Y211.383639 Z-0.125000 I0.138727 J-0.203210
G03 X35.669480 Y211.274702 Z-0.125000 I0.209333 J-0.111328
G03 X35.678153 Y211.183252 Z-0.125000 I0.439732 J-0.004436
G03 X35.732607 Y211.017059 Z-0.125000 I0.719735 J0.143809
G03 X35.840371 Y210.801566 Z-0.125000 I3.948739 J1.840002
G02 X35.984229 Y210.463444 Z-0.125000 I-1.818971 J-0.973568
G02 X35.993045 Y210.381710 Z-0.125000 I-0.191503 J-0.061997
G02 X35.983142 Y210.349670 Z-0.125000 I-0.086509 J0.009187
G02 X35.964433 Y210.324456 Z-0.125000 I-0.095901 J0.051610
G02 X35.935574 Y210.298189 Z-0.125000 I-0.293746 J0.293746
G02 X35.849927 Y210.248120 Z-0.125000 I-0.195604 J0.236311
G02 X35.539709 Y210.206730 Z-0.125000 I-0.242004 J0.630574
G02 X35.286939 Y210.295830 Z-0.125000 I0.057471 J0.566138
G02 X35.077271 Y210.495750 Z-0.125000 I0.429616 J0.660468
G02 X34.838457 Y210.944698 Z-0.125000 I1.528047 J1.100824
G03 X34.541031 Y211.409083 Z-0.125000 I-1.206105 J-0.445040
G03 X34.208672 Y211.564941 Z-0.125000 I-0.382015 J-0.382329
G03 X34.012570 Y211.536178 Z-0.125000 I-0.038544 J-0.420098
G03 X33.846070 Y211.412264 Z-0.125000 I0.152463 J-0.378678
G03 X33.755122 Y211.229211 Z-0.125000 I0.377737 J-0.301794
G03 X33.722022 Y210.963782 Z-0.125000 I1.047684 J-0.265429
G02 X33.698394 Y210.814405 Z-0.125000 I-0.483993 J0.000000
G02 X33.655226 Y210.725228 Z-0.125000 I-0.344846 J0.111895
G02 X33.595716 Y210.666281 Z-0.125000 I-0.173662 J0.115808
G01 X33.569346 Y210.658432 Z-0.125000
G02 X33.434525 Y210.712266 Z-0.125000 I0.000000 J0.195737
G02 X33.416672 Y210.753854 Z-0.125000 I0.039512 J0.041588
G03 X33.362906 Y210.882626 Z-0.125000 I-0.181091 J0.000000
G03 X33.311708 Y210.925614 Z-0.125000 I-0.289424 J-0.292716
G03 X33.256052 Y210.959711 Z-0.125000 I-0.283888 J-0.400922
G03 X33.187660 Y210.992408 Z-0.125000 I-0.473345 J-0.902210
G03 X33.035258 Y211.049802 Z-0.125000 I-0.660140 J-1.521864
G03 X32.786887 Y211.126001 Z-0.125000 I-2.969485 J-9.236227
G03 X32.272861 Y211.263588 Z-0.125000 I-3.284358 J-11.241378
G03 X31.450983 Y211.450435 Z-0.125000 I-6.527465 J-26.811157
G03 X29.717521 Y211.784013 Z-0.125000 I-10.031605 J-47.459177
G03 X27.786785 Y212.070675 Z-0.125000 I-6.810240 J-39.223247
G02 X27.056726 Y212.187565 Z-0.125000 I1.261785 J10.218982
G02 X25.582541 Y212.509615 Z-0.125000 I7.152725 J36.276701
G03 X24.938528 Y212.632447 Z-0.125000 I-1.628127 J-6.786594
G03 X24.303889 Y212.700459 Z-0.125000 I-1.296344 J-9.101581
G03 X23.673231 Y212.720559 Z-0.125000 I-0.565334 J-7.834167
G03 X23.292417 Y212.671848 Z-0.125000 I0.013458 J-1.618121
G02 X22.887183 Y212.602922 Z-0.125000 I-0.646935 J2.577809
G02 X22.796224 Y212.614596 Z-0.125000 I-0.019218 J0.210450
G02 X22.765358 Y212.632110 Z-0.125000 I0.035714 J0.098897
G02 X22.748513 Y212.652764 Z-0.125000 I0.042278 J0.051677
G02 X22.737327 Y212.687334 Z-0.125000 I0.096513 J0.050324
G02 X22.729429 Y212.795895 Z-0.125000 I0.742175 J0.108562
G03 X22.694899 Y213.023277 Z-0.125000 I-0.765918 J0.000000
G03 X22.605381 Y213.206210 Z-0.125000 I-0.635271 J-0.197499
G03 X22.457977 Y213.347077 Z-0.125000 I-0.422406 J-0.294450
G03 X22.252320 Y213.406596 Z-0.125000 I-0.205657 J-0.325547
G02 X22.215759 Y213.411903 Z-0.125000 I-0.000000 J0.128596
G02 X22.204609 Y213.416135 Z-0.125000 I0.022778 J0.076811
G01 X22.206844 Y213.418300 Z-0.125000
G01 X22.214151 Y213.425646 Z-0.125000
G03 X22.244396 Y213.545690 Z-0.125000 I-0.174537 J0.107806
G03 X22.233235 Y213.626032 Z-0.125000 I-0.517268 J-0.030912
G03 X22.211484 Y213.701652 Z-0.125000 I-0.579922 J-0.125869
G03 X22.175982 Y213.788251 Z-0.125000 I-1.032621 J-0.372757
G03 X22.081410 Y213.968028 Z-0.125000 I-1.805077 J-0.834799
G03 X21.918343 Y214.227191 Z-0.125000 I-5.015878 J-2.975138
G03 X21.555262 Y214.730015 Z-0.125000 I-6.871993 J-4.579654
G03 X20.992751 Y215.410422 Z-0.125000 I-12.483735 J-9.747914
G01 X19.904943 Y216.660446 Z-0.125000
G01 X20.649233 Y216.574569 Z-0.125000
G03 X23.101569 Y216.324181 Z-0.125000 I7.976665 J65.990189
G03 X25.391697 Y216.173796 Z-0.125000 I5.408896 J64.856454
G03 X26.491617 Y216.137372 Z-0.125000 I1.780763 J37.148415
G03 X27.195171 Y216.135626 Z-0.125000 I0.406928 J22.224730
G03 X27.537946 Y216.146974 Z-0.125000 I-0.115576 J8.673325
G03 X27.748617 Y216.164237 Z-0.125000 I-0.193299 J3.652999
G03 X27.852737 Y216.177174 Z-0.125000 I-0.383252 J3.510082
G03 X27.929916 Y216.192849 Z-0.125000 I-0.087859 J0.630436
G03 X27.993735 Y216.214386 Z-0.125000 I-0.138532 J0.515841
G03 X28.092135 Y216.297813 Z-0.125000 I-0.078951 J0.192863
G03 X28.121390 Y216.391183 Z-0.125000 I-0.168358 J0.104020
G03 X28.101674 Y216.488658 Z-0.125000 I-0.198041 J0.010673
G03 X28.048510 Y216.562107 Z-0.125000 I-0.237792 J-0.116153
G03 X27.996710 Y216.603164 Z-0.125000 I-0.226671 J-0.232778
G03 X28.142750 Y216.563747 Z-0.125000 I0.297570 J0.812255
G03 X28.387940 Y216.526825 Z-0.125000 I0.815990 J4.586267
G03 X28.665489 Y216.497403 Z-0.125000 I0.957798 J7.711394
G03 X29.055893 Y216.469574 Z-0.125000 I1.038968 J11.822828
G03 X29.602193 Y216.448055 Z-0.125000 I0.982329 J17.993295
G03 X30.267749 Y216.440962 Z-0.125000 I0.594642 J24.568070
G03 X29.843799 Y216.424645 Z-0.125000 I0.309621 J-13.560603
G03 X29.618881 Y216.412350 Z-0.125000 I12.137022 J-224.091582
G02 X29.509482 Y216.408276 Z-0.125000 I-0.180396 J3.373398
G03 X29.437579 Y216.402811 Z-0.125000 I0.013823 J-0.657589
G03 X29.404283 Y216.394716 Z-0.125000 I0.028452 J-0.189537
G02 X29.370785 Y216.383733 Z-0.125000 I-0.506734 J1.489000
G03 X29.339545 Y216.372691 Z-0.125000 I0.147270 J-0.466356
G03 X29.275363 Y216.326481 Z-0.125000 I0.058258 J-0.148594
G03 X29.249656 Y216.284816 Z-0.125000 I0.125615 J-0.106267
G03 X29.237192 Y216.221517 Z-0.125000 I0.142931 J-0.061020
G03 X29.248224 Y216.159392 Z-0.125000 I0.180449 J-0.000000
G03 X29.265821 Y216.126095 Z-0.125000 I0.131639 J0.048272
G03 X29.313957 Y216.077564 Z-0.125000 I0.169428 J0.119912
G03 X29.342156 Y216.059299 Z-0.125000 I0.199185 J0.276615
G03 X29.404051 Y216.030804 Z-0.125000 I0.186137 J0.322851
G02 X29.485291 Y216.002047 Z-0.125000 I-45.020978 J-127.314983
G03 X29.654864 Y215.946847 Z-0.125000 I1.169016 J3.303132
G02 X29.981483 Y215.849371 Z-0.125000 I-62.961898 J-211.564743
G02 X31.519617 Y214.944454 Z-0.125000 I-1.071709 J-3.581324
G02 X33.006355 Y212.872211 Z-0.125000 I-5.094768 J-5.224711
G03 X33.268713 Y212.361259 Z-0.125000 I9.353239 J4.479757
G03 X33.483466 Y212.003873 Z-0.125000 I4.684466 J2.571677
G03 X33.601875 Y211.837517 Z-0.125000 I2.217657 J1.453187
G03 X33.693394 Y211.727148 Z-0.125000 I1.613649 J1.244909
G03 X33.741556 Y211.679621 Z-0.125000 I0.391218 J0.348284
G03 X33.788813 Y211.641268 Z-0.125000 I0.616238 J0.711003
G03 X33.838065 Y211.609366 Z-0.125000 I0.241118 J0.318281
G03 X33.931948 Y211.584016 Z-0.125000 I0.099300 J0.181236
G03 X34.028653 Y211.609966 Z-0.125000 I0.000000 J0.193167
G03 X34.094163 Y211.669897 Z-0.125000 I-0.103406 J0.178803
G03 X34.128473 Y211.733718 Z-0.125000 I-0.248225 J0.174575
G03 X34.141876 Y211.784403 Z-0.125000 I-0.212559 J0.083323
G03 X34.146637 Y211.899641 Z-0.125000 I-0.556461 J0.080708
G03 X34.132337 Y212.042040 Z-0.125000 I-1.848990 J-0.113764
G03 X34.075676 Y212.336203 Z-0.125000 I-2.878277 J-0.401871
G03 X33.960576 Y212.748163 Z-0.125000 I-6.787702 J-1.674385
G03 X33.642699 Y213.613335 Z-0.125000 I-8.962482 J-2.801968
G03 X33.321250 Y214.160406 Z-0.125000 I-2.252381 J-0.955486
G02 X33.244626 Y214.302464 Z-0.125000 I0.383419 J0.298504
G02 X33.235370 Y214.370334 Z-0.125000 I0.169704 J0.057711
G02 X33.252575 Y214.425124 Z-0.125000 I0.120929 J-0.007880
G02 X33.311708 Y214.484840 Z-0.125000 I0.153189 J-0.092556
G03 X33.472000 Y214.650952 Z-0.125000 I-0.245656 J0.397444
G03 X33.550262 Y214.866526 Z-0.125000 I-0.589859 J0.336134
G03 X33.555864 Y215.095948 Z-0.125000 I-0.732415 J0.132664
G03 X33.493010 Y215.343637 Z-0.125000 I-1.074718 J-0.140902
G02 X33.464854 Y215.476941 Z-0.125000 I0.404084 J0.154975
G02 X33.464382 Y215.486769 Z-0.125000 I2.375963 J0.119124
G01 X33.464382 Y215.496308 Z-0.125000
G01 X33.472272 Y215.499247 Z-0.125000
G03 X33.502552 Y215.505819 Z-0.125000 I-0.784608 J3.688270
G02 X33.698617 Y215.522652 Z-0.125000 I0.157038 J-0.678861
G02 X34.647612 Y215.439025 Z-0.125000 I-0.837641 J-14.931999
G03 X36.935107 Y215.213618 Z-0.125000 I6.411106 J53.342016
G03 X43.178324 Y214.780615 Z-0.125000 I31.670644 J411.414771
G02 X46.232416 Y214.583750 Z-0.125000 I-34.657688 J-561.456056
G02 X48.216595 Y214.446636 Z-0.125000 I-35.023105 J-521.244010
G03 X52.465864 Y214.164297 Z-0.125000 I33.081026 J465.760933
G03 X53.684266 Y214.122202 Z-0.125000 I1.381412 J22.329468
G03 X54.286007 Y214.145090 Z-0.125000 I0.047172 J6.681156
G03 X54.533521 Y214.198540 Z-0.125000 I-0.081326 J0.976421
G03 X54.650977 Y214.257482 Z-0.125000 I-0.179343 J0.503888
G03 X54.733907 Y214.341675 Z-0.125000 I-0.161315 J0.241835
G03 X54.755233 Y214.406435 Z-0.125000 I-0.115137 J0.073806
G02 X54.762516 Y214.465723 Z-0.125000 I0.531993 J-0.035264
G03 X54.974052 Y214.270682 Z-0.125000 I0.471777 J0.299446
G03 X55.306420 Y214.141288 Z-0.125000 I0.735283 J1.397118
G03 X55.676562 Y214.076816 Z-0.125000 I0.560582 J2.123606
G03 X56.107965 Y214.074492 Z-0.125000 I0.229940 J2.641915
G03 X56.515046 Y214.120928 Z-0.125000 I-0.414274 J5.439273
G03 X56.766376 Y214.169914 Z-0.125000 I-0.466315 J3.061722
G03 X56.885431 Y214.199994 Z-0.125000 I-1.057552 J4.436369
G03 X56.976304 Y214.236710 Z-0.125000 I-0.103011 J0.385768
G03 X57.015295 Y214.262939 Z-0.125000 I-0.135575 J0.243641
G03 X57.071726 Y214.332130 Z-0.125000 I-0.134016 J0.166909
G03 X57.085498 Y214.381636 Z-0.125000 I-0.114917 J0.058637
G03 X57.081237 Y214.446636 Z-0.125000 I-0.239106 J0.016965
G01 X57.072121 Y214.462084 Z-0.125000
G01 X57.062159 Y214.475248 Z-0.125000
G02 X57.067982 Y214.495995 Z-0.125000 I0.299069 J-0.072746
G02 X57.100329 Y214.570670 Z-0.125000 I0.387772 J-0.123631
G02 X57.187366 Y214.697836 Z-0.125000 I0.750573 J-0.420349
G02 X57.357967 Y214.885562 Z-0.125000 I2.049310 J-1.690984
G03 X57.546170 Y215.101251 Z-0.125000 I-1.493426 J1.493073
G03 X57.691943 Y215.314960 Z-0.125000 I-2.020151 J1.534529
G03 X57.803242 Y215.528276 Z-0.125000 I-1.537096 J0.937682
G03 X57.844617 Y215.725275 Z-0.125000 I-0.448297 J0.196999
G03 X57.804292 Y215.913160 Z-0.125000 I-0.457873 J-0.000000
G03 X57.701485 Y216.049709 Z-0.125000 I-0.353144 J-0.158906
G03 X57.550265 Y216.128966 Z-0.125000 I-0.252522 J-0.297912
G03 X57.386593 Y216.145131 Z-0.125000 I-0.130691 J-0.486590
G03 X57.073017 Y216.047143 Z-0.125000 I0.045479 J-0.696283
G03 X56.775895 Y215.753900 Z-0.125000 I0.454996 J-0.758162
G01 X56.768865 Y215.760856 Z-0.125000
G02 X56.556422 Y215.677562 Z-0.125000 I-0.324493 J0.515061
G02 X56.295784 Y215.641829 Z-0.125000 I-0.495611 J2.646538
G02 X55.783506 Y215.610769 Z-0.125000 I-0.834995 J9.531687
G02 X54.776246 Y215.604979 Z-0.125000 I-0.606756 J17.938589
G02 X52.730008 Y215.677562 Z-0.125000 I1.738383 J77.887505
G02 X51.034780 Y215.771435 Z-0.125000 I6.129065 J126.036703
G02 X49.867355 Y215.849323 Z-0.125000 I7.933376 J127.698675
G02 X49.296792 Y215.894445 Z-0.125000 I2.661854 J37.288602
G02 X48.960846 Y215.925661 Z-0.125000 I2.399402 J27.645597
G03 X48.788909 Y215.942700 Z-0.125000 I-23.531376 J-236.574801
G02 X48.693666 Y215.954273 Z-0.125000 I0.209499 J2.121878
G03 X48.648333 Y215.960204 Z-0.125000 I-0.374284 J-2.684431
G02 X48.626869 Y215.963783 Z-0.125000 I0.030304 J0.247848
G03 X48.579952 Y215.978169 Z-0.125000 I-0.065407 J-0.129616
G02 X48.550534 Y215.982862 Z-0.125000 I0.062252 J0.484835
G02 X48.510507 Y215.991627 Z-0.125000 I0.220934 J1.104668
G03 X48.455112 Y216.001940 Z-0.125000 I-0.131343 J-0.551574
G03 X48.347211 Y216.014065 Z-0.125000 I-0.280305 J-2.008223
G02 X48.168845 Y216.030549 Z-0.125000 I1.083952 J12.702522
G03 X47.805085 Y216.065625 Z-0.125000 I-9.868395 J-100.438467
G03 X47.195543 Y216.116429 Z-0.125000 I-2.580586 J-27.279386
G03 X45.950494 Y216.198190 Z-0.125000 I-6.949630 J-96.307139
G03 X44.142045 Y216.297731 Z-0.125000 I-12.962858 J-219.030205
G02 X42.337409 Y216.402683 Z-0.125000 I6.325832 J124.340419
G02 X41.031293 Y216.498118 Z-0.125000 I5.635945 J86.118574
G02 X40.390939 Y216.552841 Z-0.125000 I5.505016 J68.192340
G02 X39.991197 Y216.593540 Z-0.125000 I1.566981 J17.374120
G03 X39.796005 Y216.615503 Z-0.125000 I-7.623060 J-66.870058
G02 X39.676304 Y216.631708 Z-0.125000 I0.278109 J2.504528
G02 X39.600603 Y216.645217 Z-0.125000 I0.334298 J2.092088
G02 X39.533173 Y216.660319 Z-0.125000 I0.261430 J1.325377
G03 X39.319948 Y216.707176 Z-0.125000 I-0.261450 J-0.681176
G03 X39.132400 Y216.679397 Z-0.125000 I-0.029614 J-0.447072
G03 X38.977349 Y216.561716 Z-0.125000 I0.119407 J-0.318309
G03 X38.912930 Y216.364505 Z-0.125000 I0.269884 J-0.197284
G03 X38.994922 Y216.138147 Z-0.125000 I0.353455 J0.000000
G03 X39.180110 Y215.973277 Z-0.125000 I0.644244 J0.537201
G03 X39.230679 Y215.953543 Z-0.125000 I0.071462 J0.108459
G02 X39.285074 Y215.935107 Z-0.125000 I-0.028088 J-0.172338
G03 X39.129252 Y215.944018 Z-0.125000 I-0.122527 J-0.775702
G02 X39.036978 Y215.963719 Z-0.125000 I-0.007998 J0.188487
G02 X38.946144 Y216.043999 Z-0.125000 I0.103470 J0.208600
G02 X38.912930 Y216.154563 Z-0.125000 I0.167418 J0.110564
G03 X38.882121 Y216.381824 Z-0.125000 I-0.852323 J0.000172
G03 X38.798424 Y216.564877 Z-0.125000 I-0.612064 J-0.169191
G03 X38.656930 Y216.705104 Z-0.125000 I-0.412978 J-0.275212
G03 X38.454906 Y216.765261 Z-0.125000 I-0.202024 J-0.309147
G03 X38.149171 Y216.624336 Z-0.125000 I-0.000000 J-0.402106
G03 X38.006421 Y216.297695 Z-0.125000 I0.466179 J-0.398245
G03 X37.916851 Y216.381879 Z-0.125000 I-0.420447 J-0.357604
G03 X37.796496 Y216.450368 Z-0.125000 I-0.331678 J-0.442857
G03 X37.634761 Y216.508062 Z-0.125000 I-0.668552 J-1.618641
G03 X37.386181 Y216.574419 Z-0.125000 I-1.137461 J-3.762231
G03 X36.883900 Y216.674062 Z-0.125000 I-1.784921 J-7.681717
G03 X35.973938 Y216.803431 Z-0.125000 I-3.375881 J-20.480368
G03 X34.143376 Y216.984344 Z-0.125000 I-5.299813 J-44.274311
G03 X30.525350 Y217.232830 Z-0.125000 I-15.154825 J-194.194982
G02 X28.546385 Y217.367850 Z-0.125000 I6.621880 J111.625479
G02 X25.029056 Y217.662228 Z-0.125000 I20.860426 J270.408123
G03 X22.058223 Y217.928043 Z-0.125000 I-171.107478 J-1895.615944
G03 X21.412568 Y217.958033 Z-0.125000 I-0.679328 J-7.659992
G03 X21.248278 Y217.953188 Z-0.125000 I0.000000 J-2.787485
G03 X21.145387 Y217.938955 Z-0.125000 I0.039043 J-0.661280
G03 X21.090477 Y217.922190 Z-0.125000 I0.088123 J-0.386927
G03 X21.030881 Y217.891246 Z-0.125000 I0.110053 J-0.284814
G03 X20.980730 Y217.846332 Z-0.125000 I0.130898 J-0.196618
G03 X20.945001 Y217.776740 Z-0.125000 I0.135486 J-0.113527
G03 X20.958405 Y217.640799 Z-0.125000 I0.192474 J-0.049652
G03 X20.992712 Y217.576353 Z-0.125000 I0.819427 J0.394856
G03 X21.031763 Y217.511980 Z-0.125000 I1.832555 J1.067656
G02 X21.069050 Y217.452305 Z-0.125000 I-6.530588 J-4.121995
G02 X21.087819 Y217.379342 Z-0.125000 I-0.107801 J-0.066626
G01 X21.088134 Y217.375967 Z-0.125000
G02 X20.950741 Y217.420929 Z-0.125000 I0.000000 J0.232399
G02 X20.830495 Y217.585895 Z-0.125000 I0.198807 J0.271222
G03 X20.724487 Y217.737173 Z-0.125000 I-0.306889 J-0.102272
G03 X20.572856 Y217.833991 Z-0.125000 I-0.549910 J-0.694088
G03 X20.395999 Y217.909805 Z-0.125000 I-0.702716 J-1.395082
G03 X20.153000 Y217.986668 Z-0.125000 I-1.159720 J-3.243884
G03 X19.635237 Y218.104469 Z-0.125000 I-1.546999 J-5.602656
G03 X18.998396 Y218.196596 Z-0.125000 I-1.658817 J-9.219648
G03 X18.359349 Y218.242625 Z-0.125000 I-0.933336 J-8.498802
G03 X17.872418 Y218.234764 Z-0.125000 I-0.165802 J-4.814133
G03 X17.639638 Y218.209410 Z-0.125000 I0.182872 J-2.760337
G03 X17.471647 Y218.167967 Z-0.125000 I0.142970 J-0.940739
G03 X17.393094 Y218.133681 Z-0.125000 I0.173871 J-0.505482
G03 X17.318972 Y218.082090 Z-0.125000 I0.183833 J-0.343158
G03 X17.260479 Y218.008591 Z-0.125000 I0.179045 J-0.202515
G03 X17.233092 Y217.900787 Z-0.125000 I0.198482 J-0.107804
G02 X17.202328 Y217.790405 Z-0.125000 I-0.213406 J-0.000000
G02 X17.099502 Y217.681317 Z-0.125000 I-0.304543 J0.184056
G02 X16.941743 Y217.602571 Z-0.125000 I-0.359521 J0.522858
G02 X16.622393 Y217.528641 Z-0.125000 I-0.543177 J1.619616
G02 X15.960042 Y217.516536 Z-0.125000 I-0.384476 J2.910397
G02 X14.838004 Y217.709943 Z-0.125000 I0.710660 J7.474244
G03 X14.095422 Y217.872410 Z-0.125000 I-2.966127 J-11.778898
G03 X13.692943 Y217.929413 Z-0.125000 I-0.857507 J-4.605170
G03 X13.491041 Y217.943531 Z-0.125000 I-0.369063 J-3.827338
G03 X13.358966 Y217.938952 Z-0.125000 I-0.036800 J-0.845689
G03 X13.296084 Y217.924580 Z-0.125000 I0.030559 J-0.278462
G03 X13.234918 Y217.900782 Z-0.125000 I0.353395 J-0.998780
G03 X13.175056 Y217.867663 Z-0.125000 I0.130263 J-0.306111
G03 X13.110870 Y217.786276 Z-0.125000 I0.101982 J-0.146432
G03 X13.101760 Y217.676713 Z-0.125000 I0.179060 J-0.070047
G03 X13.129953 Y217.604976 Z-0.125000 I0.226267 J0.047516
G03 X13.170914 Y217.551059 Z-0.125000 I0.269723 J0.162390
G03 X13.215833 Y217.509554 Z-0.125000 I0.329625 J0.311678
G03 X13.324635 Y217.437286 Z-0.125000 I0.444207 J0.550736
G03 X13.502098 Y217.347336 Z-0.125000 I1.906356 J3.540997
G03 X13.864270 Y217.194560 Z-0.125000 I1.879585 J3.950080
G03 X14.580365 Y216.956108 Z-0.125000 I3.991506 J10.792425
G02 X15.975458 Y216.267606 Z-0.125000 I-1.310766 J-4.413643
G02 X18.196852 Y214.322464 Z-0.125000 I-9.549509 J-13.146752
G02 X19.081552 Y213.370084 Z-0.125000 I-39.042029 J-37.154664
G02 X19.647264 Y212.728921 Z-0.125000 I-23.370179 J-21.190162
G02 X19.883695 Y212.450119 Z-0.125000 I-22.536396 J-19.351041
G02 X20.019409 Y212.280439 Z-0.125000 I-3.692450 J-3.092427
G03 X19.950077 Y212.304059 Z-0.125000 I-3.841580 J-11.162549
G02 X19.838107 Y212.347233 Z-0.125000 I0.448474 J1.329898
G02 X19.347458 Y212.577545 Z-0.125000 I3.997016 J9.152863
G02 X17.853333 Y213.339619 Z-0.125000 I66.790553 J132.795579
G03 X17.296001 Y213.617955 Z-0.125000 I-10.084403 J-19.495595
G03 X16.860947 Y213.816730 Z-0.125000 I-5.087184 J-10.558714
G03 X16.647844 Y213.904288 Z-0.125000 I-2.484759 J-5.744384
G03 X16.498343 Y213.959862 Z-0.125000 I-1.862604 J-4.781793
G03 X16.376975 Y213.999698 Z-0.125000 I-0.918235 J-2.592787
G03 X16.278873 Y214.017116 Z-0.125000 I-0.122391 J-0.404347
G02 X16.265127 Y214.020813 Z-0.125000 I0.026576 J0.126237
G02 X16.231163 Y214.036194 Z-0.125000 I0.054387 J0.165281
G02 X16.177151 Y214.070923 Z-0.125000 I0.422320 J0.716187
G02 X16.078488 Y214.141158 Z-0.125000 I4.031405 J5.767491
G02 X15.879953 Y214.293434 Z-0.125000 I2.735911 J3.772618
G02 X15.553668 Y214.561015 Z-0.125000 I23.183225 J28.602062
G02 X14.904223 Y215.116047 Z-0.125000 I18.864591 J22.730975
G02 X13.998292 Y215.935087 Z-0.125000 I30.029973 J34.126357
G02 X12.766021 Y217.120834 Z-0.125000 I33.063792 J35.594280
G02 X12.433374 Y217.509548 Z-0.125000 I2.282348 J2.289832
G02 X12.320455 Y217.726306 Z-0.125000 I0.668290 J0.485936
G01 X12.318868 Y217.729019 Z-0.125000
G02 X12.334664 Y217.739107 Z-0.125000 I0.131855 J-0.189046
G02 X12.404748 Y217.767186 Z-0.125000 I0.130111 J-0.223243
G03 X12.576008 Y217.814187 Z-0.125000 I-0.601101 J2.525806
G03 X12.710097 Y217.891234 Z-0.125000 I-0.105651 J0.339076
G03 X12.764321 Y217.963328 Z-0.125000 I-0.165999 J0.181293
G03 X12.786435 Y218.072537 Z-0.125000 I-0.193761 J0.096077
G03 X12.756569 Y218.171032 Z-0.125000 I-0.221451 J-0.013372
G03 X12.710097 Y218.234755 Z-0.125000 I-0.335718 J-0.196027
G03 X12.597562 Y218.330743 Z-0.125000 I-0.416046 J-0.373804
G03 X12.404748 Y218.444681 Z-0.125000 I-1.524059 J-2.359032
G03 X12.190026 Y218.552851 Z-0.125000 I-2.102898 J-3.907123
G03 X11.841759 Y218.711863 Z-0.125000 I-7.241807 J-15.400035
G03 X11.050861 Y219.026608 Z-0.125000 I-4.493388 J-10.140020
G03 X10.658528 Y219.122178 Z-0.125000 I-0.665699 J-1.879741
G03 X10.463856 Y219.126615 Z-0.125000 I-0.116582 J-0.842156
G03 X10.295925 Y219.064923 Z-0.125000 I0.031950 J-0.346382
G03 X10.222587 Y218.993517 Z-0.125000 I0.185621 J-0.264010
G03 X10.181419 Y218.902707 Z-0.125000 I0.188471 J-0.140177
G03 X10.175590 Y218.809018 Z-0.125000 I0.309784 J-0.066302
G03 X10.190961 Y218.721405 Z-0.125000 I0.509239 J0.044191
G03 X10.335937 Y218.412805 Z-0.125000 I0.932508 J0.249725
G03 X10.792119 Y217.833983 Z-0.125000 I5.926605 J4.201699
G03 X11.317603 Y217.267721 Z-0.125000 I9.739780 J8.511450
G03 X12.242530 Y216.354943 Z-0.125000 I32.878607 J32.391246
G03 X14.829265 Y214.183491 Z-0.125000 I17.634360 J18.380426
G03 X17.089959 Y212.805251 Z-0.125000 I9.265306 J12.654452
G03 X18.104799 Y212.313644 Z-0.125000 I21.281533 J42.638876
G03 X18.769383 Y212.013251 Z-0.125000 I10.510775 J22.368465
G03 X19.095585 Y211.875065 Z-0.125000 I7.813457 J17.990425
G03 X19.284660 Y211.803323 Z-0.125000 I1.330618 J3.221775
G03 X19.378620 Y211.772487 Z-0.125000 I1.038864 J3.006944
G03 X19.446877 Y211.755613 Z-0.125000 I0.176443 J0.567249
G03 X19.478949 Y211.752482 Z-0.125000 I0.034815 J0.190819
G03 X19.532757 Y211.755613 Z-0.125000 I0.005280 J0.373235
G03 X19.551750 Y211.762102 Z-0.125000 I-0.026298 J0.108016
G02 X19.580468 Y211.774691 Z-0.125000 I0.989312 J-2.217699
G03 X19.603647 Y211.767221 Z-0.125000 I9.012445 J27.925455
G02 X19.656806 Y211.746080 Z-0.125000 I-0.130533 J-0.405613
G02 X19.824555 Y211.656761 Z-0.125000 I-0.878917 J-1.852876
G02 X20.114830 Y211.469358 Z-0.125000 I-2.342143 J-3.946342
G03 X20.794791 Y211.100064 Z-0.125000 I1.960547 J2.799215
G03 X21.345772 Y210.982705 Z-0.125000 I0.608881 J1.506531
G03 X21.890749 Y211.085850 Z-0.125000 I0.044589 J1.255704
G03 X22.338159 Y211.421645 Z-0.125000 I-0.479905 J1.105381
G02 X22.402532 Y211.472367 Z-0.125000 I0.150594 J-0.124916
G02 X22.605339 Y211.536151 Z-0.125000 I0.310116 J-0.631726
G02 X22.846133 Y211.556295 Z-0.125000 I0.263742 J-1.703448
G02 X23.387799 Y211.536151 Z-0.125000 I0.071499 J-5.370143
G02 X24.438273 Y211.404565 Z-0.125000 I-1.252295 J-14.256086
G02 X27.233299 Y210.925454 Z-0.125000 I-27.981118 J-171.627792
G03 X31.929692 Y210.092338 Z-0.125000 I180.295691 J1002.698973
G03 X32.815474 Y209.942606 Z-0.125000 I13.414209 J76.660838
G02 X33.186873 Y209.875434 Z-0.125000 I-1.752423 J-10.749575
G03 X33.473884 Y209.818558 Z-0.125000 I45.641624 J229.568219
G03 X33.617900 Y209.790655 Z-0.125000 I2.928721 J14.730250
G02 X33.712438 Y209.770849 Z-0.125000 I-0.447259 J-2.370347
G01 X33.817402 Y209.742237 Z-0.125000
G03 X34.013639 Y209.681961 Z-0.125000 I0.480931 J1.216158
G03 X34.304052 Y209.627731 Z-0.125000 I0.923163 J4.139017
G02 X34.587945 Y209.582926 Z-0.125000 I-3.607663 J-23.780695
G02 X37.109454 Y209.160165 Z-0.125000 I-57.288603 J-349.422110
G02 X38.143477 Y208.974309 Z-0.125000 I-10.920772 J-63.727870
G02 X38.702999 Y208.845273 Z-0.125000 I-1.304969 J-6.936158
G02 X39.199675 Y208.650646 Z-0.125000 I-0.665396 J-2.429114
G02 X39.456832 Y208.444500 Z-0.125000 I-0.390092 J-0.750086
G02 X39.722623 Y207.868305 Z-0.125000 I-0.921651 J-0.774546
G02 X40.019820 Y205.677269 Z-0.125000 I-35.533441 J-5.935509
G02 X40.098796 Y204.522318 Z-0.125000 I-16.054265 J-1.677973
G02 X40.048431 Y204.083724 Z-0.125000 I-1.508921 J-0.048918
G02 X39.865372 Y203.708975 Z-0.125000 I-1.049496 J0.280578
G02 X39.351851 Y203.119963 Z-0.125000 I-4.488382 J3.394773
G02 X38.188606 Y202.036304 Z-0.125000 I-16.394755 J16.432646
G02 X36.966305 Y201.020684 Z-0.125000 I-23.240871 J26.727104
G02 X36.370071 Y200.563081 Z-0.125000 I-14.341194 J18.068644
G02 X36.012089 Y200.314561 Z-0.125000 I-4.126354 J5.561737
G02 X35.868412 Y200.229273 Z-0.125000 I-1.138356 J1.754025
G02 X35.792619 Y200.190513 Z-0.125000 I-0.879536 J1.626396
G01 X35.792677 Y200.195454 Z-0.125000
G01 X35.792619 Y200.200052 Z-0.125000
G03 X35.692238 Y200.265082 Z-0.125000 I-0.155288 J-0.129716
G03 X35.592233 Y200.266846 Z-0.125000 I-0.053356 J-0.189244
G03 X35.451708 Y200.189485 Z-0.125000 I0.072790 J-0.298534
G03 X35.344134 Y200.066460 Z-0.125000 I0.668237 J-0.692852
G02 X35.308420 Y200.022341 Z-0.125000 I-0.523182 J0.386997
G02 X35.067412 Y199.770654 Z-0.125000 I-3.296757 J2.915643
G02 X34.829939 Y199.547939 Z-0.125000 I-7.998118 J8.290172
G03 X34.456712 Y199.207666 Z-0.125000 I4376.525392 J-4800.743910
G02 X33.692986 Y198.518855 Z-0.125000 I-64.729905 J71.002059
G02 X32.624615 Y197.575950 Z-0.125000 I-87.527704 J98.097734
G02 X30.267010 Y195.550457 Z-0.125000 I-129.490479 J148.337695
G02 X28.740947 Y194.302982 Z-0.125000 I-38.356553 J45.365242
G03 X25.250829 Y191.445459 Z-0.125000 I80.458176 J-101.830038
G03 X20.687346 Y187.470780 Z-0.125000 I149.430325 J-176.173861
G02 X19.855051 Y186.736177 Z-0.125000 I-56.956322 J63.691956
G02 X19.208308 Y186.182585 Z-0.125000 I-32.190749 J36.952787
G02 X18.888388 Y185.916618 Z-0.125000 I-23.679819 J28.157999
G02 X18.673945 Y185.743645 Z-0.125000 I-9.556963 J11.628766
G02 X18.443227 Y185.564211 Z-0.125000 I-10.555817 J13.334744
G02 X18.397222 Y185.533717 Z-0.125000 I-0.250017 J0.327239
G03 X18.331697 Y185.490418 Z-0.125000 I0.292406 J-0.513737
G03 X18.244547 Y185.419211 Z-0.125000 I0.983399 J-1.292503
G03 X18.148236 Y185.332959 Z-0.125000 I3.917751 J-4.471563
G03 X18.005993 Y185.199741 Z-0.125000 I5.761934 J-6.294839
G03 X17.731538 Y184.930783 Z-0.125000 I12.035256 J-12.555764
G03 X17.309413 Y184.503163 Z-0.125000 I38.404316 J-38.332859
G03 X16.459745 Y183.620532 Z-0.125000 I62.705846 J-61.214376
G03 X15.315097 Y182.394339 Z-0.125000 I72.711591 J-69.023392
G01 X12.662371 Y179.493518 Z-0.125000
G01 X12.595576 Y179.426721 Z-0.125000
G01 X12.624202 Y179.350383 Z-0.125000
G01 X13.072685 Y177.842721 Z-0.125000
G03 X13.571553 Y176.362061 Z-0.125000 I20.643039 J6.130739
G03 X14.017361 Y175.361753 Z-0.125000 I8.838899 J3.339745
G02 X14.219699 Y174.956878 Z-0.125000 I-14.579658 J-7.539229
G02 X14.351337 Y174.674714 Z-0.125000 I-10.666690 J-5.148151
G02 X14.414259 Y174.534430 Z-0.125000 I-45.775860 J-20.616049
G02 X14.446759 Y174.455244 Z-0.125000 I-1.275840 J-0.569906
G02 X14.461260 Y174.413168 Z-0.125000 I-0.851772 J-0.317079
G02 X14.465843 Y174.397993 Z-0.125000 I-0.536559 J-0.170333
G02 X14.464332 Y174.373052 Z-0.125000 I-0.206644 J0.000000
G03 X14.465843 Y174.350280 Z-0.125000 I0.060857 J-0.007399
G03 X14.473509 Y174.311066 Z-0.125000 I0.363936 J0.050795
G02 X14.484927 Y174.264403 Z-0.125000 I-3.103527 J-0.784084
G03 X14.509715 Y174.172638 Z-0.125000 I1.717641 J0.414760
G03 X14.551722 Y174.035388 Z-0.125000 I10.963989 J3.280573
G03 X14.645504 Y173.753023 Z-0.125000 I8.143963 J2.548118
G03 X14.790276 Y173.348352 Z-0.125000 I37.128085 J13.054417
G03 X15.116115 Y172.490132 Z-0.125000 I31.215060 J11.360403
G03 X15.400976 Y171.821603 Z-0.125000 I12.933179 J5.115883
G02 X15.671634 Y171.214246 Z-0.125000 I-30.909954 J-14.138438
G02 X16.269314 Y169.817746 Z-0.125000 I-138.310792 J-60.021099
G03 X16.683835 Y168.916166 Z-0.125000 I14.469950 J6.106777
G03 X16.975436 Y168.567719 Z-0.125000 I0.875829 J0.436708
G03 X17.197518 Y168.458275 Z-0.125000 I0.408745 J0.549373
G03 X17.462087 Y168.415045 Z-0.125000 I0.320851 J1.132425
G03 X17.729162 Y168.421312 Z-0.125000 I0.089885 J1.863572
G03 X18.120498 Y168.462755 Z-0.125000 I-1.797611 J18.842647
G02 X18.819359 Y168.502555 Z-0.125000 I0.684548 J-5.864587
G02 X18.960210 Y168.472294 Z-0.125000 I-0.000841 J-0.346845
G02 X19.005650 Y168.438738 Z-0.125000 I-0.053762 J-0.120347
G02 X19.036547 Y168.386414 Z-0.125000 I-0.124070 J-0.108547
G02 X19.054621 Y168.309154 Z-0.125000 I-0.314631 J-0.114347
G02 X19.065174 Y168.119231 Z-0.125000 I-1.703771 J-0.189923
G03 X19.090060 Y167.826568 Z-0.125000 I1.733299 J-0.000000
G03 X19.160596 Y167.565785 Z-0.125000 I1.411035 J0.241721
G03 X19.275069 Y167.335239 Z-0.125000 I1.179234 J0.441832
G03 X19.437319 Y167.174557 Z-0.125000 I0.428938 J0.270867
G02 X19.599718 Y167.024612 Z-0.125000 I-0.304713 J-0.492939
G02 X19.666331 Y166.850123 Z-0.125000 I-0.283554 J-0.208209
G02 X19.649074 Y166.636024 Z-0.125000 I-0.609844 J-0.058589
G02 X19.456403 Y166.105832 Z-0.125000 I-2.972160 J0.779974
G02 X18.906739 Y165.126930 Z-0.125000 I-7.135093 J3.362657
G02 X17.042231 Y162.403466 Z-0.125000 I-78.920063 J52.029437
G02 X15.864185 Y160.786923 Z-0.125000 I-68.024999 J48.335295
G02 X14.637602 Y159.187750 Z-0.125000 I-64.289309 J48.040621
G03 X13.430740 Y157.589126 Z-0.125000 I39.016315 J-30.709760
G03 X12.824587 Y156.687699 Z-0.125000 I12.757641 J-9.233220
G02 X12.228484 Y155.805357 Z-0.125000 I-12.333746 J7.690041
G02 X11.727236 Y155.180034 Z-0.125000 I-7.207813 J5.264101
G03 X11.543929 Y154.957307 Z-0.125000 I3.405125 J-2.989255
G03 X11.421886 Y154.760177 Z-0.125000 I0.897832 J-0.692190
G03 X11.349606 Y154.536448 Z-0.125000 I0.760980 J-0.369389
G03 X11.345549 Y154.263986 Z-0.125000 I0.852091 J-0.148952
G03 X11.487143 Y153.770714 Z-0.125000 I1.869619 J0.269718
G03 X12.070755 Y152.498680 Z-0.125000 I44.595407 J19.690564
G02 X12.447922 Y151.687949 Z-0.125000 I-44.478845 J-21.185531
G02 X12.710081 Y151.095979 Z-0.125000 I-31.139255 J-14.144282
G02 X12.836142 Y150.802216 Z-0.125000 I-73.077179 J-31.533232
G02 X12.910466 Y150.618871 Z-0.125000 I-4.994814 J-2.131536
G02 X12.941540 Y150.522892 Z-0.125000 I-0.876563 J-0.336805
G03 X12.958178 Y150.466197 Z-0.125000 I1.094405 J0.290382
G03 X12.973911 Y150.417842 Z-0.125000 I7.925357 J2.551981
G01 X12.977261 Y150.418485 Z-0.125000
G03 X12.998525 Y150.309626 Z-0.125000 I0.423164 J0.026151
G03 X13.044057 Y150.189473 Z-0.125000 I1.596971 J0.536465
G03 X13.107405 Y150.048445 Z-0.125000 I3.112897 J1.313529
G03 X13.206274 Y149.845955 Z-0.125000 I11.102858 J5.295780
G03 X13.421637 Y149.433516 Z-0.125000 I11.482879 J5.733571
G03 X13.721551 Y148.901278 Z-0.125000 I19.442087 J10.604933
G02 X14.071703 Y148.216785 Z-0.125000 I-6.137272 J-3.571321
G02 X14.198660 Y147.832553 Z-0.125000 I-1.859926 J-0.827646
G02 X14.224746 Y147.448393 Z-0.125000 I-1.243670 J-0.277415
G02 X14.141407 Y147.078721 Z-0.125000 I-1.373887 J0.115499
G03 X13.986088 Y146.323354 Z-0.125000 I2.312532 J-0.869158
G03 X14.055528 Y145.714190 Z-0.125000 I1.927152 J-0.088860
G03 X14.166329 Y145.433377 Z-0.125000 I1.417290 J0.396957
G03 X14.322709 Y145.217996 Z-0.125000 I0.793394 J0.411591
G03 X14.539736 Y145.066399 Z-0.125000 I0.516699 J0.508565
G03 X14.809360 Y145.008067 Z-0.125000 I0.269624 J0.593968
G02 X14.893463 Y144.986830 Z-0.125000 I0.000000 J-0.177148
G02 X14.990662 Y144.903103 Z-0.125000 I-0.141838 J-0.262943
G02 X15.060818 Y144.774097 Z-0.125000 I-0.405656 J-0.304183
G02 X15.095626 Y144.578669 Z-0.125000 I-0.530457 J-0.195294
G03 X15.181280 Y144.162884 Z-0.125000 I1.051982 J0.000000
G03 X15.496397 Y143.548115 Z-0.125000 I4.716001 J2.029174
G03 X15.890292 Y142.953604 Z-0.125000 I6.915401 J4.154072
G03 X16.412447 Y142.288546 Z-0.125000 I9.432547 J6.868234
G03 X16.978334 Y141.664135 Z-0.125000 I9.338540 J7.894645
G03 X17.509797 Y141.162570 Z-0.125000 I6.014138 J5.840283
G03 X18.082271 Y140.724170 Z-0.125000 I3.976489 J4.599637
G03 X18.492642 Y140.542327 Z-0.125000 I0.713237 J1.055610
G02 X18.835479 Y140.442691 Z-0.125000 I-0.989459 J-4.044264
G02 X19.112884 Y140.332399 Z-0.125000 I-0.906689 J-2.684501
G02 X19.400725 Y140.150504 Z-0.125000 I-0.538694 J-1.171157
G01 X19.408692 Y140.141554 Z-0.125000
G03 X19.510987 Y140.047219 Z-0.125000 I0.242333 J0.160149
G03 X19.628162 Y139.988881 Z-0.125000 I0.767714 J1.395142
G03 X19.755352 Y139.939279 Z-0.125000 I0.569363 J1.272109
G03 X19.933512 Y139.883917 Z-0.125000 I1.373143 J4.104498
G03 X20.317627 Y139.787691 Z-0.125000 I1.594926 J5.551883
G03 X20.859103 Y139.683530 Z-0.125000 I2.734476 J12.755599
G03 X22.007013 Y139.529192 Z-0.125000 I2.762935 J16.203643
G03 X23.034721 Y139.483144 Z-0.125000 I0.942718 J9.548430
G03 X23.476101 Y139.527410 Z-0.125000 I-0.021338 J2.435436
G03 X24.246578 Y139.702614 Z-0.125000 I-2.313723 J11.956525
G03 X25.011894 Y139.922967 Z-0.125000 I-4.150513 J15.854481
G03 X25.840123 Y140.198809 Z-0.125000 I-7.768527 J24.706749
G03 X26.656399 Y140.500396 Z-0.125000 I-9.292946 J26.407710
G03 X27.242824 Y140.752255 Z-0.125000 I-3.183415 J8.220873
G03 X27.520568 Y140.897838 Z-0.125000 I-1.640382 J3.467268
G03 X27.700848 Y141.009893 Z-0.125000 I-1.636115 J2.833318
G03 X27.787232 Y141.068437 Z-0.125000 I-4.049431 J6.068118
G03 X27.853522 Y141.124402 Z-0.125000 I-0.250368 J0.363800
G03 X27.903473 Y141.187377 Z-0.125000 I-0.286558 J0.278593
G03 X27.939402 Y141.296159 Z-0.125000 I-0.194306 J0.124501
G02 X27.976142 Y141.610504 Z-0.125000 I3.192311 J-0.213797
G02 X28.092076 Y142.231294 Z-0.125000 I16.572202 J-2.773655
G03 X28.111417 Y142.566366 Z-0.125000 I-1.131858 J0.233428
G03 X28.034824 Y143.166426 Z-0.125000 I-7.749397 J-0.684228
G03 X27.913050 Y143.771436 Z-0.125000 I-9.310015 J-1.559118
G03 X27.729474 Y144.435537 Z-0.125000 I-8.739721 J-2.058486
G02 X27.471549 Y145.899683 Z-0.125000 I5.315652 J1.691200
G02 X27.624510 Y146.992843 Z-0.125000 I3.084643 J0.125661
G02 X27.764214 Y147.390654 Z-0.125000 I10.547137 J-3.480530
G02 X27.863064 Y147.613083 Z-0.125000 I1.855893 J-0.691600
G02 X27.986700 Y147.805041 Z-0.125000 I1.095447 J-0.569760
G02 X28.120704 Y147.927975 Z-0.125000 I0.439211 J-0.344259
G02 X28.453602 Y148.063815 Z-0.125000 I0.517143 J-0.791515
G02 X29.561573 Y148.242868 Z-0.125000 I3.046268 J-15.332633
G03 X31.184111 Y148.648954 Z-0.125000 I-0.858956 J6.876517
G03 X31.975744 Y149.187544 Z-0.125000 I-0.748098 J1.950646
G03 X33.521849 Y150.908523 Z-0.125000 I-83.344172 J76.430285
G03 X34.828858 Y152.422344 Z-0.125000 I-79.183108 J69.686604
G03 X36.109803 Y153.981010 Z-0.125000 I-51.851593 J43.918410
G03 X36.546452 Y154.588420 Z-0.125000 I-5.877466 J4.685791
G02 X36.804517 Y154.915851 Z-0.125000 I1.868074 J-1.206909
G02 X37.090356 Y155.170492 Z-0.125000 I1.697451 J-1.617674
G02 X37.421777 Y155.359317 Z-0.125000 I0.898950 J-1.192549
G02 X37.577006 Y155.389962 Z-0.125000 I0.155229 J-0.377829
G03 X37.891868 Y155.451141 Z-0.125000 I0.000000 J0.840826
G03 X38.273587 Y155.638058 Z-0.125000 I-1.113495 J2.757183
G03 X38.641453 Y155.877027 Z-0.125000 I-2.242421 J3.854592
G03 X39.008332 Y156.172420 Z-0.125000 I-2.623478 J3.633893
G03 X39.342551 Y156.502062 Z-0.125000 I-3.270121 J3.649776
G03 X39.571321 Y156.792663 Z-0.125000 I-1.757369 J1.618799
G03 X39.660387 Y156.947596 Z-0.125000 I-1.093470 J0.731667
G03 X39.714455 Y157.088471 Z-0.125000 I-0.777773 J0.379327
G03 X39.734321 Y157.209794 Z-0.125000 I-0.509196 J0.145665
G03 X39.714455 Y157.336567 Z-0.125000 I-0.320371 J0.014740
G02 X39.725899 Y157.354824 Z-0.125000 I0.643922 J-0.390902
G02 X39.762165 Y157.403363 Z-0.125000 I0.377299 J-0.244080
G02 X39.866614 Y157.509917 Z-0.125000 I0.877316 J-0.755517
G02 X40.086599 Y157.699169 Z-0.125000 I4.736130 J-5.282770
G02 X40.552272 Y158.057769 Z-0.125000 I5.539986 J-6.712488
G02 X41.298456 Y158.557966 Z-0.125000 I8.208314 J-11.438337
G02 X42.080996 Y159.013386 Z-0.125000 I7.590633 J-12.142833
G02 X42.567567 Y159.254547 Z-0.125000 I3.658329 J-6.769673
G02 X42.751220 Y159.333347 Z-0.125000 I2.108900 J-4.661613
G02 X42.853833 Y159.369053 Z-0.125000 I0.401575 J-0.988772
G03 X42.850031 Y159.332040 Z-0.125000 I0.289477 J-0.048441
G02 X42.844294 Y159.283172 Z-0.125000 I-0.315842 J0.012307
G02 X42.802166 Y159.088843 Z-0.125000 I-9.179170 J1.888206
G02 X42.729788 Y158.777436 Z-0.125000 I-36.478029 J8.314157
G02 X42.574990 Y158.140675 Z-0.125000 I-53.728150 J12.724266
G02 X42.338558 Y157.212519 Z-0.125000 I-92.606231 J23.095705
G02 X41.814554 Y155.254790 Z-0.125000 I-138.697807 J36.074734
G02 X41.336629 Y153.586489 Z-0.125000 I-80.426444 J22.137451
G03 X41.140259 Y152.569663 Z-0.125000 I5.037436 J-1.500207
G03 X41.050365 Y150.618871 Z-0.125000 I21.122200 J-1.950792
G03 X41.321804 Y148.671838 Z-0.125000 I7.118779 J-0.000000
G03 X42.157258 Y146.744744 Z-0.125000 I7.672804 J2.181753
G03 X43.290694 Y144.993389 Z-0.125000 I26.912075 J16.174411
G03 X43.903477 Y144.235151 Z-0.125000 I5.556412 J3.863778
G02 X44.174041 Y143.854977 Z-0.125000 I-1.282069 J-1.198793
G02 X44.380585 Y143.309561 Z-0.125000 I-2.098993 J-1.106685
G02 X44.482723 Y142.696562 Z-0.125000 I-4.100490 J-0.998233
G02 X44.561887 Y141.429749 Z-0.125000 I-21.795998 J-1.997932
G03 X44.665652 Y139.202771 Z-0.125000 I85.058499 J2.847353
G03 X44.819525 Y137.059431 Z-0.125000 I89.309696 J5.334453
G01 X44.867238 Y136.525069 Z-0.125000
G01 X44.657309 Y137.269359 Z-0.125000
G03 X43.633606 Y140.811591 Z-0.125000 I-186.456479 J-51.966812
G03 X43.216438 Y141.992740 Z-0.125000 I-12.337512 J-3.693217
G03 X42.942594 Y142.556519 Z-0.125000 I-4.532790 J-1.853313
G03 X42.739330 Y142.832450 Z-0.125000 I-1.258511 J-0.714246
G03 X42.458207 Y143.036564 Z-0.125000 I-0.673516 J-0.631976
G03 X42.185884 Y143.118717 Z-0.125000 I-0.415873 J-0.886117
G03 X41.884346 Y143.134543 Z-0.125000 I-0.234011 J-1.578113
G03 X41.651521 Y143.090105 Z-0.125000 I0.034420 J-0.812481
G03 X41.543518 Y143.039264 Z-0.125000 I0.187416 J-0.538275
G03 X41.451135 Y142.966057 Z-0.125000 I0.244550 J-0.403502
G03 X41.383049 Y142.865851 Z-0.125000 I0.242994 J-0.238339
G03 X41.355713 Y142.737045 Z-0.125000 I0.290331 J-0.128920
G03 X41.409269 Y142.539826 Z-0.125000 I0.390218 J0.000085
G03 X41.537015 Y142.393527 Z-0.125000 I0.449008 J0.263145
G03 X41.707466 Y142.297987 Z-0.125000 I0.392116 J0.499747
G03 X41.918704 Y142.259934 Z-0.125000 I0.211238 J0.567284
G02 X41.984036 Y142.240734 Z-0.125000 I-0.000000 J-0.120753
G02 X42.119087 Y142.107260 Z-0.125000 I-0.248921 J-0.386924
G02 X42.244098 Y141.876111 Z-0.125000 I-1.241061 J-0.820570
G02 X42.519860 Y141.162584 Z-0.125000 I-9.113441 J-3.932191
G02 X42.970263 Y139.730879 Z-0.125000 I-27.914881 J-9.568509
G02 X44.266079 Y135.112843 Z-0.125000 I-397.956909 J-114.157058
G02 X44.970978 Y132.423454 Z-0.125000 I-117.252978 J-32.169519
G02 X45.134417 Y131.563150 Z-0.125000 I-7.435159 J-1.858201
G02 X45.096544 Y130.856686 Z-0.125000 I-1.914992 J-0.251584
G02 X44.914947 Y130.437171 Z-0.125000 I-1.307108 J0.316750
G03 X44.569065 Y129.721625 Z-0.125000 I2.567817 J-1.682609
G03 X44.447381 Y128.872255 Z-0.125000 I2.297517 J-0.762551
G03 X44.558883 Y127.973370 Z-0.125000 I5.192734 J0.187772
G03 X45.048537 Y125.952347 Z-0.125000 I37.638920 J8.049344
G03 X45.688682 Y123.592792 Z-0.125000 I6417.224077 J1739.720783
G02 X46.098178 Y122.068678 Z-0.125000 I-289.882041 J-78.701972
G03 X47.066811 Y118.455037 Z-0.125000 I876.178866 J232.922246
G03 X47.472253 Y116.982695 Z-0.125000 I154.975501 J41.883957
G03 X47.685381 Y116.239965 Z-0.125000 I62.251281 J17.461214
G03 X47.796687 Y115.875803 Z-0.125000 I16.295102 J4.781495
G03 X47.907587 Y115.544962 Z-0.125000 I10.664322 J3.390734
G03 X47.968445 Y115.417778 Z-0.125000 I0.620928 J0.218965
G02 X47.970027 Y115.400712 Z-0.125000 I-0.138923 J-0.021483
G02 X47.968445 Y115.341440 Z-0.125000 I-0.510261 J-0.016039
G02 X47.956240 Y115.247943 Z-0.125000 I-1.044310 J0.088779
G02 X47.920735 Y115.093344 Z-0.125000 I-1.533952 J0.270905
G02 X47.815565 Y114.793162 Z-0.125000 I-2.493183 J0.704984
G02 X47.634469 Y114.406308 Z-0.125000 I-4.995709 J2.102804
G03 X47.343277 Y113.775140 Z-0.125000 I6.857746 J-3.546609
G03 X47.281409 Y113.499799 Z-0.125000 I0.789763 J-0.322077
G03 X47.286641 Y113.426487 Z-0.125000 I0.279671 J-0.016883
G03 X47.319577 Y113.337583 Z-0.125000 I0.306658 J0.063054
G03 X47.389856 Y113.262406 Z-0.125000 I0.185215 J0.102707
G03 X47.481795 Y113.232619 Z-0.125000 I0.101878 J0.157676
G03 X47.639332 Y113.266383 Z-0.125000 I0.016379 J0.307987
G03 X47.768059 Y113.347125 Z-0.125000 I-0.410413 J0.797296
G03 X48.264517 Y113.823613 Z-0.125000 I-1.728515 J2.297838
G03 X49.409316 Y115.379611 Z-0.125000 I-14.471643 J11.846402
G02 X50.784808 Y117.424785 Z-0.125000 I109.499527 J-72.159247
G02 X52.167006 Y119.387327 Z-0.125000 I81.555642 J-55.970805
G03 X52.849973 Y120.386968 Z-0.125000 I-18.596898 J13.438768
G03 X53.168934 Y120.952244 Z-0.125000 I-4.604274 J2.970620
G03 X53.294817 Y121.243553 Z-0.125000 I-3.070940 J1.499891
G03 X53.350237 Y121.448438 Z-0.125000 I-1.022044 J0.386391
G03 X53.348385 Y121.661904 Z-0.125000 I-0.604605 J0.101496
G03 X53.254814 Y121.839666 Z-0.125000 I-0.333244 J-0.061905
G02 X53.236730 Y121.867319 Z-0.125000 I0.056737 J0.056844
G02 X53.149850 Y122.211813 Z-0.125000 I1.328018 J0.518123
G02 X53.126425 Y122.549931 Z-0.125000 I3.211729 J0.392380
G02 X53.130772 Y123.118319 Z-0.125000 I11.638514 J0.195206
G02 X53.204934 Y124.257885 Z-0.125000 I17.161700 J-0.544677
G02 X53.436122 Y126.114565 Z-0.125000 I36.326907 J-3.580581
G02 X53.561233 Y126.619747 Z-0.125000 I2.761848 J-0.415902
G02 X53.655592 Y126.792059 Z-0.125000 I0.564823 J-0.197308
G02 X53.784985 Y126.885561 Z-0.125000 I0.227809 J-0.178973
G02 X54.008652 Y126.916107 Z-0.125000 I0.183180 J-0.507150
G02 X54.180531 Y126.885580 Z-0.125000 I-0.065260 J-0.866550
G02 X54.237665 Y126.858853 Z-0.125000 I-0.053633 J-0.189083
G02 X54.277216 Y126.817808 Z-0.125000 I-0.078994 J-0.115698
G02 X54.333087 Y126.677553 Z-0.125000 I-0.351170 J-0.221145
G02 X54.359613 Y126.339035 Z-0.125000 I-1.413362 J-0.281050
G02 X54.275832 Y125.036299 Z-0.125000 I-26.805868 J1.069860
G02 X54.182988 Y124.192010 Z-0.125000 I-20.109079 J1.784101
G02 X54.075449 Y123.490463 Z-0.125000 I-16.337189 J2.145283
G02 X53.909230 Y122.746085 Z-0.125000 I-8.160673 J1.431517
G02 X53.846437 Y122.583957 Z-0.125000 I-0.809709 J0.220383
G03 X53.696087 Y122.277176 Z-0.125000 I8.630738 J-4.420055
G03 X53.626964 Y122.059136 Z-0.125000 I0.792437 J-0.371197
G03 X53.620660 Y121.938137 Z-0.125000 I0.476433 J-0.085485
G03 X53.655576 Y121.811040 Z-0.125000 I0.339772 J0.024997
G03 X53.736924 Y121.712228 Z-0.125000 I0.255255 J0.127250
G03 X53.846420 Y121.648822 Z-0.125000 I0.295676 J0.384353
G03 X54.079392 Y121.590178 Z-0.125000 I0.313912 J0.754983
G03 X54.504830 Y121.572486 Z-0.125000 I0.366140 J3.680531
G03 X54.946742 Y121.589292 Z-0.125000 I-0.161832 J10.074164
G03 X55.716687 Y121.639280 Z-0.125000 I-4.741736 J78.989312
G02 X56.554811 Y121.687413 Z-0.125000 I2.383095 J-34.175176
G02 X57.100304 Y121.696534 Z-0.125000 I0.433337 J-9.599025
G02 X57.337808 Y121.682258 Z-0.125000 I-0.025401 J-2.405224
G03 X57.472451 Y121.667923 Z-0.125000 I2.143520 J19.493875
G02 X57.420693 Y121.579361 Z-0.125000 I-6.028248 J3.463658
G02 X57.338858 Y121.448453 Z-0.125000 I-2.958891 J1.758663
G02 X57.121458 Y121.132148 Z-0.125000 I-7.602371 J4.992331
G02 X56.804495 Y120.704162 Z-0.125000 I-15.236214 J10.952448
G03 X56.354235 Y120.080282 Z-0.125000 I11.553509 J-8.812699
G03 X56.155627 Y119.759485 Z-0.125000 I3.517499 J-2.399593
G03 X56.077811 Y119.597362 Z-0.125000 I1.257951 J-0.703532
G03 X56.041121 Y119.482763 Z-0.125000 I0.741833 J-0.300677
G03 X56.027955 Y119.424363 Z-0.125000 I2.491554 J-0.592371
G03 X56.031610 Y119.339629 Z-0.125000 I0.165601 J-0.035304
G03 X56.093260 Y119.254846 Z-0.125000 I0.151544 J0.045389
