%
(Header)
(Generated by gcodetools from Inkscape.)
(Using default header. To add your own header create file "header" in the output dir.)
M3
(Header end.)
G21 (All units in mm)

(Start cutting path id: path3008-7)
(Change tool to Default tool)

G00 Z5.000000
G00 X172.508334 Y167.104789

G01 Z-0.125000 F100.0(Penetrate)
G03 X171.749312 Y166.895642 Z-0.125000 I-0.000000 J-1.481867 F400.000000
G03 X170.841459 Y166.143470 Z-0.125000 I1.966669 J-3.297683
G02 X171.181100 Y166.262615 Z-0.125000 I0.812138 J-1.771453
G02 X171.502918 Y166.302220 Z-0.125000 I0.321817 J-1.287685
G02 X172.259905 Y165.896331 Z-0.125000 I0.000000 J-0.908840
G02 X172.640626 Y164.635345 Z-0.125000 I-1.897898 J-1.260987
G02 X172.280569 Y163.075198 Z-0.125000 I-3.560128 J-0.000000
G02 X170.885557 Y161.231039 Z-0.125000 I-5.390969 J2.628287
G03 X173.133883 Y163.673320 Z-0.125000 I-5.620551 J7.430223
G03 X173.646043 Y165.437914 Z-0.125000 I-2.783789 J1.764595
G03 X173.265322 Y166.698901 Z-0.125000 I-2.278619 J0.000000
G03 X172.508334 Y167.104789 Z-0.125000 I-0.756988 J-0.502952
G01 X172.508334 Y167.104789 Z-0.125000
G00 Z5.000000

(End cutting path id: path3008-7)


(Start cutting path id: path3008-7)
(Change tool to Default tool)

G00 Z5.000000
G00 X169.024654 Y166.125831

G01 Z-0.125000 F100.0(Penetrate)
G03 X167.823421 Y165.151092 Z-0.125000 I10.392461 J-14.034835 F400.000000
G03 X166.987362 Y164.309025 Z-0.125000 I6.257293 J-7.048732
G03 X164.943170 Y160.513785 Z-0.125000 I8.516214 J-7.035144
G03 X164.068126 Y154.678192 Z-0.125000 I19.021009 J-5.835593
G03 X165.108862 Y151.835245 Z-0.125000 I4.403366 J-0.000000
G03 X167.401876 Y150.771178 Z-0.125000 I2.293014 J1.938637
G03 X170.131746 Y151.397153 Z-0.125000 I-0.000000 J6.265455
G03 X174.192848 Y154.043192 Z-0.125000 I-8.359717 J17.269850
G02 X170.797284 Y152.072041 Z-0.125000 I-9.739687 J12.867656
G02 X168.407293 Y151.582567 Z-0.125000 I-2.389991 J5.590153
G02 X166.115257 Y152.643524 Z-0.125000 I-0.000000 J3.006274
G02 X165.073543 Y155.480762 Z-0.125000 I3.342924 J2.837238
G02 X165.953458 Y161.316429 Z-0.125000 I19.791270 J0.000000
G02 X168.001598 Y165.111595 Z-0.125000 I10.602946 J-3.271858
G02 X168.450732 Y165.590332 Z-0.125000 I7.124836 J-6.234223
G02 X169.024654 Y166.125831 Z-0.125000 I8.694445 J-8.742971
G01 X169.024654 Y166.125831 Z-0.125000
G00 Z5.000000

(End cutting path id: path3008-7)


(Start cutting path id: path3008-7)
(Change tool to Default tool)

G00 Z5.000000
G00 X173.355001 Y161.574998

G01 Z-0.125000 F100.0(Penetrate)
G02 X170.359258 Y159.421546 Z-0.125000 I-65.949902 J88.584790 F400.000000
G02 X168.080973 Y157.923748 Z-0.125000 I-31.117461 J44.850790
G02 X168.080884 Y157.837131 Z-0.125000 I-41.979001 J0.000002
G03 X168.080973 Y157.756178 Z-0.125000 I12.779774 J-0.026369
G03 X169.870043 Y158.969445 Z-0.125000 I-27.277538 J42.148867
G03 X172.517154 Y160.895900 Z-0.125000 I-81.213332 J114.375797
G03 X172.968480 Y161.250212 Z-0.125000 I-10.739151 J14.144251
G03 X173.355001 Y161.574998 Z-0.125000 I-9.295936 J11.455311
G01 X173.355001 Y161.574998 Z-0.125000
G00 Z5.000000

(End cutting path id: path3008-7)


(Start cutting path id: path3008)
(Change tool to Default tool)

G00 Z5.000000
G00 X176.995615 Y157.679335

G01 Z-0.125000 F100.0(Penetrate)
G02 X172.453723 Y154.438104 Z-0.125000 I-19.410238 J22.396431 F400.000000
G02 X170.452575 Y153.899815 Z-0.125000 I-2.001148 J3.450603
G02 X169.129921 Y154.368463 Z-0.125000 I-0.000000 J2.100773
G02 X168.298655 Y155.647335 Z-0.125000 I1.557586 J1.922027
G02 X168.160732 Y156.464489 Z-0.125000 I5.174159 J1.293540
G02 X168.095455 Y157.923175 Z-0.125000 I16.265514 J1.458686
G03 X170.413547 Y159.449331 Z-0.125000 I-28.601494 J45.966616
G03 X173.541215 Y161.702695 Z-0.125000 I-66.893071 J96.144848
G03 X175.947789 Y164.324414 Z-0.125000 I-6.051608 J7.970400
G03 X176.589215 Y166.538855 Z-0.125000 I-3.501826 J2.214442
G03 X175.906556 Y168.152359 Z-0.125000 I-2.248133 J-0.000000
G03 X174.272735 Y168.814695 Z-0.125000 I-1.633821 J-1.683948
G03 X173.104197 Y168.642592 Z-0.125000 I-0.000000 J-4.053091
G03 X171.793695 Y168.083175 Z-0.125000 I1.854376 J-6.158816
G03 X169.482353 Y166.512862 Z-0.125000 I9.735253 J-16.815491
G03 X168.014175 Y165.116455 Z-0.125000 I6.865409 J-8.688294
G03 X165.966854 Y161.320937 Z-0.125000 I8.545757 J-7.059549
G03 X165.088095 Y155.484775 Z-0.125000 I18.940666 J-5.836162
G03 X166.128888 Y152.645556 Z-0.125000 I4.393004 J-0.000000
G03 X168.420575 Y151.583335 Z-0.125000 I2.291687 J1.940988
G03 X171.723034 Y152.464291 Z-0.125000 I-0.000000 J6.630477
G03 X176.995615 Y156.500775 Z-0.125000 I-12.563169 J21.872250
G01 X176.995615 Y157.679335 Z-0.125000
G00 Z5.000000

(End cutting path id: path3008)


(Start cutting path id: path3008-7)
(Change tool to Default tool)

G00 Z5.000000
G00 X175.974376 Y156.874234

G01 Z-0.125000 F100.0(Penetrate)
G02 X175.576993 Y156.537540 Z-0.125000 I-15.256919 J17.604123 F400.000000
G03 X175.207084 Y156.230414 Z-0.125000 I128.065992 J-154.621824
G02 X175.575362 Y156.513922 Z-0.125000 I52.512832 J-67.833257
G03 X175.974376 Y156.830137 Z-0.125000 I-9.219029 J12.042877
G01 X175.974376 Y156.874234 Z-0.125000
G01 X175.974376 Y156.874234 Z-0.125000
G00 Z5.000000

(End cutting path id: path3008-7)


(Start cutting path id: path3008)
(Change tool to Default tool)

G00 Z5.000000
G00 X168.217375 Y159.386215

G01 Z-0.125000 F100.0(Penetrate)
G02 X170.463814 Y165.894914 Z-0.125000 I19.552855 J-3.106530 F400.000000
G02 X172.525215 Y167.107815 Z-0.125000 I2.061401 J-1.145289
G02 X173.282232 Y166.702132 Z-0.125000 I0.000000 J-0.909150
G02 X173.663135 Y165.441575 Z-0.125000 I-1.895386 J-1.260557
G02 X172.855921 Y163.337108 Z-0.125000 I-3.146859 J0.000000
G02 X168.217375 Y159.386215 Z-0.125000 I-17.111901 J15.391842
G00 Z5.000000

(End cutting path id: path3008)


(Start cutting path id: path3006-7)
(Change tool to Default tool)

G00 Z5.000000
G00 X158.705904 Y165.482012

G01 Z-0.125000 F100.0(Penetrate)
G03 X158.381886 Y165.411331 Z-0.125000 I0.000000 J-0.778027 F400.000000
G03 X157.241876 Y164.829373 Z-0.125000 I6.280349 J-13.710285
G02 X156.526795 Y164.426891 Z-0.125000 I-7.604310 J12.673948
G03 X155.821945 Y164.053262 Z-0.125000 I73.394401 J-139.309725
G01 X155.892501 Y165.049859 Z-0.125000
G02 X155.432513 Y164.765056 Z-0.125000 I-52.383397 J84.091030
G03 X154.895904 Y164.432498 Z-0.125000 I52.448586 J-85.229248
G01 X154.807709 Y163.250692 Z-0.125000
G02 X155.516930 Y163.624279 Z-0.125000 I36.735658 J-68.879359
G03 X156.236459 Y164.026803 Z-0.125000 I-6.266578 J12.046125
G02 X157.376508 Y164.601639 Z-0.125000 I6.624925 J-11.721020
G02 X157.700487 Y164.670623 Z-0.125000 I0.323979 J-0.726287
G02 X158.043483 Y164.528549 Z-0.125000 I0.000000 J-0.485069
G02 X158.185556 Y164.185553 Z-0.125000 I-0.342996 J-0.342996
G02 X158.068480 Y163.122925 Z-0.125000 I-4.880942 J-0.000000
G02 X156.271737 Y155.568956 Z-0.125000 I-269.747800 J60.169976
G02 X153.816232 Y146.793553 Z-0.125000 I-169.353712 J42.656757
G02 X152.796876 Y144.818053 Z-0.125000 I-6.017978 J1.854529
G03 X154.127271 Y146.194290 Z-0.125000 I-0.901646 J2.202772
G03 X157.285973 Y156.380345 Z-0.125000 I-92.730802 J34.338663
G03 X159.074832 Y163.926584 Z-0.125000 I-253.920507 J64.177760
G03 X159.190973 Y164.988123 Z-0.125000 I-4.793184 J1.061538
G03 X159.049820 Y165.336449 Z-0.125000 I-0.500361 J0.000000
G03 X158.705904 Y165.482012 Z-0.125000 I-0.343916 J-0.333498
G01 X158.705904 Y165.482012 Z-0.125000
G00 Z5.000000

(End cutting path id: path3006-7)


(Start cutting path id: path3004)
(Change tool to Default tool)

G00 Z5.000000
G00 X154.921745 Y157.435495

G01 Z-0.125000 F100.0(Penetrate)
G03 X154.099148 Y156.904876 Z-0.125000 I12.078743 J-19.628128 F400.000000
G02 X153.783825 Y156.703975 Z-0.125000 I-3.897339 J5.769126
G02 X150.529145 Y154.639735 Z-0.125000 I-27.820377 J40.266358
G02 X150.044945 Y154.509415 Z-0.125000 I-0.484199 J0.834353
G02 X149.690511 Y154.720409 Z-0.125000 I0.000000 J0.403191
G02 X149.475985 Y155.566055 Z-0.125000 I1.559472 J0.845646
G02 X150.220983 Y161.903738 Z-0.125000 I27.329765 J0.000000
G02 X153.743185 Y174.138535 Z-0.125000 I133.856662 J-31.910795
G02 X155.437028 Y176.848606 Z-0.125000 I7.293852 J-2.674412
G02 X156.994385 Y177.511655 Z-0.125000 I1.557357 J-1.497420
G02 X157.662377 Y177.451649 Z-0.125000 I0.000000 J-3.748060
G02 X158.863825 Y177.186535 Z-0.125000 I-2.885855 J-15.933110
G01 X160.286225 Y179.462375 Z-0.125000
G03 X159.470437 Y179.594760 Z-0.125000 I-2.219563 J-11.097814
G03 X158.985745 Y179.624935 Z-0.125000 I-0.484692 J-3.877536
G03 X157.783461 Y179.454195 Z-0.125000 I0.000000 J-4.318370
G03 X156.547345 Y178.934055 Z-0.125000 I1.610839 J-5.557060
G03 X154.956001 Y177.889240 Z-0.125000 I6.603378 J-11.791805
G03 X153.011665 Y176.251815 Z-0.125000 I15.909831 J-20.864989
G03 X151.363883 Y174.003356 Z-0.125000 I5.579583 J-5.817013
G03 X149.841745 Y169.871335 Z-0.125000 I18.714129 J-9.240207
G03 X149.775198 Y169.597991 Z-0.125000 I22.099994 J-5.525095
G02 X149.516625 Y168.570855 Z-0.125000 I-36.850394 J8.730683
G03 X148.358802 Y168.779557 Z-0.125000 I-3.164890 J-14.242007
G03 X147.850385 Y168.814695 Z-0.125000 I-0.508417 J-3.660556
G03 X145.375607 Y168.101705 Z-0.125000 I-0.000000 J-4.651456
G03 X141.469905 Y164.831975 Z-0.125000 I9.995363 J-15.907040
G03 X139.212434 Y160.825960 Z-0.125000 I8.560749 J-7.463230
G03 X138.259345 Y154.712615 Z-0.125000 I19.129706 J-6.113345
G03 X138.872516 Y152.154417 Z-0.125000 I5.643090 J-0.000000
G03 X139.803665 Y151.583335 Z-0.125000 I0.931149 J0.473579
G03 X140.762240 Y151.853863 Z-0.125000 I0.000000 J1.833548
G03 X146.631185 Y155.769255 Z-0.125000 I-48.291202 J78.741998
G03 X146.370416 Y154.061056 Z-0.125000 I18.460939 J-3.692198
G03 X146.306065 Y152.843175 Z-0.125000 I11.492350 J-1.217881
G03 X146.614191 Y151.884291 Z-0.125000 I1.646080 J0.000000
G03 X147.200145 Y151.583335 Z-0.125000 I0.585954 J0.419941
G03 X148.320585 Y151.897642 Z-0.125000 I0.000000 J2.154223
G03 X154.759185 Y156.175655 Z-0.125000 I-50.944973 J83.658649
G01 X154.921745 Y157.435495 Z-0.125000
G00 Z5.000000

(End cutting path id: path3004)


(Start cutting path id: path3004)
(Change tool to Default tool)

G00 Z5.000000
G00 X146.956305 Y157.272935

G01 Z-0.125000 F100.0(Penetrate)
G02 X142.677554 Y154.483276 Z-0.125000 I-39.925458 J56.561085 F400.000000
G02 X142.038865 Y154.306215 Z-0.125000 I-0.638689 J1.063399
G02 X141.512231 Y154.639638 Z-0.125000 I-0.000000 J0.582615
G02 X141.185425 Y156.094375 Z-0.125000 I3.074392 J1.454737
G02 X141.340285 Y158.076788 Z-0.125000 I12.766151 J0.000000
G02 X141.916945 Y160.767975 Z-0.125000 I24.654673 J-3.875554
G02 X144.491167 Y165.804434 Z-0.125000 I14.179675 J-4.071385
G02 X146.753105 Y166.904615 Z-0.125000 I2.261938 J-1.775146
G02 X147.642768 Y166.685186 Z-0.125000 I-0.000000 J-1.913255
G02 X148.866385 Y165.807335 Z-0.125000 I-2.532685 J-4.821967
G01 X146.956305 Y157.272935 Z-0.125000
G00 Z5.000000

(End cutting path id: path3004)


(Start cutting path id: path3004-6)
(Change tool to Default tool)

G00 Z5.000000
G00 X142.389931 Y165.737775

G01 Z-0.125000 F100.0(Penetrate)
G03 X141.276172 Y164.837239 Z-0.125000 I11.215087 J-15.009525 F400.000000
G03 X140.449654 Y164.026803 Z-0.125000 I6.637624 J-7.596019
G03 X138.191886 Y160.018646 Z-0.125000 I8.557354 J-7.460271
G03 X137.239376 Y153.902081 Z-0.125000 I19.162577 J-6.116566
G03 X137.851796 Y151.342653 Z-0.125000 I5.654395 J0.000000
G03 X138.782779 Y150.771178 Z-0.125000 I0.930983 J0.472589
G03 X139.741199 Y151.042108 Z-0.125000 I0.000000 J1.830678
G03 X145.609029 Y154.960414 Z-0.125000 I-48.915732 J79.606210
G03 X145.347507 Y153.251062 Z-0.125000 I18.607914 J-3.721593
G03 X145.282709 Y152.032359 Z-0.125000 I11.428177 J-1.218703
G03 X145.589002 Y151.072804 Z-0.125000 I1.656193 J-0.000000
G03 X146.173473 Y150.771178 Z-0.125000 I0.584471 J0.415462
G03 X147.295092 Y151.085553 Z-0.125000 I0.000000 J2.158030
G03 X153.740556 Y155.366109 Z-0.125000 I-50.676745 J83.299638
G01 X153.758195 Y155.471942 Z-0.125000
G02 X148.165183 Y151.851893 Z-0.125000 I-52.074886 J74.325564
G02 X147.187709 Y151.582567 Z-0.125000 I-0.977473 J1.639129
G02 X146.598882 Y151.883468 Z-0.125000 I0.000000 J0.726581
G02 X146.288126 Y152.843748 Z-0.125000 I1.328317 J0.960279
G02 X146.353133 Y154.058781 Z-0.125000 I11.387507 J0.000000
G02 X146.614445 Y155.762984 Z-0.125000 I18.950061 J-2.033557
G02 X140.746566 Y151.852522 Z-0.125000 I-53.436288 J73.826536
G02 X139.788195 Y151.582567 Z-0.125000 I-0.958371 J1.566184
G02 X138.857213 Y152.154042 Z-0.125000 I0.000000 J1.044064
G02 X138.244792 Y154.713470 Z-0.125000 I5.041975 J2.559428
G02 X139.198000 Y160.824734 Z-0.125000 I20.067057 J-0.000000
G02 X141.455070 Y164.829373 Z-0.125000 I10.818156 J-3.458885
G02 X141.873069 Y165.262032 Z-0.125000 I7.334307 J-6.667552
G02 X142.389931 Y165.737775 Z-0.125000 I8.667199 J-8.897658
G01 X142.389931 Y165.737775 Z-0.125000
G00 Z5.000000

(End cutting path id: path3004-6)


(Start cutting path id: path3004-6)
(Change tool to Default tool)

G00 Z5.000000
G00 X146.737918 Y166.901942

G01 Z-0.125000 F100.0(Penetrate)
G03 X145.503741 Y166.620078 Z-0.125000 I-0.000000 J-2.842926 F400.000000
G03 X144.294931 Y165.728956 Z-0.125000 I1.760942 J-3.654162
G02 X144.994226 Y166.004886 Z-0.125000 I1.481951 J-2.731651
G02 X145.732501 Y166.099373 Z-0.125000 I0.738275 J-2.837032
G02 X146.620003 Y165.877769 Z-0.125000 I-0.000000 J-1.887979
G02 X147.840348 Y164.996942 Z-0.125000 I-2.612598 J-4.905416
G01 X145.961806 Y156.592012 Z-0.125000
G02 X146.408001 Y156.900453 Z-0.125000 I40.714769 J-58.421350
G03 X146.940765 Y157.271109 Z-0.125000 I-26.935074 J39.283518
G01 X148.854584 Y165.808331 Z-0.125000
G03 X147.628922 Y166.684027 Z-0.125000 I-3.705471 J-3.890745
G03 X146.737918 Y166.901942 Z-0.125000 I-0.891004 J-1.712599
G01 X146.737918 Y166.901942 Z-0.125000
G00 Z5.000000

(End cutting path id: path3004-6)


(Start cutting path id: path3004-6)
(Change tool to Default tool)

G00 Z5.000000
G00 X153.802293 Y176.964928

G01 Z-0.125000 F100.0(Penetrate)
G03 X152.877616 Y176.226455 Z-0.125000 I15.032930 J-19.771570 F400.000000
G03 X151.985487 Y175.439164 Z-0.125000 I15.094627 J-18.003797
G03 X150.339467 Y173.192096 Z-0.125000 I5.568433 J-5.805388
G03 X148.819306 Y169.062706 Z-0.125000 I18.742695 J-9.244289
G03 X148.795451 Y168.960690 Z-0.125000 I3.319210 J-0.829965
G02 X148.739931 Y168.718748 Z-0.125000 I-10.860859 J2.364942
G02 X149.085438 Y168.655953 Z-0.125000 I-1.626148 J-9.929301
G02 X149.498404 Y168.568817 Z-0.125000 I-3.859109 J-19.311671
G03 X149.757920 Y169.592776 Z-0.125000 I-41.207691 J10.988718
G02 X149.824723 Y169.865276 Z-0.125000 I29.815137 J-7.164713
G02 X151.349581 Y174.000443 Z-0.125000 I20.190900 J-5.096735
G02 X152.999723 Y176.250553 Z-0.125000 I7.245776 J-3.583636
G02 X153.391537 Y176.607451 Z-0.125000 I18.816471 J-20.263789
G02 X153.802293 Y176.964928 Z-0.125000 I13.893200 J-15.549127
G01 X153.802293 Y176.964928 Z-0.125000
G00 Z5.000000

(End cutting path id: path3004-6)


(Start cutting path id: path3004-6)
(Change tool to Default tool)

G00 Z5.000000
G00 X156.977293 Y177.511734

G01 Z-0.125000 F100.0(Penetrate)
G03 X155.883148 Y177.259233 Z-0.125000 I0.000000 J-2.496844 F400.000000
G03 X154.922362 Y176.488678 Z-0.125000 I1.223672 J-2.510035
G02 X155.407566 Y176.643718 Z-0.125000 I0.949298 J-2.134116
G02 X155.971876 Y176.700345 Z-0.125000 I0.564310 J-2.783476
G02 X156.639969 Y176.639929 Z-0.125000 I0.000000 J-3.724168
G02 X157.841598 Y176.374026 Z-0.125000 I-2.951819 J-16.187455
G01 X158.414862 Y177.291248 Z-0.125000
G03 X157.558239 Y177.465236 Z-0.125000 I-2.567382 J-10.444636
G03 X156.977293 Y177.511734 Z-0.125000 I-0.580946 J-3.605915
G01 X156.977293 Y177.511734 Z-0.125000
G00 Z5.000000

(End cutting path id: path3004-6)


(Start cutting path id: path3006-7)
(Change tool to Default tool)

G00 Z5.000000
G00 X160.725556 Y174.954095

G01 Z-0.125000 F100.0(Penetrate)
G03 X160.696649 Y174.933527 Z-0.125000 I2.048235 J-2.909344 F400.000000
G02 X160.663820 Y174.909998 Z-0.125000 I-7.760347 J10.792670
G02 X160.326099 Y174.649654 Z-0.125000 I-2.675313 J3.121235
G02 X159.684862 Y174.222081 Z-0.125000 I-13.080138 J18.921829
G03 X160.199382 Y173.027330 Z-0.125000 I6.296610 J2.003473
G03 X161.237084 Y171.382220 Z-0.125000 I14.807214 J8.190256
G02 X161.854520 Y171.942126 Z-0.125000 I52.403340 J-57.167280
G02 X162.198404 Y172.246526 Z-0.125000 I23.118202 J-25.770502
G02 X161.222430 Y173.809130 Z-0.125000 I12.771612 J9.062999
G02 X160.725556 Y174.954095 Z-0.125000 I6.095021 J3.325315
G01 X160.725556 Y174.954095 Z-0.125000
G00 Z5.000000

(End cutting path id: path3006-7)


(Start cutting path id: path3006-7)
(Change tool to Default tool)

G00 Z5.000000
G00 X162.489445 Y176.338748

G01 Z-0.125000 F100.0(Penetrate)
G01 X162.251320 Y176.171178 Z-0.125000 F400.000000
G01 X162.004376 Y175.950692 Z-0.125000
G03 X162.144438 Y176.052956 Z-0.125000 I-2.494382 J3.563402
G03 X162.401251 Y176.250553 Z-0.125000 I-18.807565 J24.709427
G02 X162.444273 Y176.290013 Z-0.125000 I0.478237 J-0.478237
G03 X162.489445 Y176.329928 Z-0.125000 I-0.787094 J0.936263
G01 X162.489445 Y176.338734 Z-0.125000
G01 X162.489445 Y176.338748 Z-0.125000
G00 Z5.000000

(End cutting path id: path3006-7)


(Start cutting path id: path3006-7)
(Change tool to Default tool)

G00 Z5.000000
G00 X163.856459 Y173.595901

G01 Z-0.125000 F100.0(Penetrate)
G03 X163.590507 Y173.381534 Z-0.125000 I30.428561 J-38.023240 F400.000000
G03 X163.309654 Y173.146109 Z-0.125000 I7.347554 J-9.050566
G01 X163.874098 Y173.569442 Z-0.125000
G03 X163.865227 Y173.582683 Z-0.125000 I-2.844489 J-1.896326
G02 X163.856459 Y173.595886 Z-0.125000 I1.009403 J0.679754
G01 X163.856459 Y173.595901 Z-0.125000
G00 Z5.000000

(End cutting path id: path3006-7)


(Start cutting path id: path3006)
(Change tool to Default tool)

G00 Z5.000000
G00 X164.896960 Y174.382375

G01 Z-0.125000 F100.0(Penetrate)
G02 X164.653425 Y174.797573 Z-0.125000 I3.482745 J2.321830 F400.000000
G02 X164.571840 Y174.991975 Z-0.125000 I1.242623 J0.635815
G02 X164.202767 Y175.615004 Z-0.125000 I55.266278 J33.159767
G03 X164.084160 Y175.804775 Z-0.125000 I-3.284176 J-1.920656
G01 X163.718400 Y176.617575 Z-0.125000
G01 X163.515200 Y177.145895 Z-0.125000
G01 X163.271360 Y176.983335 Z-0.125000
G01 X162.946240 Y176.698855 Z-0.125000
G03 X162.690346 Y176.498358 Z-0.125000 I4.617947 J-6.157405
G03 X162.417920 Y176.251815 Z-0.125000 I2.335377 J-2.854344
G02 X162.003672 Y175.947072 Z-0.125000 I-5.895216 J7.579639
G03 X161.686400 Y175.723495 Z-0.125000 I17.343483 J-24.948633
G02 X161.349950 Y175.462111 Z-0.125000 I-2.881370 J3.361637
G02 X160.711040 Y175.032615 Z-0.125000 I-10.788997 J15.359528
G03 X161.222370 Y173.835872 Z-0.125000 I6.486782 J2.063983
G03 X162.255360 Y172.187815 Z-0.125000 I14.151385 J7.722226
G02 X163.424026 Y173.228465 Z-0.125000 I36.645544 J-39.976957
G02 X164.084160 Y173.772775 Z-0.125000 I11.878223 J-13.733347
G01 X164.896960 Y174.382375 Z-0.125000
G00 Z5.000000

(End cutting path id: path3006)


(Start cutting path id: path3006-7)
(Change tool to Default tool)

G00 Z5.000000
G00 X148.069654 Y143.944928

G01 Z-0.125000 F100.0(Penetrate)
G01 X146.155834 Y141.510761 Z-0.125000 F400.000000
G03 X147.235940 Y141.318234 Z-0.125000 I2.216922 J9.311202
G03 X148.149029 Y141.263817 Z-0.125000 I0.913089 J7.633377
G03 X150.225870 Y141.675206 Z-0.125000 I0.000000 J5.448021
G03 X152.426459 Y143.045345 Z-0.125000 I-2.994089 J7.261086
G02 X150.889885 Y142.311714 Z-0.125000 I-2.976981 J4.259249
G02 X149.154445 Y142.066386 Z-0.125000 I-1.735440 J6.015553
G02 X148.241357 Y142.120803 Z-0.125000 I0.000000 J7.687794
G02 X147.161251 Y142.313331 Z-0.125000 I1.136816 J9.503730
G01 X148.413612 Y143.909650 Z-0.125000
G02 X148.261036 Y143.925215 Z-0.125000 I5.375892 J53.453027
G03 X148.069654 Y143.944928 Z-0.125000 I-21.999498 J-212.645287
G01 X148.069654 Y143.944928 Z-0.125000
G00 Z5.000000

(End cutting path id: path3006-7)


(Start cutting path id: path3006)
(Change tool to Default tool)

G00 Z5.000000
G00 X147.177920 Y142.317415

G01 Z-0.125000 F100.0(Penetrate)
G03 X148.257033 Y142.126644 Z-0.125000 I2.160936 J9.076057 F400.000000
G03 X149.169280 Y142.073575 Z-0.125000 I0.912247 J7.814252
G03 X151.446481 Y142.612694 Z-0.125000 I0.000000 J5.078933
G03 X154.249280 Y144.593255 Z-0.125000 I-5.140508 J10.248085
G03 X157.224658 Y148.755860 Z-0.125000 I-10.220484 J10.450158
G03 X160.304640 Y157.272935 Z-0.125000 I-41.926299 J19.977008
G03 X162.884887 Y167.810303 Z-0.125000 I-1395.327818 J347.253418
G03 X162.946240 Y168.327015 Z-0.125000 I-2.145179 J0.516712
G03 X162.775552 Y168.668391 Z-0.125000 I-0.426720 J-0.000000
G03 X162.336640 Y168.814695 Z-0.125000 I-0.438912 J-0.585216
G03 X161.727870 Y168.657466 Z-0.125000 I-0.000000 J-1.257149
G03 X155.915520 Y165.238375 Z-0.125000 I62.254619 J-112.480916
G01 X155.834240 Y164.059815 Z-0.125000
G02 X156.540309 Y164.431496 Z-0.125000 I34.725051 J-65.109471
G03 X157.256640 Y164.831975 Z-0.125000 I-6.175869 J11.887570
G02 X158.395890 Y165.411959 Z-0.125000 I7.223292 J-12.779670
G02 X158.719680 Y165.482215 Z-0.125000 I0.323790 J-0.710996
G02 X159.064522 Y165.339377 Z-0.125000 I0.000000 J-0.487680
G02 X159.207360 Y164.994535 Z-0.125000 I-0.344842 J-0.344842
G02 X159.090716 Y163.932021 Z-0.125000 I-4.897565 J0.000000
G02 X157.297280 Y156.378855 Z-0.125000 I-262.446305 J58.326181
G02 X153.350093 Y145.860232 Z-0.125000 I-48.630615 J12.249065
G02 X151.282560 Y144.593255 Z-0.125000 I-2.067532 J1.053476
G02 X150.734995 Y144.612732 Z-0.125000 I-0.000000 J7.706727
G02 X149.088000 Y144.755815 Z-0.125000 I3.777619 J53.033894
G01 X147.177920 Y142.317415 Z-0.125000
G00 Z5.000000

(End cutting path id: path3006)


(Start cutting path id: path3002)
(Change tool to Default tool)

G00 Z5.000000
G00 X122.656125 Y152.883815

G01 Z-0.125000 F100.0(Penetrate)
G01 X125.053885 Y162.434215 Z-0.125000 F400.000000
G02 X130.284928 Y165.544883 Z-0.125000 I59.915567 J-94.803090
G02 X130.824765 Y165.685415 Z-0.125000 I0.539837 J-0.966589
G02 X131.134202 Y165.539685 Z-0.125000 I-0.000000 J-0.401387
G02 X131.271805 Y165.157095 Z-0.125000 I-0.463072 J-0.382589
G02 X131.187829 Y164.378752 Z-0.125000 I-3.649086 J-0.000000
G02 X129.768125 Y158.370215 Z-0.125000 I-176.626033 J38.561415
G03 X128.804163 Y154.173092 Z-0.125000 I126.103491 J-31.171698
G03 X128.711485 Y153.290215 Z-0.125000 I4.158910 J-0.882876
G03 X128.831945 Y152.526149 Z-0.125000 I2.483426 J0.000000
G03 X129.321085 Y151.461415 Z-0.125000 I4.738843 J1.532307
G03 X132.191193 Y153.004653 Z-0.125000 I-10.404494 J22.790761
G03 X136.839485 Y156.175655 Z-0.125000 I-37.052206 J59.306306
G01 X137.123965 Y157.313575 Z-0.125000
G02 X132.886628 Y155.012020 Z-0.125000 I-58.270617 J102.229207
G02 X132.491005 Y154.915815 Z-0.125000 I-0.395623 J0.765357
G02 X132.065939 Y155.162874 Z-0.125000 I0.000000 J0.489193
G02 X131.840765 Y156.013095 Z-0.125000 I1.492561 J0.850221
G02 X131.961146 Y157.163234 Z-0.125000 I5.554504 J0.000000
G02 X132.897405 Y161.011815 Z-0.125000 I64.453092 J-13.641579
G03 X134.770617 Y167.844398 Z-0.125000 I-655.543474 J183.395972
G03 X134.807485 Y168.123815 Z-0.125000 I-1.040384 J0.279417
G03 X134.589867 Y168.595384 Z-0.125000 I-0.619743 J-0.000000
G03 X133.994685 Y168.814695 Z-0.125000 I-0.595182 J-0.697966
G03 X133.173937 Y168.647077 Z-0.125000 I0.000000 J-2.093217
G03 X131.027965 Y167.514215 Z-0.125000 I5.751775 J-13.494529
G01 X125.460285 Y164.059815 Z-0.125000
G03 X126.338674 Y167.473465 Z-0.125000 I-118.091035 J32.206646
G03 X126.435645 Y168.286375 Z-0.125000 I-3.358855 J0.812910
G03 X126.280904 Y168.659954 Z-0.125000 I-0.528320 J-0.000000
G03 X125.907325 Y168.814695 Z-0.125000 I-0.373579 J-0.373579
G03 X125.133440 Y168.627377 Z-0.125000 I0.000000 J-1.692267
G03 X119.526845 Y165.522855 Z-0.125000 I47.683876 J-92.729322
G01 X119.283005 Y164.466215 Z-0.125000
G02 X122.041835 Y165.617057 Z-0.125000 I20.396642 J-45.013231
G02 X122.412285 Y165.685415 Z-0.125000 I0.370450 J-0.969592
G02 X122.749027 Y165.529059 Z-0.125000 I0.000000 J-0.440795
G02 X122.899965 Y165.116455 Z-0.125000 I-0.488475 J-0.412603
G02 X122.735128 Y163.652317 Z-0.125000 I-6.584890 J-0.000000
G02 X121.111805 Y157.191655 Z-0.125000 I-147.993629 J33.750992
G01 X120.177085 Y153.899815 Z-0.125000
G03 X120.056610 Y153.459337 Z-0.125000 I19.390656 J-5.540242
G03 X119.608125 Y151.705255 Z-0.125000 I164.030907 J-42.873929
G01 X122.656125 Y152.883815 Z-0.125000
G00 Z5.000000

(End cutting path id: path3002)


(Start cutting path id: path3000)
(Change tool to Default tool)

G00 Z5.000000
G00 X118.867080 Y156.825895

G01 Z-0.125000 F100.0(Penetrate)
G02 X114.906068 Y154.827060 Z-0.125000 I-41.409238 J77.134904 F400.000000
G02 X114.396680 Y154.712615 Z-0.125000 I-0.509388 J1.076414
G02 X113.922045 Y154.972405 Z-0.125000 I-0.000000 J0.563474
G02 X113.665160 Y155.850535 Z-0.125000 I1.372450 J0.878131
G02 X113.717760 Y156.490259 Z-0.125000 I3.916497 J0.000000
G02 X114.030920 Y157.923175 Z-0.125000 I14.168269 J-2.345762
G03 X116.465250 Y168.028763 Z-0.125000 I-2717.028363 J659.849502
G03 X116.509960 Y168.408295 Z-0.125000 I-1.588509 J0.379532
G03 X116.377187 Y168.688175 Z-0.125000 I-0.361373 J-0.000000
G03 X116.022280 Y168.814695 Z-0.125000 I-0.354907 J-0.434520
G03 X115.000207 Y168.548691 Z-0.125000 I0.000000 J-2.096563
G03 X109.601160 Y165.238375 Z-0.125000 I37.851223 J-67.792482
G01 X109.519880 Y164.100455 Z-0.125000
G02 X112.115059 Y165.400698 Z-0.125000 I21.291884 J-39.256865
G02 X112.486600 Y165.482215 Z-0.125000 I0.371541 J-0.805951
G02 X112.804269 Y165.312204 Z-0.125000 I0.000000 J-0.381790
G02 X112.974280 Y164.750695 Z-0.125000 I-0.842263 J-0.561509
G02 X112.908024 Y164.125286 Z-0.125000 I-2.984835 J-0.000000
G02 X112.242760 Y161.336935 Z-0.125000 I-60.635875 J12.993389
G03 X110.448682 Y154.209630 Z-0.125000 I224.862460 J-60.391615
G03 X110.332680 Y153.208935 Z-0.125000 I4.258274 J-1.000695
G03 X110.693874 Y151.927419 Z-0.125000 I2.454005 J-0.000000
G03 X111.308040 Y151.583335 Z-0.125000 I0.614166 J0.376080
G03 X112.204895 Y151.788732 Z-0.125000 I0.000000 J2.060737
G03 X115.250120 Y153.493415 Z-0.125000 I-12.652941 J26.175372
G03 X116.401337 Y154.225581 Z-0.125000 I-115.685618 J183.168895
G03 X117.566600 Y154.997095 Z-0.125000 I-24.765920 J38.671139
G03 X118.102921 Y155.316258 Z-0.125000 I-5.101951 J9.183512
G02 X118.704520 Y155.687975 Z-0.125000 I14.542141 J-22.862788
G01 X118.867080 Y156.825895 Z-0.125000
G00 Z5.000000

(End cutting path id: path3000)


(Start cutting path id: path2998-4)
(Change tool to Default tool)

G00 Z5.000000
G00 X113.153473 Y149.430623

G01 Z-0.125000 F100.0(Penetrate)
G02 X112.448792 Y148.369104 Z-0.125000 I-10.732153 J6.359801 F400.000000
G02 X111.848195 Y147.657914 Z-0.125000 I-5.835371 J4.318750
G03 X112.534359 Y148.152620 Z-0.125000 I-1.883897 J3.336203
G03 X113.285765 Y148.954373 Z-0.125000 I-4.471128 J4.943345
G01 X113.153473 Y149.430623 Z-0.125000
G01 X113.153473 Y149.430623 Z-0.125000
G00 Z5.000000

(End cutting path id: path2998-4)


(Start cutting path id: path3000-3)
(Change tool to Default tool)

G00 Z5.000000
G00 X112.474376 Y165.482012

G01 Z-0.125000 F100.0(Penetrate)
G03 X112.102153 Y165.400306 Z-0.125000 I0.000000 J-0.888712 F400.000000
G03 X109.502223 Y164.097359 Z-0.125000 I18.797523 J-40.754456
G01 X109.581598 Y165.093956 Z-0.125000
G03 X109.095688 Y164.776470 Z-0.125000 I1305.156995 J-1998.062645
G03 X108.576181 Y164.432498 Z-0.125000 I28.543698 J-43.674300
G01 X108.496806 Y163.294789 Z-0.125000
G02 X111.089034 Y164.589667 Z-0.125000 I20.498974 J-37.794938
G02 X111.460140 Y164.670623 Z-0.125000 I0.371105 J-0.810110
G02 X111.780833 Y164.500955 Z-0.125000 I-0.000000 J-0.387909
G02 X111.954028 Y163.938609 Z-0.125000 I-0.826338 J-0.562346
G02 X111.887673 Y163.313316 Z-0.125000 I-2.979387 J0.000000
G02 X111.222015 Y160.525484 Z-0.125000 I-61.087675 J13.112699
G03 X109.424710 Y153.402821 Z-0.125000 I233.325257 J-62.664480
G03 X109.308195 Y152.402775 Z-0.125000 I4.233446 J-1.000046
G03 X109.670722 Y151.116532 Z-0.125000 I2.463059 J0.000000
G03 X110.287153 Y150.771178 Z-0.125000 I0.616432 J0.377467
G03 X111.184078 Y150.977286 Z-0.125000 I0.000000 J2.054635
G03 X114.229445 Y152.684998 Z-0.125000 I-12.854865 J26.493386
G03 X115.377786 Y153.415030 Z-0.125000 I-122.727829 J194.319063
G03 X116.540140 Y154.184303 Z-0.125000 I-24.384504 J38.107188
G03 X117.076367 Y154.506201 Z-0.125000 I-4.528507 J8.151313
G02 X117.677848 Y154.881039 Z-0.125000 I11.400000 J-17.622902
G01 X117.704292 Y155.083887 Z-0.125000
G03 X117.629038 Y155.039108 Z-0.125000 I2.345466 J-4.027364
G02 X117.554362 Y154.995692 Z-0.125000 I-1.148405 J1.889363
G02 X116.387576 Y154.221909 Z-0.125000 I-27.325542 J39.937544
G02 X115.234848 Y153.487567 Z-0.125000 I-94.740167 J147.445771
G02 X112.189429 Y151.786976 Z-0.125000 I-15.420437 J24.037758
G02 X111.292556 Y151.582567 Z-0.125000 I-0.896873 J1.865373
G02 X110.677134 Y151.925681 Z-0.125000 I0.000000 J0.723479
G02 X110.313598 Y153.205345 Z-0.125000 I2.070468 J1.279664
G02 X110.429994 Y154.206476 Z-0.125000 I4.363585 J0.000000
G02 X112.227417 Y161.336873 Z-0.125000 I231.728306 J-54.622086
G03 X112.893076 Y164.124704 Z-0.125000 I-60.422016 J15.900531
G03 X112.959431 Y164.749998 Z-0.125000 I-2.913032 J0.625293
G03 X112.790842 Y165.311659 Z-0.125000 I-1.019895 J-0.000000
G03 X112.474362 Y165.482012 Z-0.125000 I-0.316481 J-0.208803
G01 X112.474376 Y165.482012 Z-0.125000
G00 Z5.000000

(End cutting path id: path3000-3)


(Start cutting path id: path2998-4)
(Change tool to Default tool)

G00 Z5.000000
G00 X105.215973 Y166.575623

G01 Z-0.125000 F100.0(Penetrate)
G03 X104.435489 Y166.379180 Z-0.125000 I-0.000000 J-1.648686 F400.000000
G03 X102.843542 Y165.279164 Z-0.125000 I4.116031 J-7.658679
G02 X103.621532 Y165.674119 Z-0.125000 I1.822073 J-2.625430
G02 X104.210556 Y165.773053 Z-0.125000 I0.589025 J-1.703964
G02 X105.033025 Y165.526940 Z-0.125000 I0.000000 J-1.497333
G02 X106.036181 Y164.591248 Z-0.125000 I-2.238631 J-3.405626
G01 X106.794653 Y165.720137 Z-0.125000
G03 X105.964651 Y166.387197 Z-0.125000 I-2.208451 J-1.898001
G03 X105.215973 Y166.575623 Z-0.125000 I-0.748679 J-1.393165
G01 X105.215973 Y166.575623 Z-0.125000
G00 Z5.000000

(End cutting path id: path2998-4)


(Start cutting path id: path2998-4)
(Change tool to Default tool)

G00 Z5.000000
G00 X103.998889 Y167.933817

G01 Z-0.125000 F100.0(Penetrate)
G03 X103.497707 Y167.571081 Z-0.125000 I3.480778 J-5.336895 F400.000000
G03 X102.825903 Y166.990137 Z-0.125000 I7.317899 J-9.141325
G03 X101.492522 Y165.711268 Z-0.125000 I55.507134 J-59.207746
G02 X101.079653 Y165.323262 Z-0.125000 I-9.207452 J9.383753
G01 X96.872778 Y161.566178 Z-0.125000
G01 X96.846334 Y161.460345 Z-0.125000
G01 X102.093889 Y166.125831 Z-0.125000
G03 X102.506758 Y166.513838 Z-0.125000 I-8.794584 J9.771759
G02 X103.840139 Y167.792706 Z-0.125000 I56.840515 J-57.928878
G02 X103.921171 Y167.865214 Z-0.125000 I1.767680 J-1.893943
G03 X103.998889 Y167.933817 Z-0.125000 I-2.372002 J2.765499
G01 X103.998889 Y167.933817 Z-0.125000
G00 Z5.000000

(End cutting path id: path2998-4)


(Start cutting path id: path2998-4)
(Change tool to Default tool)

G00 Z5.000000
G00 X103.998889 Y177.220692

G01 Z-0.125000 F100.0(Penetrate)
G03 X102.428419 Y176.898050 Z-0.125000 I0.000000 J-3.983479 F400.000000
G03 X101.229584 Y176.021248 Z-0.125000 I1.305270 J-3.042645
G02 X102.025708 Y176.311307 Z-0.125000 I1.511413 J-2.910777
G02 X102.993473 Y176.418123 Z-0.125000 I0.967765 J-4.330637
G02 X103.498360 Y176.388825 Z-0.125000 I0.000000 J-4.364958
G02 X104.413403 Y176.259373 Z-0.125000 I-2.171966 J-18.651510
G01 X105.004306 Y177.123678 Z-0.125000
G03 X104.427569 Y177.198304 Z-0.125000 I-1.822179 J-11.816552
G03 X103.998889 Y177.220692 Z-0.125000 I-0.428679 J-4.092927
G01 X103.998889 Y177.220692 Z-0.125000
G00 Z5.000000

(End cutting path id: path2998-4)


(Start cutting path id: path2998-4)
(Change tool to Default tool)

G00 Z5.000000
G00 X100.030139 Y176.638609

G01 Z-0.125000 F100.0(Penetrate)
G03 X97.137518 Y174.059993 Z-0.125000 I15.936852 J-20.789269 F400.000000
G03 X96.202501 Y172.678678 Z-0.125000 I3.470041 J-3.356000
G03 X95.586446 Y171.004626 Z-0.125000 I10.981366 J-4.991546
G03 X94.500348 Y166.743192 Z-0.125000 I72.757158 J-20.812509
G01 X90.884376 Y150.859373 Z-0.125000
G03 X91.647390 Y151.146269 Z-0.125000 I-12.804028 J35.211077
G02 X91.854514 Y151.220970 Z-0.125000 I1.634714 J-4.208067
G02 X92.242416 Y151.344445 Z-0.125000 I4.741243 J-14.223730
G03 X92.956945 Y151.582567 Z-0.125000 I-4.037753 J13.307127
G03 X93.163262 Y151.652643 Z-0.125000 I-6.070605 J18.211814
G02 X93.847709 Y151.873609 Z-0.125000 I5.646683 J-16.320204
G01 X93.962362 Y152.393956 Z-0.125000
G02 X93.253552 Y152.150125 Z-0.125000 I-7.342161 J20.191294
G03 X92.868751 Y152.023539 Z-0.125000 I15.880647 J-48.922930
G03 X92.659745 Y151.948856 Z-0.125000 I1.637121 J-4.911363
G02 X91.889792 Y151.661942 Z-0.125000 I-18.481122 J48.418803
G01 X95.505764 Y167.554581 Z-0.125000
G02 X96.598254 Y171.809704 Z-0.125000 I69.545573 J-15.587801
G02 X97.216737 Y173.481248 Z-0.125000 I11.858052 J-3.437368
G02 X97.956548 Y174.623361 Z-0.125000 I4.063874 J-1.821737
G02 X100.030139 Y176.638609 Z-0.125000 I15.107034 J-13.469959
G01 X100.030139 Y176.638609 Z-0.125000
G00 Z5.000000

(End cutting path id: path2998-4)


(Start cutting path id: path3000-3)
(Change tool to Default tool)

G00 Z5.000000
G00 X114.538126 Y174.936456

G01 Z-0.125000 F100.0(Penetrate)
G02 X114.300798 Y174.766608 Z-0.125000 I-11.830393 J16.279731 F400.000000
G02 X113.982501 Y174.548401 Z-0.125000 I-8.578368 J12.171979
G02 X113.733347 Y174.364990 Z-0.125000 I-10.402228 J13.869959
G02 X113.497431 Y174.222081 Z-0.125000 I-0.998198 J1.381655
G03 X113.972873 Y173.114288 Z-0.125000 I5.909369 J1.880260
G03 X115.040834 Y171.382220 Z-0.125000 I17.922094 J9.855148
G02 X115.652936 Y171.925407 Z-0.125000 I53.669426 J-59.862007
G02 X116.010973 Y172.237706 Z-0.125000 I45.354301 J-51.635385
G02 X114.997221 Y173.884633 Z-0.125000 I16.225027 J11.122637
G02 X114.538126 Y174.936456 Z-0.125000 I5.531065 J3.040283
G01 X114.538126 Y174.936456 Z-0.125000
G00 Z5.000000

(End cutting path id: path3000-3)


(Start cutting path id: path3000-3)
(Change tool to Default tool)

G00 Z5.000000
G00 X116.302015 Y176.338748

G01 Z-0.125000 F100.0(Penetrate)
G02 X115.950757 Y176.075425 Z-0.125000 I-4.360616 J5.450865 F400.000000
G03 X115.728751 Y175.888956 Z-0.125000 I0.960639 J-1.369115
G02 X115.668412 Y175.834009 Z-0.125000 I-0.617588 J0.617588
G03 X115.587640 Y175.765484 Z-0.125000 I2.907121 J-3.508555
G03 X115.730459 Y175.876600 Z-0.125000 I-1.890177 J2.576816
G02 X115.843403 Y175.968331 Z-0.125000 I6.265819 J-7.599438
G02 X116.099358 Y176.170496 Z-0.125000 I16.380379 J-20.475557
G03 X116.302015 Y176.329928 Z-0.125000 I-18.500349 J23.724571
G01 X116.301997 Y176.334243 Z-0.125000
G01 X116.302015 Y176.338734 Z-0.125000
G01 X116.302015 Y176.338748 Z-0.125000
G00 Z5.000000

(End cutting path id: path3000-3)


(Start cutting path id: path3000-3)
(Change tool to Default tool)

G00 Z5.000000
G00 X117.669028 Y173.587081

G01 Z-0.125000 F100.0(Penetrate)
G03 X117.467279 Y173.424663 Z-0.125000 I18.057131 J-22.636378 F400.000000
G03 X117.289792 Y173.278401 Z-0.125000 I10.409661 J-12.812742
G02 X117.462964 Y173.408534 Z-0.125000 I5.598681 J-7.270008
G03 X117.677848 Y173.569442 Z-0.125000 I-7.854905 J10.713723
G01 X117.669043 Y173.587081 Z-0.125000
G01 X117.669028 Y173.587081 Z-0.125000
G00 Z5.000000

(End cutting path id: path3000-3)


(Start cutting path id: path3000)
(Change tool to Default tool)

G00 Z5.000000
G00 X116.062920 Y172.187815

G01 Z-0.125000 F100.0(Penetrate)
G02 X117.300131 Y173.259128 Z-0.125000 I31.667995 J-35.321910 F400.000000
G02 X118.704520 Y174.382375 Z-0.125000 I26.482864 J-31.671768
G03 X118.297750 Y175.124704 Z-0.125000 I-10.061707 J-5.030853
G03 X118.176200 Y175.317095 Z-0.125000 I-3.978222 J-2.378783
G02 X117.925728 Y175.825117 Z-0.125000 I45.327093 J22.663547
G02 X117.566600 Y176.617575 Z-0.125000 I14.506462 J7.051678
G02 X117.450502 Y176.854813 Z-0.125000 I13.838388 J6.919194
G02 X117.322760 Y177.145895 Z-0.125000 I4.340527 J2.078415
G02 X116.974137 Y176.884177 Z-0.125000 I-4.425687 J5.532204
G03 X116.753800 Y176.698855 Z-0.125000 I0.963326 J-1.368984
G02 X116.488929 Y176.464604 Z-0.125000 I-2.041922 J2.041958
G03 X115.859720 Y175.967335 Z-0.125000 I41.558208 J-53.231540
G02 X115.548643 Y175.732082 Z-0.125000 I-4.472655 J5.590916
G02 X115.006280 Y175.357735 Z-0.125000 I-11.877762 J16.628752
G02 X114.755765 Y175.174931 Z-0.125000 I-7.103093 J9.471010
G02 X114.518600 Y175.032615 Z-0.125000 I-1.043017 J1.469387
G03 X114.994236 Y173.922909 Z-0.125000 I5.947428 J1.892369
G03 X116.062920 Y172.187815 Z-0.125000 I17.787111 J9.758825
G00 Z5.000000

(End cutting path id: path3000)


(Start cutting path id: path3002-2)
(Change tool to Default tool)

G00 Z5.000000
G00 X122.396251 Y165.684859

G01 Z-0.125000 F100.0(Penetrate)
G03 X122.025599 Y165.615821 Z-0.125000 I0.000000 J-1.029497 F400.000000
G03 X119.265348 Y164.458956 Z-0.125000 I18.857716 J-48.865429
G01 X119.450556 Y165.270345 Z-0.125000
G03 X118.983012 Y164.996959 Z-0.125000 I29.335514 J-50.706062
G03 X118.506876 Y164.714720 Z-0.125000 I104.331569 J-176.549672
G01 X118.259931 Y163.656387 Z-0.125000
G02 X121.020196 Y164.805367 Z-0.125000 I19.901538 J-43.920588
G02 X121.390834 Y164.873470 Z-0.125000 I0.370638 J-0.974518
G02 X121.725610 Y164.718473 Z-0.125000 I0.000000 J-0.439037
G02 X121.875903 Y164.309025 Z-0.125000 I-0.482585 J-0.409447
G02 X121.710752 Y162.844169 Z-0.125000 I-6.579061 J0.000000
G02 X120.085556 Y156.380345 Z-0.125000 I-149.127980 J34.058949
G01 X119.150695 Y153.090692 Z-0.125000
G03 X119.031129 Y152.649915 Z-0.125000 I16.368945 J-4.676888
G03 X118.586251 Y150.894650 Z-0.125000 I270.001182 J-69.366780
G01 X121.637778 Y152.076456 Z-0.125000
G01 X121.752431 Y152.535067 Z-0.125000
G01 X119.591667 Y151.706039 Z-0.125000
G02 X120.043605 Y153.454257 Z-0.125000 I109.537824 J-27.384456
G02 X120.164931 Y153.893262 Z-0.125000 I25.390610 J-6.780862
G01 X121.099792 Y157.191734 Z-0.125000
G03 X122.717566 Y163.648372 Z-0.125000 I-141.977195 J39.004754
G03 X122.881320 Y165.111595 Z-0.125000 I-6.455409 J1.463223
G03 X122.732012 Y165.526731 Z-0.125000 I-0.651774 J-0.000000
G03 X122.396251 Y165.684859 Z-0.125000 I-0.335761 J-0.277405
G01 X122.396251 Y165.684859 Z-0.125000
G00 Z5.000000

(End cutting path id: path3002-2)


(Start cutting path id: path3002-2)
(Change tool to Default tool)

G00 Z5.000000
G00 X130.810001 Y165.684859

G01 Z-0.125000 F100.0(Penetrate)
G03 X130.270427 Y165.544030 Z-0.125000 I-0.000000 J-1.104079 F400.000000
G03 X125.042084 Y162.430484 Z-0.125000 I56.110218 J-100.168208
G01 X124.989167 Y162.227637 Z-0.125000
G02 X129.282778 Y164.741095 Z-0.125000 I40.540979 J-64.330055
G02 X129.804584 Y164.873470 Z-0.125000 I0.521806 J-0.962258
G02 X130.110727 Y164.726881 Z-0.125000 I0.000000 J-0.392975
G02 X130.245556 Y164.344303 Z-0.125000 I-0.475365 J-0.382578
G02 X130.162006 Y163.566503 Z-0.125000 I-3.662206 J0.000000
G02 X128.746251 Y157.562150 Z-0.125000 I-171.821632 J37.344433
G03 X127.780880 Y153.365027 Z-0.125000 I128.585607 J-31.785256
G03 X127.687917 Y152.482150 Z-0.125000 I4.145898 J-0.882877
G03 X127.808168 Y151.719411 Z-0.125000 I2.479115 J0.000000
G03 X128.296459 Y150.656525 Z-0.125000 I4.730616 J1.529646
G03 X131.168268 Y152.198024 Z-0.125000 I-10.522440 J23.049119
G03 X135.819445 Y155.366109 Z-0.125000 I-36.325008 J58.328352
G01 X135.845889 Y155.463123 Z-0.125000
G02 X131.826762 Y152.797750 Z-0.125000 I-39.069011 J54.549417
G02 X129.310681 Y151.459095 Z-0.125000 I-12.274148 J20.036095
G02 X128.816914 Y152.521931 Z-0.125000 I4.409242 J2.694537
G02 X128.693320 Y153.284720 Z-0.125000 I2.292063 J0.762789
G02 X128.786283 Y154.167597 Z-0.125000 I4.238861 J-0.000000
G02 X129.751653 Y158.364720 Z-0.125000 I129.550978 J-27.588133
G03 X131.175361 Y164.376878 Z-0.125000 I-180.575278 J45.935734
G03 X131.259778 Y165.155692 Z-0.125000 I-3.550367 J0.778814
G03 X131.121059 Y165.539084 Z-0.125000 I-0.599167 J0.000000
G03 X130.809987 Y165.684859 Z-0.125000 I-0.311072 J-0.259014
G01 X130.810001 Y165.684859 Z-0.125000
G00 Z5.000000

(End cutting path id: path3002-2)


(Start cutting path id: path2998-4)
(Change tool to Default tool)

G00 Z5.000000
G00 X97.375487 Y160.481387

G01 Z-0.125000 F100.0(Penetrate)
G01 X96.440626 Y159.908123 Z-0.125000 F400.000000
G01 X96.378889 Y159.643539 Z-0.125000
G01 X98.645487 Y154.387150 Z-0.125000
G03 X101.317280 Y149.267400 Z-0.125000 I32.475609 J13.690695
G03 X103.116945 Y147.278678 Z-0.125000 I6.605893 J4.169258
G03 X106.183181 Y145.637911 Z-0.125000 I6.514251 J8.488271
G03 X109.537501 Y145.082636 Z-0.125000 I3.354319 J9.853793
G03 X112.069940 Y145.469718 Z-0.125000 I-0.000000 J8.477647
G03 X113.964862 Y146.502567 Z-0.125000 I-1.657717 J5.296027
G01 X113.929584 Y146.617220 Z-0.125000
G02 X112.478066 Y146.093576 Z-0.125000 I-2.574140 J4.861811
G02 X110.542917 Y145.894025 Z-0.125000 I-1.935149 J9.283312
G02 X107.188673 Y146.445161 Z-0.125000 I0.000000 J10.482625
G02 X104.122362 Y148.081248 Z-0.125000 I3.396938 J10.057900
G02 X102.322367 Y150.072536 Z-0.125000 I4.794878 J6.143438
G02 X99.650903 Y155.198539 Z-0.125000 I30.053763 J18.921929
G01 X97.375487 Y160.481387 Z-0.125000
G01 X97.375487 Y160.481387 Z-0.125000
G00 Z5.000000

(End cutting path id: path2998-4)


(Start cutting path id: path2998)
(Change tool to Default tool)

G00 Z5.000000
G00 X91.904345 Y151.664615

G01 Z-0.125000 F100.0(Penetrate)
G03 X92.671466 Y151.954802 Z-0.125000 I-10.887210 J29.939828 F400.000000
G02 X92.879705 Y152.030375 Z-0.125000 I1.536021 J-3.907773
G02 X93.265795 Y152.155321 Z-0.125000 I7.317591 J-21.952773
G03 X93.976985 Y152.396135 Z-0.125000 I-5.048761 J16.080953
G02 X94.184072 Y152.464688 Z-0.125000 I16.662929 J-49.988786
G02 X94.871065 Y152.680615 Z-0.125000 I8.597017 J-26.151430
G01 X96.456025 Y159.914535 Z-0.125000
G01 X97.390745 Y160.483495 Z-0.125000
G01 X99.666585 Y155.200295 Z-0.125000
G03 X102.337551 Y150.078063 Z-0.125000 I32.615028 J13.749469
G03 X104.136985 Y148.088295 Z-0.125000 I6.597807 J4.158148
G03 X107.203505 Y146.448273 Z-0.125000 I6.505084 J8.476325
G03 X110.558105 Y145.893735 Z-0.125000 I3.354600 J9.869324
G03 X113.091932 Y146.281904 Z-0.125000 I0.000000 J8.464033
G03 X114.987865 Y147.316135 Z-0.125000 I-1.665323 J5.307749
G01 X114.175065 Y150.242215 Z-0.125000
G02 X111.992441 Y147.845298 Z-0.125000 I-6.893655 J4.085134
G02 X109.989145 Y147.194215 Z-0.125000 I-2.003296 J2.756396
G02 X107.728224 Y147.980465 Z-0.125000 I0.000000 J3.643851
G02 X105.112345 Y151.055015 Z-0.125000 I6.415235 J8.108282
G02 X104.328212 Y152.613653 Z-0.125000 I42.044044 J22.128444
G02 X99.666585 Y162.393575 Z-0.125000 I1651.340681 J793.117062
G01 X102.389465 Y164.872615 Z-0.125000
G02 X104.392238 Y166.347356 Z-0.125000 I8.603718 J-9.586983
G02 X105.234265 Y166.579495 Z-0.125000 I0.842027 J-1.411051
G02 X106.058021 Y166.334741 Z-0.125000 I-0.000000 J-1.508612
G02 X107.063065 Y165.400935 Z-0.125000 I-2.200473 J-3.376105
G01 X109.135705 Y168.489575 Z-0.125000
G03 X108.010099 Y169.107448 Z-0.125000 I-2.403665 J-3.044642
G03 X106.859865 Y169.302375 Z-0.125000 I-1.150234 J-3.296210
G03 X105.582452 Y169.000819 Z-0.125000 I0.000000 J-2.856386
G03 X103.852505 Y167.798695 Z-0.125000 I3.290666 J-6.581339
G03 X102.518152 Y166.520312 Z-0.125000 I58.355061 J-62.245542
G02 X102.104985 Y166.132455 Z-0.125000 I-9.441342 J9.643448
G01 X96.862425 Y161.458855 Z-0.125000
G01 X98.406745 Y167.676775 Z-0.125000
G02 X100.189329 Y174.038674 Z-0.125000 I90.823739 J-22.017840
G02 X100.845145 Y175.479655 Z-0.125000 I6.376699 J-2.032420
G02 X102.204934 Y176.765414 Z-0.125000 I3.117325 J-1.934892
G02 X104.015065 Y177.227175 Z-0.125000 I1.810131 J-3.317029
G02 X104.520831 Y177.196583 Z-0.125000 I-0.000000 J-4.196092
G02 X105.437465 Y177.064615 Z-0.125000 I-2.518653 J-20.743693
G01 X107.063065 Y179.421735 Z-0.125000
G03 X106.364979 Y179.515885 Z-0.125000 I-2.880949 J-18.726170
G03 X105.884505 Y179.543655 Z-0.125000 I-0.480474 J-4.142572
G03 X104.001313 Y179.233853 Z-0.125000 I-0.000000 J-5.878558
G03 X102.186265 Y178.283815 Z-0.125000 I2.110535 J-6.241030
G03 X98.366357 Y175.116119 Z-0.125000 I17.968275 J-25.554892
G03 X97.228185 Y173.488295 Z-0.125000 I3.691259 J-3.792741
G03 X96.610777 Y171.814830 Z-0.125000 I11.104503 J-5.047517
G03 X95.521305 Y167.554855 Z-0.125000 I70.705112 J-20.351865
G01 X91.904345 Y151.664615 Z-0.125000
G00 Z5.000000

(End cutting path id: path2998)


(Start cutting path id: path2996)
(Change tool to Default tool)

G00 Z5.000000
G00 X84.573270 Y166.904615

G01 Z-0.125000 F100.0(Penetrate)
G02 X86.301076 Y165.966440 Z-0.125000 I-0.000000 J-2.060109 F400.000000
G02 X87.214870 Y162.881255 Z-0.125000 I-4.751261 J-3.085185
G02 X86.869345 Y160.283278 Z-0.125000 I-9.939758 J-0.000000
G02 X85.629910 Y157.069735 Z-0.125000 I-16.063517 J4.349765
G02 X83.422086 Y154.213192 Z-0.125000 I-8.099800 J3.978854
G02 X81.484630 Y153.493415 Z-0.125000 I-1.937457 J2.247681
G02 X79.680405 Y154.426586 Z-0.125000 I-0.000000 J2.210761
G02 X78.761750 Y157.313575 Z-0.125000 I4.077035 J2.886989
G02 X80.863285 Y164.817939 Z-0.125000 I14.449415 J-0.000000
G02 X84.573270 Y166.904615 Z-0.125000 I3.709984 J-2.254725
G00 Z5.000000

(End cutting path id: path2996)


(Start cutting path id: path2996-9)
(Change tool to Default tool)

G00 Z5.000000
G00 X84.560834 Y166.901942

G01 Z-0.125000 F100.0(Penetrate)
G03 X83.297210 Y166.593966 Z-0.125000 I0.000000 J-2.746303 F400.000000
G03 X81.915000 Y165.587845 Z-0.125000 I2.613214 J-5.042537
G02 X82.753621 Y165.973486 Z-0.125000 I2.072089 J-3.401337
G02 X83.546598 Y166.099373 Z-0.125000 I0.792976 J-2.434586
G02 X85.277252 Y165.159502 Z-0.125000 I0.000000 J-2.063327
G02 X86.192431 Y162.068887 Z-0.125000 I-4.761009 J-3.090615
G02 X85.845871 Y159.470680 Z-0.125000 I-9.912822 J0.000000
G02 X84.604931 Y156.256873 Z-0.125000 I-16.122761 J4.378959
G02 X83.801046 Y154.875452 Z-0.125000 I-10.194479 J5.007827
G02 X83.035070 Y153.937359 Z-0.125000 I-5.742530 J3.907149
G03 X84.266503 Y154.980086 Z-0.125000 I-2.330008 J4.000184
G03 X85.619167 Y157.068262 Z-0.125000 I-8.115551 J6.739235
G03 X86.854976 Y160.282100 Z-0.125000 I-14.676694 J7.488109
G03 X87.197848 Y162.880275 Z-0.125000 I-9.672638 J2.598176
G03 X86.286259 Y165.963898 Z-0.125000 I-5.671267 J0.000000
G03 X84.560834 Y166.901942 Z-0.125000 I-1.725426 J-1.117840
G01 X84.560834 Y166.901942 Z-0.125000
G00 Z5.000000

(End cutting path id: path2996-9)


(Start cutting path id: path2996)
(Change tool to Default tool)

G00 Z5.000000
G00 X86.686550 Y168.814695

G01 Z-0.125000 F100.0(Penetrate)
G03 X84.185916 Y168.276765 Z-0.125000 I-0.000000 J-6.081210 F400.000000
G03 X80.062230 Y165.847975 Z-0.125000 I9.086424 J-20.142325
G03 X76.922376 Y161.869068 Z-0.125000 I5.932133 J-7.909513
G03 X75.632470 Y155.647335 Z-0.125000 I14.359994 J-6.221733
G03 X76.740180 Y152.688550 Z-0.125000 I4.505433 J0.000000
G03 X79.168150 Y151.583335 Z-0.125000 I2.427969 J2.114310
G03 X80.678255 Y151.834531 Z-0.125000 I-0.000000 J4.664718
G03 X83.313430 Y152.965095 Z-0.125000 I-6.144525 J17.958345
G03 X86.167819 Y154.836060 Z-0.125000 I-11.968453 J21.372209
G03 X87.418070 Y156.094375 Z-0.125000 I-3.882483 J5.107876
G03 X89.582639 Y160.287885 Z-0.125000 I-11.824471 J8.758852
G03 X90.344150 Y165.075815 Z-0.125000 I-14.671090 J4.787930
G03 X89.264154 Y167.728625 Z-0.125000 I-3.798065 J0.000000
G03 X86.686550 Y168.814695 Z-0.125000 I-2.577604 J-2.515717
G00 Z5.000000

(End cutting path id: path2996)


(Start cutting path id: path2996-9)
(Change tool to Default tool)

G00 Z5.000000
G00 X79.436737 Y165.332081

G01 Z-0.125000 F100.0(Penetrate)
G03 X79.238333 Y165.188302 Z-0.125000 I8.041132 J-11.304906 F400.000000
G03 X79.039862 Y165.041039 Z-0.125000 I30.296839 J-41.039551
G03 X75.900849 Y161.060703 Z-0.125000 I5.926025 J-7.901369
G03 X74.612500 Y154.836942 Z-0.125000 I14.388717 J-6.223761
G03 X75.720421 Y151.876932 Z-0.125000 I4.508063 J0.000000
G03 X78.149098 Y150.771178 Z-0.125000 I2.428677 J2.114296
G03 X79.659164 Y151.023345 Z-0.125000 I-0.000000 J4.647492
G03 X82.294237 Y152.155831 Z-0.125000 I-6.220287 J18.105281
G03 X84.313656 Y153.404501 Z-0.125000 I-13.400008 J23.928540
G03 X85.522153 Y154.351873 Z-0.125000 I-6.374398 J9.375868
G02 X84.573931 Y153.714342 Z-0.125000 I-10.572624 J14.701119
G02 X83.299653 Y152.958400 Z-0.125000 I-15.789706 J25.164447
G02 X80.664544 Y151.831795 Z-0.125000 I-8.631143 J16.543046
G02 X79.154514 Y151.582567 Z-0.125000 I-1.510029 J4.449891
G02 X76.725837 Y152.688321 Z-0.125000 I0.000000 J3.220050
G02 X75.617917 Y155.648331 Z-0.125000 I3.400143 J2.960010
G02 X76.708997 Y161.343311 Z-0.125000 I15.408242 J0.000000
G02 X79.436737 Y165.332081 Z-0.125000 I10.231599 J-4.069853
G01 X79.436737 Y165.332081 Z-0.125000
G00 Z5.000000

(End cutting path id: path2996-9)


(Start cutting path id: path2994-7)
(Change tool to Default tool)

G00 Z5.000000
G00 X68.985695 Y165.684859

G01 Z-0.125000 F100.0(Penetrate)
G03 X68.180359 Y165.476812 Z-0.125000 I0.000000 J-1.662726 F400.000000
G03 X63.949792 Y162.959650 Z-0.125000 I38.322087 J-69.221243
G01 X63.896875 Y162.756803 Z-0.125000
G02 X67.307170 Y164.706545 Z-0.125000 I31.064591 J-50.377757
G02 X67.980278 Y164.873470 Z-0.125000 I0.673109 J-1.273657
G02 X68.321929 Y164.696537 Z-0.125000 I-0.000000 J-0.418324
G02 X68.509445 Y164.106178 Z-0.125000 I-0.835559 J-0.590359
G02 X68.386176 Y162.941938 Z-0.125000 I-5.559603 J0.000000
G02 X67.045417 Y157.191734 Z-0.125000 I-159.478810 J34.153815
G03 X66.305288 Y153.922507 Z-0.125000 I54.255639 J-14.001471
G03 X66.189931 Y152.729095 Z-0.125000 I6.115461 J-1.193412
G03 X66.443028 Y151.723535 Z-0.125000 I2.124105 J0.000000
G03 X67.168889 Y150.894650 Z-0.125000 I2.164758 J1.163434
G03 X70.449539 Y152.743892 Z-0.125000 I-14.724343 J29.956386
G03 X74.074514 Y155.322012 Z-0.125000 I-24.754779 J38.644069
G01 X74.074514 Y155.357289 Z-0.125000
G02 X71.055902 Y153.298598 Z-0.125000 I-24.060463 J32.036905
G02 X68.174306 Y151.706039 Z-0.125000 I-18.002747 J29.171121
G02 X67.449276 Y152.530816 Z-0.125000 I1.446062 J2.002240
G02 X67.195348 Y153.531664 Z-0.125000 I1.845437 J1.000848
G02 X67.310494 Y154.727434 Z-0.125000 I6.266481 J-0.000000
G02 X68.050834 Y158.003123 Z-0.125000 I54.446181 J-10.583899
G03 X69.391446 Y163.745992 Z-0.125000 I-160.231498 J40.432273
G03 X69.514862 Y164.908748 Z-0.125000 I-5.415742 J1.162756
G03 X69.328353 Y165.505406 Z-0.125000 I-1.047639 J-0.000000
G03 X68.985695 Y165.684859 Z-0.125000 I-0.342658 J-0.237420
G01 X68.985695 Y165.684859 Z-0.125000
G00 Z5.000000

(End cutting path id: path2994-7)


(Start cutting path id: path2994-7)
(Change tool to Default tool)

G00 Z5.000000
G00 X61.065834 Y165.482012

G01 Z-0.125000 F100.0(Penetrate)
G03 X60.325048 Y165.283570 Z-0.125000 I0.000000 J-1.481901 F400.000000
G03 X56.144584 Y162.677428 Z-0.125000 I36.237884 J-62.784509
G01 X56.100486 Y162.492220 Z-0.125000
G02 X59.398853 Y164.499466 Z-0.125000 I31.320453 J-47.753095
G02 X60.051598 Y164.670623 Z-0.125000 I0.652745 J-1.159114
G02 X60.394689 Y164.472788 Z-0.125000 I-0.000000 J-0.396418
G02 X60.580764 Y163.779859 Z-0.125000 I-1.197170 J-0.692929
G02 X60.298583 Y161.480891 Z-0.125000 I-9.506092 J0.000000
G02 X57.335209 Y150.894650 Z-0.125000 I-186.003623 J46.359550
G01 X60.422014 Y151.997081 Z-0.125000
G01 X60.545486 Y152.482150 Z-0.125000
G01 X58.340625 Y151.706039 Z-0.125000
G03 X61.311137 Y162.285025 Z-0.125000 I-188.228460 J58.559899
G03 X61.595000 Y164.582428 Z-0.125000 I-9.154913 J2.297403
G03 X61.409970 Y165.281862 Z-0.125000 I-1.414482 J0.000000
G03 X61.065834 Y165.482012 Z-0.125000 I-0.344136 J-0.195779
G01 X61.065834 Y165.482012 Z-0.125000
G00 Z5.000000

(End cutting path id: path2994-7)


(Start cutting path id: path2994-7)
(Change tool to Default tool)

G00 Z5.000000
G00 X53.216528 Y165.482012

G01 Z-0.125000 F100.0(Penetrate)
G03 X52.737189 Y165.388377 Z-0.125000 I0.000000 J-1.273753 F400.000000
G03 X50.209098 Y164.256109 Z-0.125000 I14.783623 J-36.396827
G01 X50.447223 Y165.182150 Z-0.125000
G03 X49.959867 Y164.885310 Z-0.125000 I184.208898 J-302.984705
G03 X49.485903 Y164.591248 Z-0.125000 I19.547290 J-32.034907
G01 X49.203681 Y163.453539 Z-0.125000
G02 X51.731794 Y164.578237 Z-0.125000 I16.148018 J-32.894070
G02 X52.211111 Y164.670623 Z-0.125000 I0.479318 J-1.197203
G02 X52.626657 Y164.467044 Z-0.125000 I0.000000 J-0.525896
G02 X52.819653 Y163.903331 Z-0.125000 I-0.726764 J-0.563713
G02 X52.677235 Y162.712185 Z-0.125000 I-5.052413 J0.000000
G02 X49.653473 Y150.894650 Z-0.125000 I-474.261451 J115.054054
G01 X52.537431 Y151.997081 Z-0.125000
G01 X52.660903 Y152.464512 Z-0.125000
G01 X50.658889 Y151.706039 Z-0.125000
G03 X53.682560 Y163.515561 Z-0.125000 I-476.876050 J128.389608
G03 X53.825070 Y164.705900 Z-0.125000 I-4.900010 J1.190339
G03 X53.633086 Y165.275476 Z-0.125000 I-0.940898 J0.000000
G03 X53.216528 Y165.482012 Z-0.125000 I-0.416558 J-0.316807
G01 X53.216528 Y165.482012 Z-0.125000
G00 Z5.000000

(End cutting path id: path2994-7)


(Start cutting path id: path2992)
(Change tool to Default tool)

G00 Z5.000000
G00 X45.252800 Y168.814695

G01 Z-0.125000 F100.0(Penetrate)
G03 X42.752166 Y168.276765 Z-0.125000 I-0.000000 J-6.081210 F400.000000
G03 X38.628480 Y165.847975 Z-0.125000 I9.086424 J-20.142325
G03 X35.488626 Y161.869068 Z-0.125000 I5.932133 J-7.909513
G03 X34.198719 Y155.647335 Z-0.125000 I14.359994 J-6.221733
G03 X35.306430 Y152.688550 Z-0.125000 I4.505433 J0.000000
G03 X37.734400 Y151.583335 Z-0.125000 I2.427969 J2.114310
G03 X39.244505 Y151.834531 Z-0.125000 I-0.000000 J4.664718
G03 X41.879680 Y152.965095 Z-0.125000 I-6.144525 J17.958345
G03 X44.734069 Y154.836060 Z-0.125000 I-11.968453 J21.372209
G03 X45.984320 Y156.094375 Z-0.125000 I-3.882483 J5.107876
G03 X48.148889 Y160.287885 Z-0.125000 I-11.824471 J8.758852
G03 X48.910400 Y165.075815 Z-0.125000 I-14.671090 J4.787930
G03 X47.830404 Y167.728625 Z-0.125000 I-3.798065 J0.000000
G03 X45.252800 Y168.814695 Z-0.125000 I-2.577604 J-2.515717
G00 Z5.000000

(End cutting path id: path2992)


(Start cutting path id: path2992)
(Change tool to Default tool)

G00 Z5.000000
G00 X43.139520 Y166.904615

G01 Z-0.125000 F100.0(Penetrate)
G02 X44.867326 Y165.966440 Z-0.125000 I-0.000000 J-2.060109 F400.000000
G02 X45.781120 Y162.881255 Z-0.125000 I-4.751261 J-3.085185
G02 X45.435594 Y160.283278 Z-0.125000 I-9.939758 J0.000000
G02 X44.196160 Y157.069735 Z-0.125000 I-16.063517 J4.349765
G02 X41.988336 Y154.213192 Z-0.125000 I-8.099800 J3.978854
G02 X40.050880 Y153.493415 Z-0.125000 I-1.937457 J2.247681
G02 X38.246654 Y154.426586 Z-0.125000 I0.000000 J2.210761
G02 X37.328000 Y157.313575 Z-0.125000 I4.077035 J2.886989
G02 X39.429535 Y164.817939 Z-0.125000 I14.449415 J-0.000000
G02 X43.139520 Y166.904615 Z-0.125000 I3.709984 J-2.254725
G00 Z5.000000

(End cutting path id: path2992)


(Start cutting path id: path2992-5)
(Change tool to Default tool)

G00 Z5.000000
G00 X43.127084 Y166.901942

G01 Z-0.125000 F100.0(Penetrate)
G03 X41.863460 Y166.593966 Z-0.125000 I-0.000000 J-2.746303 F400.000000
G03 X40.481250 Y165.587845 Z-0.125000 I2.613214 J-5.042537
G02 X41.319871 Y165.973486 Z-0.125000 I2.072089 J-3.401337
G02 X42.112847 Y166.099373 Z-0.125000 I0.792976 J-2.434586
G02 X43.843502 Y165.159502 Z-0.125000 I-0.000000 J-2.063327
G02 X44.758681 Y162.068887 Z-0.125000 I-4.761009 J-3.090615
G02 X44.412120 Y159.470680 Z-0.125000 I-9.912822 J0.000000
G02 X43.171181 Y156.256873 Z-0.125000 I-16.122761 J4.378959
G02 X42.367295 Y154.875452 Z-0.125000 I-10.194479 J5.007827
G02 X41.601320 Y153.937359 Z-0.125000 I-5.742530 J3.907149
G03 X42.832753 Y154.980086 Z-0.125000 I-2.330008 J4.000184
G03 X44.185417 Y157.068262 Z-0.125000 I-8.115551 J6.739235
G03 X45.421225 Y160.282100 Z-0.125000 I-14.676694 J7.488109
G03 X45.764097 Y162.880275 Z-0.125000 I-9.672638 J2.598176
G03 X44.852509 Y165.963898 Z-0.125000 I-5.671267 J0.000000
G03 X43.127084 Y166.901942 Z-0.125000 I-1.725426 J-1.117840
G01 X43.127084 Y166.901942 Z-0.125000
G00 Z5.000000

(End cutting path id: path2992-5)


(Start cutting path id: path2992-5)
(Change tool to Default tool)

G00 Z5.000000
G00 X38.002986 Y165.332081

G01 Z-0.125000 F100.0(Penetrate)
G03 X37.804583 Y165.188302 Z-0.125000 I8.041132 J-11.304906 F400.000000
G03 X37.606111 Y165.041039 Z-0.125000 I30.296839 J-41.039551
G03 X34.467098 Y161.060703 Z-0.125000 I5.926025 J-7.901369
G03 X33.178750 Y154.836942 Z-0.125000 I14.388717 J-6.223761
G03 X34.286670 Y151.876932 Z-0.125000 I4.508063 J-0.000000
G03 X36.715347 Y150.771178 Z-0.125000 I2.428677 J2.114296
G03 X38.225414 Y151.023345 Z-0.125000 I0.000000 J4.647492
G03 X40.860486 Y152.155831 Z-0.125000 I-6.220287 J18.105281
G03 X42.879906 Y153.404501 Z-0.125000 I-13.400008 J23.928540
G03 X44.088403 Y154.351873 Z-0.125000 I-6.374398 J9.375868
G02 X43.140181 Y153.714342 Z-0.125000 I-10.572624 J14.701119
G02 X41.865903 Y152.958400 Z-0.125000 I-15.789706 J25.164447
G02 X39.230793 Y151.831795 Z-0.125000 I-8.631143 J16.543046
G02 X37.720764 Y151.582567 Z-0.125000 I-1.510029 J4.449891
G02 X35.292087 Y152.688321 Z-0.125000 I-0.000000 J3.220050
G02 X34.184167 Y155.648331 Z-0.125000 I3.400143 J2.960010
G02 X35.275247 Y161.343311 Z-0.125000 I15.408242 J0.000000
G02 X38.002986 Y165.332081 Z-0.125000 I10.231599 J-4.069853
G01 X38.002986 Y165.332081 Z-0.125000
G00 Z5.000000

(End cutting path id: path2992-5)


(Start cutting path id: path2990-7)
(Change tool to Default tool)

G00 Z5.000000
G00 X27.287361 Y163.850414

G01 Z-0.125000 F100.0(Penetrate)
G03 X24.559056 Y163.757186 Z-0.125000 I1.494976 J-83.718571 F400.000000
G03 X18.512014 Y163.409442 Z-0.125000 I21.872980 J-433.107654
G02 X18.380980 Y163.006032 Z-0.125000 I-29.698793 J9.423657
G03 X18.265070 Y162.650970 Z-0.125000 I33.259828 J-11.054154
G02 X23.639422 Y162.958008 Z-0.125000 I24.757022 J-386.154374
G02 X26.281945 Y163.047845 Z-0.125000 I4.106054 J-81.868575
G02 X25.955543 Y161.749406 Z-0.125000 I-51.958912 J12.371210
G03 X25.876250 Y161.380970 Z-0.125000 I3.891143 J-1.030176
G03 X23.619330 Y152.596945 Z-0.125000 I333.634289 J-90.404162
G03 X23.512639 Y151.706039 Z-0.125000 I3.666344 J-0.890906
G03 X23.762362 Y151.120601 Z-0.125000 I0.811097 J0.000000
G03 X24.412222 Y150.859373 Z-0.125000 I0.649860 J0.677717
G03 X24.849824 Y150.900550 Z-0.125000 I-0.000000 J2.345856
G03 X25.549931 Y151.062220 Z-0.125000 I-1.705636 J8.982918
G02 X26.651404 Y151.319188 Z-0.125000 I4.350714 J-16.159794
G02 X31.688264 Y152.279303 Z-0.125000 I70.720066 J-357.312638
G01 X32.199792 Y152.993678 Z-0.125000
G03 X27.639704 Y152.119022 Z-0.125000 I51.780045 J-282.283857
G03 X26.555347 Y151.864789 Z-0.125000 I3.343700 J-16.701203
G02 X25.855241 Y151.703119 Z-0.125000 I-2.405754 J8.821303
G02 X25.417639 Y151.661942 Z-0.125000 I-0.437602 J2.304676
G02 X24.772403 Y151.927795 Z-0.125000 I-0.000000 J0.915935
G02 X24.526875 Y152.517428 Z-0.125000 I0.585238 J0.589633
G02 X24.632882 Y153.407520 Z-0.125000 I3.789859 J0.000000
G02 X26.881667 Y162.183539 Z-0.125000 I319.795048 J-77.268805
G02 X26.960959 Y162.551976 Z-0.125000 I3.970435 J-0.661739
G03 X27.287361 Y163.850414 Z-0.125000 I-51.632510 J13.669649
G01 X27.287361 Y163.850414 Z-0.125000
G00 Z5.000000

(End cutting path id: path2990-7)


(Start cutting path id: path2990)
(Change tool to Default tool)

G00 Z5.000000
G00 X18.971419 Y165.197735

G01 Z-0.125000 F100.0(Penetrate)
G03 X19.327190 Y166.484250 Z-0.125000 I-75.465394 J21.561516 F400.000000
G03 X20.922139 Y172.472295 Z-0.125000 I-3053.893985 J816.628259
G03 X20.983145 Y172.734741 Z-0.125000 I-7.882600 J1.970650
G03 X21.247259 Y173.975975 Z-0.125000 I-287.245045 J61.769595
G01 X22.832219 Y175.317095 Z-0.125000
G02 X21.299893 Y175.380251 Z-0.125000 I10.718405 J278.678222
G03 X20.475099 Y175.398375 Z-0.125000 I-0.824794 J-18.758066
G03 X14.946662 Y174.680672 Z-0.125000 I0.000000 J-21.651501
G03 X11.534299 Y173.041255 Z-0.125000 I2.563483 J-9.706801
G03 X9.173700 Y170.280832 Z-0.125000 I4.828921 J-6.519048
G03 X8.364379 Y166.985895 Z-0.125000 I6.302576 J-3.294937
G03 X8.433472 Y166.214174 Z-0.125000 I4.344371 J-0.000000
G03 X8.730139 Y164.953895 Z-0.125000 I12.116095 J2.187051
G01 X11.778139 Y165.969895 Z-0.125000
G02 X11.391921 Y167.644502 Z-0.125000 I17.421500 J4.899793
G02 X11.290459 Y168.774055 Z-0.125000 I6.236776 J1.129553
G02 X12.072745 Y171.754361 Z-0.125000 I6.068238 J0.000000
G02 X13.891419 Y173.366375 Z-0.125000 I3.245880 J-1.830079
G02 X15.175886 Y173.704137 Z-0.125000 I1.861320 J-4.467165
G02 X18.361819 Y173.894695 Z-0.125000 I3.185933 J-26.537376
G03 X17.777225 Y171.824257 Z-0.125000 I63.338932 J-19.001688
G03 X16.045339 Y165.116455 Z-0.125000 I535.747505 J-141.901982
G01 X14.582299 Y163.572135 Z-0.125000
G01 X15.638939 Y163.490855 Z-0.125000
G02 X12.091051 Y156.547527 Z-0.125000 I-17.310706 J4.467279
G02 X8.445659 Y154.834535 Z-0.125000 I-3.645392 J3.022356
G02 X7.692510 Y154.844133 Z-0.125000 I-0.000000 J29.555080
G02 X6.291739 Y154.915815 Z-0.125000 I0.696995 J27.342616
G01 X4.381659 Y152.274215 Z-0.125000
G03 X5.507246 Y152.148960 Z-0.125000 I3.097738 J22.717253
G03 X6.373019 Y152.111655 Z-0.125000 I0.865773 J10.027845
G03 X8.277035 Y152.230379 Z-0.125000 I-0.000000 J15.327013
G03 X9.502299 Y152.518055 Z-0.125000 I-0.738447 J5.898326
G03 X11.285357 Y153.439729 Z-0.125000 I-1.562529 J5.208424
G03 X14.907419 Y156.703975 Z-0.125000 I-21.209750 J27.176366
G03 X16.762647 Y159.247336 Z-0.125000 I-8.319175 J8.016652
G03 X18.524379 Y163.409575 Z-0.125000 I-21.398047 J11.511017
G02 X24.573414 Y163.761518 Z-0.125000 I30.908243 J-479.077282
G02 X27.302619 Y163.856615 Z-0.125000 I4.165434 J-80.333642
G02 X26.975669 Y162.558672 Z-0.125000 I-50.000968 J11.905015
G03 X26.896219 Y162.190375 Z-0.125000 I3.849045 J-1.023046
G03 X24.645246 Y153.408719 Z-0.125000 I319.601920 J-86.601841
G03 X24.539099 Y152.518055 Z-0.125000 I3.683654 J-0.890664
G03 X24.786078 Y151.929266 Z-0.125000 I0.825318 J-0.000000
G03 X25.433179 Y151.664615 Z-0.125000 I0.647101 J0.658794
G03 X25.870863 Y151.705918 Z-0.125000 I0.000000 J2.339709
G03 X26.571099 Y151.867815 Z-0.125000 I-1.722564 J9.045693
G02 X27.672267 Y152.125159 Z-0.125000 I4.399904 J-16.342483
G02 X32.707739 Y153.087015 Z-0.125000 I67.304720 J-338.689343
G01 X33.439259 Y154.103015 Z-0.125000
G02 X30.792798 Y153.896437 Z-0.125000 I-8.481816 J91.604762
G02 X29.619099 Y153.859175 Z-0.125000 I-1.173699 J18.466550
G02 X28.627571 Y154.215187 Z-0.125000 I0.000000 J1.558760
G02 X28.277979 Y154.956455 Z-0.125000 I0.611091 J0.741269
G02 X28.414664 Y156.198866 Z-0.125000 I5.714854 J0.000000
G02 X30.269339 Y163.897255 Z-0.125000 I223.893445 J-49.867200
G02 X31.840898 Y169.721745 Z-0.125000 I349.105018 J-91.070966
G02 X33.114139 Y173.975975 Z-0.125000 I113.170789 J-31.553034
G02 X34.775232 Y176.839601 Z-0.125000 I7.199877 J-2.262821
G02 X36.405979 Y177.552295 Z-0.125000 I1.630748 J-1.509346
G02 X37.414873 Y177.458818 Z-0.125000 I-0.000000 J-5.491213
G02 X38.559900 Y177.145895 Z-0.125000 I-1.331362 J-7.122991
G01 X39.941660 Y179.381095 Z-0.125000
G03 X38.991623 Y179.600450 Z-0.125000 I-1.861075 J-5.893403
G03 X38.112860 Y179.665575 Z-0.125000 I-0.878764 J-5.896206
G03 X35.976103 Y179.040285 Z-0.125000 I-0.000000 J-3.963530
G03 X31.976219 Y175.723495 Z-0.125000 I11.422222 J-17.844859
G03 X30.279362 Y173.359871 Z-0.125000 I8.434565 J-7.846120
G03 X29.090779 Y170.399655 Z-0.125000 I12.310128 J-6.661474
G01 X27.993499 Y166.457575 Z-0.125000
G02 X27.980773 Y166.369441 Z-0.125000 I-0.311559 J0.000000
G02 X27.627739 Y165.197735 Z-0.125000 I-100.323154 J29.588278
G01 X18.971419 Y165.197735 Z-0.125000
G00 Z5.000000

(End cutting path id: path2990)


(Start cutting path id: path2990-7)
(Change tool to Default tool)

G00 Z5.000000
G00 X18.344445 Y173.895762

G01 Z-0.125000 F100.0(Penetrate)
G03 X15.157756 Y173.704653 Z-0.125000 I-0.000000 J-26.664145 F400.000000
G03 X13.872986 Y173.366595 Z-0.125000 I0.579191 J-4.811561
G03 X13.097126 Y172.929934 Z-0.125000 I1.429386 J-3.447340
G03 X12.461875 Y172.352359 Z-0.125000 I2.404631 J-3.282887
G02 X12.659477 Y172.458376 Z-0.125000 I3.768290 J-6.786425
G02 X12.867570 Y172.555206 Z-0.125000 I1.243406 J-2.400126
G02 X14.152340 Y172.893264 Z-0.125000 I1.863961 J-4.473503
G02 X17.339028 Y173.084373 Z-0.125000 I3.186688 J-26.473037
G03 X16.753722 Y171.014618 Z-0.125000 I64.939747 J-19.481933
G03 X15.019514 Y164.309025 Z-0.125000 I502.963602 J-133.654101
G01 X13.555486 Y162.765623 Z-0.125000
G01 X14.613820 Y162.677428 Z-0.125000
G02 X12.951293 Y157.302052 Z-0.125000 I-57.491689 J14.836568
G02 X11.826875 Y155.410206 Z-0.125000 I-5.510011 J1.994800
G03 X13.421650 Y157.130635 Z-0.125000 I-1.697422 J3.172812
G03 X15.628056 Y163.488817 Z-0.125000 I-37.836004 J16.691709
G01 X14.569722 Y163.568192 Z-0.125000
G01 X16.033750 Y165.111595 Z-0.125000
G02 X17.761204 Y171.823924 Z-0.125000 I614.669077 J-154.609988
G02 X18.344445 Y173.895762 Z-0.125000 I61.043786 J-16.066334
G01 X18.344445 Y173.895762 Z-0.125000
G00 Z5.000000

(End cutting path id: path2990-7)


(Start cutting path id: path2990-7)
(Change tool to Default tool)

G00 Z5.000000
G00 X10.689167 Y172.361178

G01 Z-0.125000 F100.0(Penetrate)
G03 X10.600682 Y172.295537 Z-0.125000 I1.471034 J-2.075415 F400.000000
G02 X10.512778 Y172.228887 Z-0.125000 I-3.025564 J3.899086
G03 X8.149797 Y169.471037 Z-0.125000 I4.848627 J-6.545651
G03 X7.337778 Y166.178748 Z-0.125000 I6.268201 J-3.292289
G03 X7.408418 Y165.405013 Z-0.125000 I4.272773 J0.000000
G03 X7.708194 Y164.141456 Z-0.125000 I12.562997 J2.313212
G01 X10.759722 Y165.164512 Z-0.125000
G03 X10.693199 Y165.394859 Z-0.125000 I-16.533667 J-4.650042
G02 X10.636250 Y165.596664 Z-0.125000 I7.686766 J2.278137
G01 X8.713611 Y164.952845 Z-0.125000
G02 X8.419684 Y166.210938 Z-0.125000 I11.430232 J3.333814
G02 X8.352014 Y166.981317 Z-0.125000 I4.351281 J0.770379
G02 X8.962294 Y169.939943 Z-0.125000 I7.476818 J-0.000000
G02 X10.689167 Y172.361178 Z-0.125000 I6.468845 J-2.787269
G01 X10.689167 Y172.361178 Z-0.125000
G00 Z5.000000

(End cutting path id: path2990-7)


(Start cutting path id: path2990-7)
(Change tool to Default tool)

G00 Z5.000000
G00 X5.265208 Y154.104928

G01 Z-0.125000 F100.0(Penetrate)
G01 X3.360208 Y151.467914 Z-0.125000 F400.000000
G03 X4.486832 Y151.339784 Z-0.125000 I3.438043 J25.212872
G03 X5.353403 Y151.300345 Z-0.125000 I0.866571 J9.500562
G03 X7.253041 Y151.418933 Z-0.125000 I-0.000000 J15.274279
G03 X8.475486 Y151.706039 Z-0.125000 I-0.738101 J5.888718
G03 X9.604370 Y152.232696 Z-0.125000 I-1.238135 J4.127136
G03 X11.659306 Y153.778609 Z-0.125000 I-11.148963 J16.958722
G02 X10.308708 Y152.875223 Z-0.125000 I-8.561504 J11.338505
G02 X9.489722 Y152.517428 Z-0.125000 I-1.887775 J3.204859
G02 X8.263823 Y152.229973 Z-0.125000 I-1.959337 J5.598155
G02 X6.358819 Y152.111734 Z-0.125000 I-1.905003 J15.287072
G02 X5.492249 Y152.147361 Z-0.125000 I-0.000000 J10.556637
G02 X4.365625 Y152.270484 Z-0.125000 I1.744202 J21.176314
G01 X5.670903 Y154.078470 Z-0.125000
G03 X5.482506 Y154.090155 Z-0.125000 I-1.994986 J-30.639438
G02 X5.265208 Y154.104914 Z-0.125000 I0.716453 J12.155550
G01 X5.265208 Y154.104928 Z-0.125000
G00 Z5.000000

(End cutting path id: path2990-7)


(Start cutting path id: path2990-7)
(Change tool to Default tool)

G00 Z5.000000
G00 X33.901945 Y177.608748

G01 Z-0.125000 F100.0(Penetrate)
G03 X32.671364 Y176.603512 Z-0.125000 I8.050680 J-11.111256 F400.000000
G03 X30.956250 Y174.909998 Z-0.125000 I22.536748 J-24.539430
G03 X29.260402 Y172.548933 Z-0.125000 I8.442178 J-7.853201
G03 X28.072292 Y169.591873 Z-0.125000 I12.270311 J-6.647272
G01 X26.969861 Y165.649581 Z-0.125000
G02 X26.965309 Y165.615126 Z-0.125000 I-0.132673 J0.000000
G02 X26.846389 Y165.190970 Z-0.125000 I-19.996629 J5.377684
G01 X27.613681 Y165.190970 Z-0.125000
G03 X27.962838 Y166.363924 Z-0.125000 I-63.726845 J19.608260
G03 X27.975278 Y166.452150 Z-0.125000 I-0.306652 J0.088227
G01 X29.077709 Y170.394442 Z-0.125000
G02 X30.265409 Y173.356339 Z-0.125000 I13.557430 J-3.717360
G02 X31.961667 Y175.721387 Z-0.125000 I10.103269 J-5.455441
G02 X33.033788 Y176.809794 Z-0.125000 I24.931701 J-23.486392
G02 X33.901945 Y177.608748 Z-0.125000 I15.380277 J-15.841319
G01 X33.901945 Y177.608748 Z-0.125000
G00 Z5.000000

(End cutting path id: path2990-7)


(Start cutting path id: path2990-7)
(Change tool to Default tool)

G00 Z5.000000
G00 X36.389028 Y177.547012

G01 Z-0.125000 F100.0(Penetrate)
G03 X35.144928 Y177.294703 Z-0.125000 I-0.000000 J-3.193396 F400.000000
G03 X34.228264 Y176.568053 Z-0.125000 I0.853949 J-2.018758
G02 X34.728192 Y176.697397 Z-0.125000 I0.836252 J-2.201389
G02 X35.383611 Y176.744442 Z-0.125000 I0.655420 J-4.542070
G02 X36.391579 Y176.651202 Z-0.125000 I0.000000 J-5.494889
G02 X37.535556 Y176.338748 Z-0.125000 I-1.325587 J-7.103754
G01 X38.126459 Y177.282428 Z-0.125000
G03 X37.274845 Y177.481257 Z-0.125000 I-1.647826 J-5.134693
G03 X36.389028 Y177.547012 Z-0.125000 I-0.885817 J-5.933746
G01 X36.389028 Y177.547012 Z-0.125000
G00 Z5.000000

(End cutting path id: path2990-7)


(Start cutting path id: path2994)
(Change tool to Default tool)

G00 Z5.000000
G00 X53.559235 Y152.802535

G01 Z-0.125000 F100.0(Penetrate)
G01 X56.160195 Y162.678055 Z-0.125000 F400.000000
G02 X60.337414 Y165.283714 Z-0.125000 I40.711621 J-60.615017
G02 X61.077635 Y165.482215 Z-0.125000 I0.740221 J-1.280910
G02 X61.420738 Y165.283452 Z-0.125000 I-0.000000 J-0.395513
G02 X61.605955 Y164.588135 Z-0.125000 I-1.212530 J-0.695317
G02 X61.322766 Y162.289578 Z-0.125000 I-9.469955 J-0.000000
G02 X58.354755 Y151.705255 Z-0.125000 I-188.936875 J47.272591
G01 X61.443395 Y152.802535 Z-0.125000
G01 X63.963075 Y162.962535 Z-0.125000
G02 X68.196566 Y165.477780 Z-0.125000 I41.710523 J-65.383985
G02 X69.002435 Y165.685415 Z-0.125000 I0.805868 J-1.460036
G02 X69.344235 Y165.507023 Z-0.125000 I0.000000 J-0.416641
G02 X69.530755 Y164.913255 Z-0.125000 I-0.851840 J-0.593768
G02 X69.407553 Y163.749966 Z-0.125000 I-5.553579 J-0.000000
G02 X68.067715 Y158.004455 Z-0.125000 I-159.600416 J34.189427
G03 X67.328915 Y154.729541 Z-0.125000 I52.994337 J-13.675973
G03 X67.214275 Y153.534055 Z-0.125000 I6.176025 J-1.195486
G03 X67.466338 Y152.531604 Z-0.125000 I2.119398 J0.000000
G03 X68.189635 Y151.705255 Z-0.125000 I2.156027 J1.157431
G03 X71.471795 Y153.555509 Z-0.125000 I-14.721749 J29.951110
G03 X75.098435 Y156.135015 Z-0.125000 I-24.788658 J38.690625
G01 X75.098435 Y157.069735 Z-0.125000
G03 X74.511841 Y156.740298 Z-0.125000 I3.130563 J-6.261213
G03 X73.716675 Y156.216295 Z-0.125000 I11.051884 J-17.636409
G02 X71.694328 Y155.095986 Z-0.125000 I-9.941758 J15.561060
G02 X71.075075 Y154.956455 Z-0.125000 I-0.619253 J1.304389
G02 X70.605134 Y155.204974 Z-0.125000 I0.000000 J0.568580
G02 X70.343555 Y156.053735 Z-0.125000 I1.246221 J0.848761
G02 X70.502434 Y157.480309 Z-0.125000 I6.484016 J0.000000
G02 X71.684675 Y162.109095 Z-0.125000 I82.536607 J-18.615342
G03 X73.134387 Y167.443777 Z-0.125000 I-146.818780 J42.762681
G03 X73.228995 Y168.205095 Z-0.125000 I-3.015913 J0.761319
G03 X73.034451 Y168.640472 Z-0.125000 I-0.584445 J-0.000000
G03 X72.578755 Y168.814695 Z-0.125000 I-0.455697 J-0.508845
G03 X71.588706 Y168.574564 Z-0.125000 I0.000000 J-2.161028
G03 X64.369475 Y164.588135 Z-0.125000 I65.995242 J-128.044265
G03 X64.520631 Y165.274112 Z-0.125000 I-6.866634 J1.872718
G02 X64.572675 Y165.522855 Z-0.125000 I3.235541 J-0.547145
G03 X65.150384 Y168.066632 Z-0.125000 I-103.737811 J24.897075
G03 X65.182275 Y168.367655 Z-0.125000 I-1.404778 J0.301024
G03 X65.036544 Y168.677093 Z-0.125000 I-0.401387 J0.000000
G03 X64.653955 Y168.814695 Z-0.125000 I-0.382589 J-0.463072
G03 X63.831332 Y168.604954 Z-0.125000 I0.000000 J-1.718064
G03 X57.867075 Y165.075815 Z-0.125000 I47.400871 J-86.912036
G01 X56.566595 Y164.263015 Z-0.125000
G03 X57.422639 Y167.901891 Z-0.125000 I-169.532869 J41.802665
G03 X57.460675 Y168.245735 Z-0.125000 I-1.535151 J0.343844
G03 X57.295436 Y168.635113 Z-0.125000 I-0.541397 J0.000000
G03 X56.851075 Y168.814695 Z-0.125000 I-0.444362 J-0.459978
G03 X55.929377 Y168.580076 Z-0.125000 I-0.000000 J-1.927748
G03 X50.511235 Y165.400935 Z-0.125000 I46.775481 J-85.925041
G01 X50.226755 Y164.263015 Z-0.125000
G02 X52.754803 Y165.389528 Z-0.125000 I16.416473 J-33.440922
G02 X53.234115 Y165.482215 Z-0.125000 I0.479312 J-1.192977
G02 X53.650788 Y165.277097 Z-0.125000 I-0.000000 J-0.525770
G02 X53.843715 Y164.710055 Z-0.125000 I-0.736848 J-0.567041
G02 X53.700928 Y163.519263 Z-0.125000 I-5.036815 J0.000000
G02 X50.673795 Y151.705255 Z-0.125000 I-487.320648 J118.572608
G01 X53.559235 Y152.802535 Z-0.125000
G00 Z5.000000

(End cutting path id: path2994)


(Footer)
M5
G00 X0.0000 Y0.0000
M2
(Using default footer. To add your own footer create file "footer" in the output dir.)
(end)
%