%
(Header)
(Generated by gcodetools from Inkscape.)
(Using default header. To add your own header create file "header" in the output dir.)
M3
(Header end.)
G21 (All units in mm)

(Start cutting path id: path5756)
(Change tool to Default tool)

G00 Z5.000000
G00 X22.489908 Y140.233351

G01 Z-0.125000 F100.0(Penetrate)
G02 X22.448133 Y140.379785 Z-0.125000 I1.864735 J0.611143 F400.000000
G02 X22.417024 Y140.525804 Z-0.125000 I2.486340 J0.606042
G01 X21.878191 Y140.382223 Z-0.125000
G03 X21.895575 Y140.231405 Z-0.125000 I3.995498 J0.384129
G03 X21.918161 Y140.082009 Z-0.125000 I4.572947 J0.614936
G01 X22.489908 Y140.233351 Z-0.125000
G01 X22.489908 Y140.233351 Z-0.125000
G00 Z5.000000

(End cutting path id: path5756)


(Start cutting path id: path3524)
(Change tool to Default tool)

G00 Z5.000000
G00 X22.713287 Y139.715473

G01 Z-0.125000 F100.0(Penetrate)
G02 X22.648290 Y139.847550 Z-0.125000 I2.573906 J1.348685 F400.000000
G02 X22.590520 Y139.977234 Z-0.125000 I4.993430 J2.302111
G01 X21.974535 Y139.813192 Z-0.125000
G03 X22.014247 Y139.667251 Z-0.125000 I57.803763 J15.650838
G03 X22.058884 Y139.523915 Z-0.125000 I2.072175 J0.566679
G01 X22.722812 Y139.700303 Z-0.125000
G03 X22.717976 Y139.708590 Z-0.125000 I-0.047528 J-0.022180
G02 X22.713287 Y139.715473 Z-0.125000 I0.156094 J0.111392
G01 X22.713287 Y139.715473 Z-0.125000
G00 Z5.000000

(End cutting path id: path3524)


(Start cutting path id: path3514)
(Change tool to Default tool)

G00 Z5.000000
G00 X22.181227 Y138.962998

G01 Z-0.125000 F100.0(Penetrate)
G01 X23.001153 Y139.180662 Z-0.125000 F400.000000
G02 X22.913582 Y139.300944 Z-0.125000 I0.472723 J0.436184
G02 X22.837464 Y139.449478 Z-0.125000 I1.825912 J1.029475
G01 X22.140023 Y139.264623 Z-0.125000
G02 X22.183971 Y139.058220 Z-0.125000 I-1.291683 J-0.382915
G02 X22.181227 Y138.962998 Z-0.125000 I-0.296009 J-0.039119
G01 X22.181227 Y138.962998 Z-0.125000
G00 Z5.000000

(End cutting path id: path3514)


(Start cutting path id: path3714)
(Change tool to Default tool)

G00 Z5.000000
G00 X21.799663 Y138.861045

G01 Z-0.125000 F100.0(Penetrate)
G02 X21.712287 Y138.875503 Z-0.125000 I7.887854 J47.940626 F400.000000
G03 X21.619005 Y138.888562 Z-0.125000 I-0.299576 J-1.800267
G02 X20.991873 Y138.726921 Z-0.125000 I-0.758980 J1.647290
G02 X20.282295 Y138.768617 Z-0.125000 I-0.197105 J2.704262
G01 X13.771068 Y137.035067 Z-0.125000
G03 X14.014812 Y136.937160 Z-0.125000 I3.645176 J8.722467
G03 X14.260410 Y136.853034 Z-0.125000 I1.227748 J3.183716
G01 X21.799663 Y138.861045 Z-0.125000
G01 X21.799663 Y138.861045 Z-0.125000
G00 Z5.000000

(End cutting path id: path3714)


(Start cutting path id: path1234)
(Change tool to Default tool)

G00 Z5.000000
G00 X22.609958 Y137.605509

G01 Z-0.125000 F100.0(Penetrate)
G01 X20.471384 Y137.036478 Z-0.125000 F400.000000
G03 X21.622244 Y137.146691 Z-0.125000 I0.451406 J1.350189
G02 X22.609958 Y137.605509 Z-0.125000 I3.401844 J-6.030716
G01 X22.609958 Y137.605509 Z-0.125000
G00 Z5.000000

(End cutting path id: path1234)


(Start cutting path id: path1240)
(Change tool to Default tool)

G00 Z5.000000
G00 X23.003940 Y137.710284

G01 Z-0.125000 F100.0(Penetrate)
G02 X23.358117 Y137.692551 Z-0.125000 I0.136013 J-0.829247 F400.000000
G02 X23.555402 Y137.546242 Z-0.125000 I-0.086941 J-0.323399
G01 X24.707187 Y137.852101 Z-0.125000
G02 X25.179978 Y138.154476 Z-0.125000 I5.548726 J-8.155142
G02 X25.682970 Y138.424306 Z-0.125000 I3.050648 J-5.082988
G01 X23.003940 Y137.710284 Z-0.125000
G01 X23.003940 Y137.710284 Z-0.125000
G00 Z5.000000

(End cutting path id: path1240)


(Start cutting path id: path1242)
(Change tool to Default tool)

G00 Z5.000000
G00 X24.044352 Y137.393490

G01 Z-0.125000 F100.0(Penetrate)
G01 X23.647477 Y137.287303 Z-0.125000 F400.000000
G02 X23.657769 Y137.220101 Z-0.125000 I-30.782512 J-4.748620
G02 X23.666915 Y137.141253 Z-0.125000 I-1.108896 J-0.168585
G03 X23.856634 Y137.265775 Z-0.125000 I-3.842907 J6.061768
G03 X24.044352 Y137.393490 Z-0.125000 I-81.483924 J119.969038
G01 X24.044352 Y137.393490 Z-0.125000
G00 Z5.000000

(End cutting path id: path1242)


(Start cutting path id: path1648)
(Change tool to Default tool)

G00 Z5.000000
G00 X24.667358 Y139.343292

G01 Z-0.125000 F100.0(Penetrate)
G01 X17.681935 Y137.481684 Z-0.125000 F400.000000
G02 X17.966860 Y137.421710 Z-0.125000 I0.049993 J-0.469293
G02 X18.107773 Y137.283070 Z-0.125000 I-0.194148 J-0.338262
G01 X24.634162 Y139.020853 Z-0.125000
G02 X24.643776 Y139.186520 Z-0.125000 I2.610530 J-0.068391
G02 X24.667358 Y139.343292 Z-0.125000 I1.326478 J-0.119370
G01 X24.667358 Y139.343292 Z-0.125000
G00 Z5.000000

(End cutting path id: path1648)


(Start cutting path id: path5742)
(Change tool to Default tool)

G00 Z5.000000
G00 X24.751284 Y139.646328

G01 Z-0.125000 F100.0(Penetrate)
G03 X24.799661 Y139.817188 Z-0.125000 I-9.221957 J2.703384 F400.000000
G03 X24.840854 Y139.983937 Z-0.125000 I-3.383026 J0.924195
G01 X23.928606 Y139.740167 Z-0.125000
G02 X23.864403 Y139.557604 Z-0.125000 I-2.065353 J0.623760
G02 X23.781145 Y139.388801 Z-0.125000 I-1.162106 J0.468248
G01 X24.751284 Y139.646328 Z-0.125000
G01 X24.751284 Y139.646328 Z-0.125000
G00 Z5.000000

(End cutting path id: path5742)


(Start cutting path id: path5714)
(Change tool to Default tool)

G00 Z5.000000
G00 X24.891972 Y140.278859

G01 Z-0.125000 F100.0(Penetrate)
G03 X24.913138 Y140.442041 Z-0.125000 I-2.305484 J0.382009 F400.000000
G03 X24.927673 Y140.600240 Z-0.125000 I-36.653787 J3.447384
G01 X24.016800 Y140.357528 Z-0.125000
G02 X24.011437 Y140.196375 Z-0.125000 I-2.423933 J-0.000000
G02 X23.994858 Y140.040734 Z-0.125000 I-1.972822 J0.131452
G01 X24.891972 Y140.278859 Z-0.125000
G01 X24.891972 Y140.278859 Z-0.125000
G00 Z5.000000

(End cutting path id: path5714)


(Start cutting path id: path5750)
(Change tool to Default tool)

G00 Z5.000000
G00 X24.927673 Y141.195376

G01 Z-0.125000 F100.0(Penetrate)
G01 X23.957534 Y140.936437 Z-0.125000 F400.000000
G02 X23.983364 Y140.785632 Z-0.125000 I-3.519704 J-0.680476
G02 X24.001631 Y140.635870 Z-0.125000 I-2.771831 J-0.414087
G01 X24.942842 Y140.886695 Z-0.125000
G03 X24.937817 Y141.043051 Z-0.125000 I-2.435167 J-0.000000
G03 X24.927673 Y141.195376 Z-0.125000 I-33.871028 J-2.179273
G01 X24.927673 Y141.195376 Z-0.125000
G00 Z5.000000

(End cutting path id: path5750)


(Start cutting path id: path5532)
(Change tool to Default tool)

G00 Z5.000000
G00 X24.891972 Y141.491709

G01 Z-0.125000 F100.0(Penetrate)
G03 X24.866994 Y141.643051 Z-0.125000 I-162.636068 J-26.763620 F400.000000
G03 X24.838102 Y141.789454 Z-0.125000 I-2.389502 J-0.395504
G01 X23.782521 Y141.508290 Z-0.125000
G02 X23.836027 Y141.366598 Z-0.125000 I-3.743730 J-1.494677
G02 X23.883098 Y141.222892 Z-0.125000 I-2.766448 J-0.985707
G01 X24.891972 Y141.491709 Z-0.125000
G01 X24.891972 Y141.491709 Z-0.125000
G00 Z5.000000

(End cutting path id: path5532)


(Start cutting path id: path5740)
(Change tool to Default tool)

G00 Z5.000000
G00 X24.544556 Y142.587084

G01 Z-0.125000 F100.0(Penetrate)
G03 X24.468395 Y142.725458 Z-0.125000 I-3.863437 J-2.036293 F400.000000
G03 X24.387605 Y142.858723 Z-0.125000 I-2.844852 J-1.633524
G01 X23.146145 Y142.526406 Z-0.125000
G02 X23.253084 Y142.404494 Z-0.125000 I-1.481118 J-1.407063
G02 X23.356718 Y142.271701 Z-0.125000 I-3.704291 J-2.997732
G01 X24.544556 Y142.587084 Z-0.125000
G01 X24.544556 Y142.587084 Z-0.125000
G00 Z5.000000

(End cutting path id: path5740)


(Start cutting path id: path1116)
(Change tool to Default tool)

G00 Z5.000000
G00 X24.008651 Y143.351906

G01 Z-0.125000 F100.0(Penetrate)
G01 X22.578102 Y142.970201 Z-0.125000 F400.000000
G03 X22.609639 Y142.953745 Z-0.125000 I2.920913 J5.559157
G02 X22.641637 Y142.935981 Z-0.125000 I-0.293894 J-0.567126
G02 X22.774548 Y142.848950 Z-0.125000 I-0.903891 J-1.525390
G02 X22.907597 Y142.747245 Z-0.125000 I-1.742617 J-2.417539
G01 X24.222117 Y143.097201 Z-0.125000
G03 X24.117081 Y143.227698 Z-0.125000 I-4.251618 J-3.314561
G03 X24.008651 Y143.351906 Z-0.125000 I-2.596237 J-2.157003
G01 X24.008651 Y143.351906 Z-0.125000
G00 Z5.000000

(End cutting path id: path1116)


(Start cutting path id: path3540)
(Change tool to Default tool)

G00 Z5.000000
G00 X23.788165 Y143.573804

G01 Z-0.125000 F100.0(Penetrate)
G03 X23.646042 Y143.697051 Z-0.125000 I-2.467793 J-2.702182 F400.000000
G03 X23.500299 Y143.809459 Z-0.125000 I-1.845177 J-2.241684
G01 X21.767842 Y143.349437 Z-0.125000
G02 X21.997408 Y143.260523 Z-0.125000 I-1.649234 J-4.598948
G02 X22.223948 Y143.157879 Z-0.125000 I-1.557651 J-3.739121
G01 X23.788165 Y143.573804 Z-0.125000
G01 X23.788165 Y143.573804 Z-0.125000
G00 Z5.000000

(End cutting path id: path3540)


(Start cutting path id: path1668)
(Change tool to Default tool)

G00 Z5.000000
G00 X22.764439 Y144.207745

G01 Z-0.125000 F100.0(Penetrate)
G01 X20.392679 Y143.576626 Z-0.125000 F400.000000
G02 X20.481555 Y143.576449 Z-0.125000 I0.000000 J-22.376190
G02 X20.570444 Y143.575215 Z-0.125000 I-0.017803 J-4.482301
G02 X20.920721 Y143.550412 Z-0.125000 I-0.060308 J-3.337562
G02 X21.253810 Y143.495487 Z-0.125000 I-0.517689 J-4.176909
G01 X23.190242 Y144.010895 Z-0.125000
G03 X22.979206 Y144.116781 Z-0.125000 I-1.586226 J-2.898198
G03 X22.764439 Y144.207745 Z-0.125000 I-1.694064 J-3.700660
G01 X22.764439 Y144.207745 Z-0.125000
G00 Z5.000000

(End cutting path id: path1668)


(Start cutting path id: path1686)
(Change tool to Default tool)

G00 Z5.000000
G00 X21.619005 Y144.440579

G01 Z-0.125000 F100.0(Penetrate)
G03 X21.506002 Y144.440194 Z-0.125000 I-0.051863 J-1.362701 F400.000000
G02 X21.386101 Y144.436698 Z-0.125000 I-0.171261 J3.815990
G01 X18.711340 Y143.724087 Z-0.125000
G02 X18.925280 Y143.691911 Z-0.125000 I-2.918051 J-20.129609
G02 X19.140036 Y143.652473 Z-0.125000 I-0.622228 J-3.992726
G03 X19.292396 Y143.625991 Z-0.125000 I0.487448 J2.352968
G03 X19.445823 Y143.606965 Z-0.125000 I0.652398 J4.632663
G01 X22.261449 Y144.356617 Z-0.125000
G03 X21.948430 Y144.413686 Z-0.125000 I-0.847469 J-3.761362
G03 X21.619005 Y144.440579 Z-0.125000 I-0.397866 J-2.842585
G01 X21.619005 Y144.440579 Z-0.125000
G00 Z5.000000

(End cutting path id: path1686)


(Start cutting path id: path1702)
(Change tool to Default tool)

G00 Z5.000000
G00 X20.868259 Y144.786654

G01 Z-0.125000 F100.0(Penetrate)
G02 X20.858403 Y144.837811 Z-0.125000 I0.270489 J0.078637 F400.000000
G03 X20.853089 Y144.888606 Z-0.125000 I-3.891586 J-0.381453
G01 X15.063653 Y143.346615 Z-0.125000
G03 X15.109623 Y143.295232 Z-0.125000 I0.897925 J0.757074
G03 X15.174037 Y143.231962 Z-0.125000 I0.931706 J0.884136
G02 X16.515777 Y143.637333 Z-0.125000 I3.082795 J-7.780551
G02 X17.863968 Y143.779120 Z-0.125000 I1.348191 J-6.338790
G01 X20.943753 Y144.600387 Z-0.125000
G02 X20.902646 Y144.672799 Z-0.125000 I0.297576 J0.216805
G02 X20.868259 Y144.786654 Z-0.125000 I0.499706 J0.213044
G01 X20.868259 Y144.786654 Z-0.125000
G00 Z5.000000

(End cutting path id: path1702)


(Start cutting path id: path3552)
(Change tool to Default tool)

G00 Z5.000000
G00 X21.443992 Y145.957876

G01 Z-0.125000 F100.0(Penetrate)
G02 X21.417554 Y146.016861 Z-0.125000 I3.373464 J1.547460 F400.000000
G02 X21.397425 Y146.072176 Z-0.125000 I0.423764 J0.185524
G03 X21.362757 Y146.158148 Z-0.125000 I-0.959807 J-0.337075
G02 X21.326870 Y146.239040 Z-0.125000 I3.547800 J1.622337
G01 X19.312156 Y145.702817 Z-0.125000
G02 X19.334616 Y145.551877 Z-0.125000 I-37.187296 J-5.610715
G02 X19.355160 Y145.401192 Z-0.125000 I-7.381393 J-1.083069
G01 X21.443992 Y145.957876 Z-0.125000
G01 X21.443992 Y145.957876 Z-0.125000
G00 Z5.000000

(End cutting path id: path3552)


(Start cutting path id: path3556)
(Change tool to Default tool)

G00 Z5.000000
G00 X21.205867 Y146.488454

G01 Z-0.125000 F100.0(Penetrate)
G03 X21.118820 Y146.625974 Z-0.125000 I-2.252945 J-1.329746 F400.000000
G03 X21.025210 Y146.753037 Z-0.125000 I-1.653213 J-1.119953
G01 X19.199302 Y146.266556 Z-0.125000
G02 X19.234283 Y146.120749 Z-0.125000 I-4.778283 J-1.223451
G02 X19.265589 Y145.971634 Z-0.125000 I-5.583671 J-1.250131
G01 X21.205867 Y146.488454 Z-0.125000
G01 X21.205867 Y146.488454 Z-0.125000
G00 Z5.000000

(End cutting path id: path3556)


(Start cutting path id: path3554)
(Change tool to Default tool)

G00 Z5.000000
G00 X20.824162 Y146.981637

G01 Z-0.125000 F100.0(Penetrate)
G03 X20.693638 Y147.104666 Z-0.125000 I-2.959619 J-3.009153 F400.000000
G03 X20.556791 Y147.222937 Z-0.125000 I-2.769928 J-3.066675
G01 X19.032403 Y146.816537 Z-0.125000
G02 X19.082046 Y146.674512 Z-0.125000 I-4.137500 J-1.525897
G02 X19.127653 Y146.529729 Z-0.125000 I-5.132747 J-1.696400
G01 X20.824162 Y146.981637 Z-0.125000
G01 X20.824162 Y146.981637 Z-0.125000
G00 Z5.000000

(End cutting path id: path3554)


(Start cutting path id: path3544)
(Change tool to Default tool)

G00 Z5.000000
G00 X20.282295 Y147.432487

G01 Z-0.125000 F100.0(Penetrate)
G03 X20.120029 Y147.546507 Z-0.125000 I-4.864332 J-6.750093 F400.000000
G03 X19.957351 Y147.656854 Z-0.125000 I-12.123281 J-17.697663
G01 X18.788634 Y147.345704 Z-0.125000
G02 X18.863207 Y147.209849 Z-0.125000 I-2.588482 J-1.509269
G02 X18.930450 Y147.071242 Z-0.125000 I-2.798621 J-1.443329
G01 X20.282295 Y147.432487 Z-0.125000
G01 X20.282295 Y147.432487 Z-0.125000
G00 Z5.000000

(End cutting path id: path3544)


(Start cutting path id: path3548)
(Change tool to Default tool)

G00 Z5.000000
G00 X19.652551 Y147.858290

G01 Z-0.125000 F100.0(Penetrate)
G03 X19.626262 Y147.876320 Z-0.125000 I-0.238723 J-0.319888 F400.000000
G02 X19.596177 Y147.895331 Z-0.125000 I4.041214 J6.428397
G03 X19.446224 Y147.988163 Z-0.125000 I-1.180464 J-1.739301
G03 X19.288873 Y148.073131 Z-0.125000 I-2.543007 J-4.521183
G01 X18.437232 Y147.847354 Z-0.125000
G02 X18.542313 Y147.716527 Z-0.125000 I-3.260761 J-2.726694
G02 X18.636939 Y147.586651 Z-0.125000 I-2.330759 J-1.797571
G01 X19.652551 Y147.858290 Z-0.125000
G01 X19.652551 Y147.858290 Z-0.125000
G00 Z5.000000

(End cutting path id: path3548)


(Start cutting path id: path1700)
(Change tool to Default tool)

G00 Z5.000000
G00 X18.460550 Y148.446723

G01 Z-0.125000 F100.0(Penetrate)
G01 X18.004409 Y148.325367 Z-0.125000 F400.000000
G03 X18.114416 Y148.186073 Z-0.125000 I0.580123 J0.345063
G03 X18.231915 Y148.074542 Z-0.125000 I5.066003 J5.219466
G01 X18.912812 Y148.255165 Z-0.125000
G03 X18.691406 Y148.350467 Z-0.125000 I-5.052304 J-11.432564
G03 X18.460550 Y148.446723 Z-0.125000 I-26.886567 J-64.158816
G01 X18.460550 Y148.446723 Z-0.125000
G00 Z5.000000

(End cutting path id: path1700)


(Start cutting path id: path3538)
(Change tool to Default tool)

G00 Z5.000000
G00 X18.049882 Y148.620290

G01 Z-0.125000 F100.0(Penetrate)
G03 X17.994105 Y148.644211 Z-0.125000 I-6.116048 J-14.184026 F400.000000
G02 X17.934277 Y148.670031 Z-0.125000 I3.001925 J7.037835
G03 X17.932674 Y148.627162 Z-0.125000 I0.342844 J-0.034284
G03 X17.934277 Y148.588540 Z-0.125000 I1.166649 J0.029076
G01 X18.049882 Y148.620290 Z-0.125000
G01 X18.049882 Y148.620290 Z-0.125000
G00 Z5.000000

(End cutting path id: path3538)


(Start cutting path id: path3546)
(Change tool to Default tool)

G00 Z5.000000
G00 X19.345388 Y149.589017

G01 Z-0.125000 F100.0(Penetrate)
G02 X19.030172 Y149.665198 Z-0.125000 I9.028495 J38.047742 F400.000000
G03 X18.703191 Y149.730834 Z-0.125000 I-0.923092 J-3.751317
G01 X18.237560 Y149.607009 Z-0.125000
G03 X18.467320 Y149.465412 Z-0.125000 I0.467297 J0.501046
G03 X18.685305 Y149.414040 Z-0.125000 I0.317451 J0.858850
G01 X19.345388 Y149.589017 Z-0.125000
G01 X19.345388 Y149.589017 Z-0.125000
G00 Z5.000000

(End cutting path id: path3546)


(Start cutting path id: path1112)
(Change tool to Default tool)

G00 Z5.000000
G00 X20.327768 Y150.163692

G01 Z-0.125000 F100.0(Penetrate)
G01 X20.095040 Y150.101604 Z-0.125000 F400.000000
G03 X20.113891 Y149.937073 Z-0.125000 I0.237333 J-0.056153
G03 X20.191631 Y149.815148 Z-0.125000 I0.605739 J0.300475
G01 X20.950773 Y150.017642 Z-0.125000
G03 X20.640524 Y150.089982 Z-0.125000 I-57.726444 J-246.875293
G02 X20.327768 Y150.163692 Z-0.125000 I12.080657 J51.959038
G01 X20.327768 Y150.163692 Z-0.125000
G00 Z5.000000

(End cutting path id: path1112)


(Start cutting path id: path3542)
(Change tool to Default tool)

G00 Z5.000000
G00 X20.647773 Y149.405573

G01 Z-0.125000 F100.0(Penetrate)
G01 X20.603675 Y149.432031 Z-0.125000 F400.000000
G01 X20.650242 Y149.447201 Z-0.125000
G01 X20.647773 Y149.405573 Z-0.125000
G01 X20.647773 Y149.405573 Z-0.125000
G00 Z5.000000

(End cutting path id: path3542)


(Start cutting path id: path5580)
(Change tool to Default tool)

G00 Z5.000000
G00 X20.818482 Y148.763517

G01 Z-0.125000 F100.0(Penetrate)
G01 X22.705173 Y149.265167 Z-0.125000 F400.000000
G03 X22.541157 Y149.386274 Z-0.125000 I-2.371211 J-3.039733
G03 X22.378430 Y149.491298 Z-0.125000 I-1.521545 J-2.178946
G01 X20.479498 Y148.985415 Z-0.125000
G02 X20.651738 Y148.879935 Z-0.125000 I-1.836477 J-3.192200
G02 X20.818482 Y148.763517 Z-0.125000 I-1.701784 J-2.615068
G01 X20.818482 Y148.763517 Z-0.125000
G00 Z5.000000

(End cutting path id: path5580)


(Start cutting path id: path3542)
(Change tool to Default tool)

G00 Z5.000000
G00 X22.021525 Y149.677212

G01 Z-0.125000 F100.0(Penetrate)
G03 X21.781386 Y149.776785 Z-0.125000 I-1.706367 J-3.775862 F400.000000
G03 X21.536455 Y149.861715 Z-0.125000 I-1.643119 J-4.342980
G01 X19.570001 Y149.336781 Z-0.125000
G02 X19.845511 Y149.265477 Z-0.125000 I-0.585414 J-2.829861
G02 X20.108658 Y149.168859 Z-0.125000 I-0.846172 J-2.711285
G01 X22.021525 Y149.677212 Z-0.125000
G01 X22.021525 Y149.677212 Z-0.125000
G00 Z5.000000

(End cutting path id: path3542)


(Start cutting path id: path1118)
(Change tool to Default tool)

G00 Z5.000000
G00 X22.948942 Y149.048915

G01 Z-0.125000 F100.0(Penetrate)
G01 X21.077421 Y148.550087 Z-0.125000 F400.000000
G02 X21.204083 Y148.429464 Z-0.125000 I-2.369207 J-2.614627
G02 X21.326870 Y148.303495 Z-0.125000 I-5.012110 J-5.008364
G01 X23.146145 Y148.788212 Z-0.125000
G03 X23.057625 Y148.920246 Z-0.125000 I-1.111579 J-0.649552
G03 X22.948942 Y149.048915 Z-0.125000 I-1.366025 J-1.043603
G01 X22.948942 Y149.048915 Z-0.125000
G00 Z5.000000

(End cutting path id: path1118)


(Start cutting path id: path5688)
(Change tool to Default tool)

G00 Z5.000000
G00 X23.353931 Y148.249520

G01 Z-0.125000 F100.0(Penetrate)
G03 X23.311343 Y148.395379 Z-0.125000 I-3.282983 J-0.879413 F400.000000
G03 X23.261891 Y148.537740 Z-0.125000 I-2.575788 J-0.814988
G01 X21.522662 Y148.074542 Z-0.125000
G02 X21.621825 Y147.945733 Z-0.125000 I-2.072957 J-1.698431
G02 X21.715596 Y147.814192 Z-0.125000 I-10.168058 J-7.347658
G01 X23.353931 Y148.249520 Z-0.125000
G01 X23.353931 Y148.249520 Z-0.125000
G00 Z5.000000

(End cutting path id: path5688)


(Start cutting path id: path5684)
(Change tool to Default tool)

G00 Z5.000000
G00 X23.472464 Y147.687192

G01 Z-0.125000 F100.0(Penetrate)
G02 X23.442687 Y147.834743 Z-0.125000 I12.581893 J2.615948 F400.000000
G02 X23.414574 Y147.983526 Z-0.125000 I11.386191 J2.228542
G01 X21.868419 Y147.571481 Z-0.125000
G02 X21.944430 Y147.436103 Z-0.125000 I-9.891496 J-5.642826
G02 X22.015880 Y147.298784 Z-0.125000 I-2.708012 J-1.496285
G01 X23.472464 Y147.687192 Z-0.125000
G01 X23.472464 Y147.687192 Z-0.125000
G00 Z5.000000

(End cutting path id: path5684)


(Start cutting path id: path5692)
(Change tool to Default tool)

G00 Z5.000000
G00 X23.619925 Y147.131920

G01 Z-0.125000 F100.0(Penetrate)
G02 X23.571589 Y147.273941 Z-0.125000 I2.052662 J0.777851 F400.000000
G02 X23.531731 Y147.421551 Z-0.125000 I2.428442 J0.734925
G01 X22.131909 Y147.047959 Z-0.125000
G02 X22.186837 Y146.907282 Z-0.125000 I-17.414916 J-6.880856
G02 X22.237742 Y146.763973 Z-0.125000 I-2.636456 J-1.017192
G01 X23.619925 Y147.131920 Z-0.125000
G01 X23.619925 Y147.131920 Z-0.125000
G00 Z5.000000

(End cutting path id: path5692)


(Start cutting path id: path5746)
(Change tool to Default tool)

G00 Z5.000000
G00 X23.935626 Y146.622156

G01 Z-0.125000 F100.0(Penetrate)
G02 X23.825895 Y146.748578 Z-0.125000 I0.929916 J0.917983 F400.000000
G02 X23.737048 Y146.881095 Z-0.125000 I1.056349 J0.804278
G01 X22.319163 Y146.503623 Z-0.125000
G02 X22.357541 Y146.356172 Z-0.125000 I-3.572448 J-1.008540
G02 X22.389472 Y146.210112 Z-0.125000 I-3.852949 J-0.918829
G01 X23.935626 Y146.622156 Z-0.125000
G01 X23.935626 Y146.622156 Z-0.125000
G00 Z5.000000

(End cutting path id: path5746)


(Start cutting path id: path4324)
(Change tool to Default tool)

G00 Z5.000000
G00 X23.858439 Y146.318767

G01 Z-0.125000 F100.0(Penetrate)
G03 X24.014327 Y146.315737 Z-0.125000 I0.134376 J2.901625 F400.000000
G03 X24.171247 Y146.403081 Z-0.125000 I-0.001386 J0.187121
G01 X23.858439 Y146.318767 Z-0.125000
G01 X23.858439 Y146.318767 Z-0.125000
G00 Z5.000000

(End cutting path id: path4324)


(Start cutting path id: path1132)
(Change tool to Default tool)

G00 Z5.000000
G00 X23.635060 Y146.196354

G01 Z-0.125000 F100.0(Penetrate)
G02 X23.669459 Y146.246509 Z-0.125000 I0.262817 J-0.143379 F400.000000
G02 X23.699971 Y146.276081 Z-0.125000 I0.165456 J-0.140188
G01 X22.433569 Y145.939884 Z-0.125000
G03 X22.482625 Y145.811015 Z-0.125000 I0.250182 J0.021464
G03 X22.680090 Y145.711284 Z-0.125000 I0.199066 J0.148794
G02 X22.700306 Y145.707882 Z-0.125000 I-0.021810 J-0.191381
G03 X22.722812 Y145.704229 Z-0.125000 I0.042181 J0.188676
G01 X23.830887 Y145.999151 Z-0.125000
G02 X23.731120 Y146.093579 Z-0.125000 I3.481773 J3.778515
G02 X23.635060 Y146.196354 Z-0.125000 I1.024707 J1.054047
G01 X23.635060 Y146.196354 Z-0.125000
G00 Z5.000000

(End cutting path id: path1132)


(Start cutting path id: path5744)
(Change tool to Default tool)

G00 Z5.000000
G00 X24.522649 Y145.554298

G01 Z-0.125000 F100.0(Penetrate)
G02 X24.327951 Y145.653410 Z-0.125000 I1.844539 J3.864259 F400.000000
G02 X24.140943 Y145.763495 Z-0.125000 I1.449047 J2.675449
G01 X23.251978 Y145.527840 Z-0.125000
G02 X23.439727 Y145.437666 Z-0.125000 I-6.722160 J-14.236574
G02 X23.661518 Y145.323934 Z-0.125000 I-2.811737 J-5.756366
G01 X24.522649 Y145.554298 Z-0.125000
G01 X24.522649 Y145.554298 Z-0.125000
G00 Z5.000000

(End cutting path id: path5744)


(Start cutting path id: path5736)
(Change tool to Default tool)

G00 Z5.000000
G00 X25.374289 Y145.186351

G01 Z-0.125000 F100.0(Penetrate)
G03 X25.146343 Y145.281699 Z-0.125000 I-7.923443 J-18.622255 F400.000000
G02 X24.916772 Y145.376498 Z-0.125000 I30.626182 J74.491450
G01 X23.999162 Y145.132376 Z-0.125000
G02 X24.175817 Y145.026237 Z-0.125000 I-8.493948 J-14.337273
G02 X24.354409 Y144.914712 Z-0.125000 I-4.975027 J-8.165553
G01 X25.374289 Y145.186351 Z-0.125000
G01 X25.374289 Y145.186351 Z-0.125000
G00 Z5.000000

(End cutting path id: path5736)


(Start cutting path id: path5738)
(Change tool to Default tool)

G00 Z5.000000
G00 X26.123942 Y144.791945

G01 Z-0.125000 F100.0(Penetrate)
G03 X25.972746 Y144.890477 Z-0.125000 I-1.271511 J-1.785837 F400.000000
G03 X25.783582 Y144.995851 Z-0.125000 I-1.965643 J-3.306211
G03 X25.771923 Y145.001495 Z-0.125000 I-0.105700 J-0.203473
G02 X25.760264 Y145.007140 Z-0.125000 I0.094041 J0.209117
G01 X24.663089 Y144.715040 Z-0.125000
G02 X24.830720 Y144.601686 Z-0.125000 I-7.374335 J-11.085967
G02 X24.991208 Y144.490320 Z-0.125000 I-12.431749 J-18.086636
G01 X26.123942 Y144.791945 Z-0.125000
G01 X26.123942 Y144.791945 Z-0.125000
G00 Z5.000000

(End cutting path id: path5738)


(Start cutting path id: path5748)
(Change tool to Default tool)

G00 Z5.000000
G00 X26.527837 Y144.304406

G01 Z-0.125000 F100.0(Penetrate)
G03 X26.454420 Y144.448980 Z-0.125000 I-0.965972 J-0.399608 F400.000000
G03 X26.365242 Y144.572870 Z-0.125000 I-0.853907 J-0.520618
G01 X25.272301 Y144.282181 Z-0.125000
G02 X25.431467 Y144.159296 Z-0.125000 I-2.492942 J-3.393477
G02 X25.565848 Y144.047937 Z-0.125000 I-5.166107 J-6.370864
G01 X26.527837 Y144.304406 Z-0.125000
G01 X26.527837 Y144.304406 Z-0.125000
G00 Z5.000000

(End cutting path id: path5748)


(Start cutting path id: path4896)
(Change tool to Default tool)

G00 Z5.000000
G00 X26.621429 Y143.897654

G01 Z-0.125000 F100.0(Penetrate)
G03 X26.612197 Y143.974190 Z-0.125000 I-0.591857 J-0.032572 F400.000000
G02 X26.600898 Y144.042292 Z-0.125000 I1.638068 J0.306761
G01 X25.809617 Y143.831684 Z-0.125000
G02 X25.946355 Y143.679121 Z-0.125000 I-1.549727 J-1.526537
G02 X26.009713 Y143.584740 Z-0.125000 I-0.477328 J-0.388882
G02 X26.013376 Y143.579240 Z-0.125000 I-0.092135 J-0.065332
G01 X26.014934 Y143.573804 Z-0.125000
G01 X26.636564 Y143.739256 Z-0.125000
G03 X26.629421 Y143.820537 Z-0.125000 I-4.951610 J-0.394174
G03 X26.621429 Y143.897654 Z-0.125000 I-5.216944 J-0.501655
G01 X26.621429 Y143.897654 Z-0.125000
G00 Z5.000000

(End cutting path id: path4896)


(Start cutting path id: path4902)
(Change tool to Default tool)

G00 Z5.000000
G00 X26.665527 Y143.465148

G01 Z-0.125000 F100.0(Penetrate)
G01 X26.151494 Y143.328623 Z-0.125000 F400.000000
G02 X26.175606 Y143.265912 Z-0.125000 I-0.724312 J-0.314488
G02 X26.189947 Y143.203034 Z-0.125000 I-0.305282 J-0.102699
G03 X26.200025 Y143.116717 Z-0.125000 I0.963325 J0.068725
G02 X26.212137 Y143.032290 Z-0.125000 I-2.245393 J-0.365205
G01 X26.706731 Y143.163170 Z-0.125000
G02 X26.685009 Y143.314306 Z-0.125000 I10.779586 J1.626394
G02 X26.665527 Y143.465148 Z-0.125000 I10.333432 J1.411355
G01 X26.665527 Y143.465148 Z-0.125000
G00 Z5.000000

(End cutting path id: path4902)


(Start cutting path id: path5520)
(Change tool to Default tool)

G00 Z5.000000
G00 X26.839023 Y142.605076

G01 Z-0.125000 F100.0(Penetrate)
G02 X26.795723 Y142.746369 Z-0.125000 I4.584998 J1.482368 F400.000000
G02 X26.757849 Y142.895765 Z-0.125000 I2.193803 J0.635666
G01 X26.263254 Y142.763473 Z-0.125000
G03 X26.298307 Y142.615673 Z-0.125000 I2.597502 J0.537988
G03 X26.341677 Y142.471373 Z-0.125000 I2.389805 J0.639583
G01 X26.839023 Y142.605076 Z-0.125000
G01 X26.839023 Y142.605076 Z-0.125000
G00 Z5.000000

(End cutting path id: path5520)


(Start cutting path id: path5514)
(Change tool to Default tool)

G00 Z5.000000
G00 X26.945244 Y142.350017

G01 Z-0.125000 F100.0(Penetrate)
G01 X26.435374 Y142.215256 Z-0.125000 F400.000000
G03 X26.498578 Y142.073475 Z-0.125000 I3.249093 J1.363416
G03 X26.564914 Y141.938326 Z-0.125000 I4.562584 J2.155627
G01 X27.114895 Y142.084376 Z-0.125000
G02 X27.022692 Y142.212714 Z-0.125000 I0.842517 J0.702586
G02 X26.945244 Y142.350017 Z-0.125000 I1.799472 J1.105511
G01 X26.945244 Y142.350017 Z-0.125000
G00 Z5.000000

(End cutting path id: path5514)


(Start cutting path id: path5526)
(Change tool to Default tool)

G00 Z5.000000
G00 X27.650800 Y141.608831

G01 Z-0.125000 F100.0(Penetrate)
G03 X27.506419 Y141.725451 Z-0.125000 I-4.715661 J-5.690513 F400.000000
G02 X27.358664 Y141.843076 Z-0.125000 I10.679798 J13.567097
G01 X26.718020 Y141.672331 Z-0.125000
G03 X26.802086 Y141.538351 Z-0.125000 I2.412943 J1.420644
G03 X26.894409 Y141.406337 Z-0.125000 I3.091221 J2.063521
G01 X27.650800 Y141.608831 Z-0.125000
G01 X27.650800 Y141.608831 Z-0.125000
G00 Z5.000000

(End cutting path id: path5526)


(Start cutting path id: path5528)
(Change tool to Default tool)

G00 Z5.000000
G00 X28.181342 Y141.155512

G01 Z-0.125000 F100.0(Penetrate)
G03 X28.046251 Y141.274860 Z-0.125000 I-16.090224 J-18.076583 F400.000000
G03 X27.908645 Y141.393990 Z-0.125000 I-9.492014 J-10.825108
G01 X27.070798 Y141.170681 Z-0.125000
G03 X27.172890 Y141.042745 Z-0.125000 I2.797907 J2.128002
G03 X27.281371 Y140.915623 Z-0.125000 I6.644542 J5.560349
G01 X28.181342 Y141.155512 Z-0.125000
G01 X28.181342 Y141.155512 Z-0.125000
G00 Z5.000000

(End cutting path id: path5528)


(Start cutting path id: path5530)
(Change tool to Default tool)

G00 Z5.000000
G00 X28.667787 Y140.690904

G01 Z-0.125000 F100.0(Penetrate)
G03 X28.545777 Y140.814419 Z-0.125000 I-5.475289 J-5.286566 F400.000000
G03 X28.419749 Y140.937848 Z-0.125000 I-12.073853 J-12.201969
G01 X27.486687 Y140.688434 Z-0.125000
G03 X27.604304 Y140.562896 Z-0.125000 I5.844434 J5.357805
G02 X27.722343 Y140.439020 Z-0.125000 I-25.646620 J-24.556260
G01 X28.667787 Y140.690904 Z-0.125000
G01 X28.667787 Y140.690904 Z-0.125000
G00 Z5.000000

(End cutting path id: path5530)


(Start cutting path id: path5734)
(Change tool to Default tool)

G00 Z5.000000
G00 X28.874515 Y140.463715

G01 Z-0.125000 F100.0(Penetrate)
G01 X27.942829 Y140.215712 Z-0.125000 F400.000000
G03 X28.065869 Y140.091630 Z-0.125000 I15.835104 J15.579047
G03 X28.189491 Y139.968767 Z-0.125000 I18.301561 J18.291153
G01 X29.090874 Y140.208656 Z-0.125000
G03 X28.984157 Y140.337725 Z-0.125000 I-6.522254 J-5.284086
G03 X28.874515 Y140.463715 Z-0.125000 I-4.179331 J-3.526340
G01 X28.874515 Y140.463715 Z-0.125000
G00 Z5.000000

(End cutting path id: path5734)


(Start cutting path id: path5722)
(Change tool to Default tool)

G00 Z5.000000
G00 X28.455450 Y139.445245

G01 Z-0.125000 F100.0(Penetrate)
G01 X29.449296 Y139.709828 Z-0.125000 F400.000000
G02 X29.362183 Y139.844683 Z-0.125000 I1121.264996 J724.407826
G03 X29.271390 Y139.974412 Z-0.125000 I-1.790438 J-1.156430
G01 X28.403204 Y139.742990 Z-0.125000
G02 X28.452854 Y139.635187 Z-0.125000 I-0.247420 J-0.179286
G02 X28.455450 Y139.445245 Z-0.125000 I-0.418530 J-0.100711
G01 X28.455450 Y139.445245 Z-0.125000
G00 Z5.000000

(End cutting path id: path5722)


(Start cutting path id: path1646)
(Change tool to Default tool)

G00 Z5.000000
G00 X27.915383 Y139.613520

G01 Z-0.125000 F100.0(Penetrate)
G01 X18.227788 Y137.032245 Z-0.125000 F400.000000
G03 X18.246907 Y136.988831 Z-0.125000 I1.618905 J0.687047
G03 X18.268992 Y136.942640 Z-0.125000 I1.318748 J0.602139
G03 X18.317973 Y136.851750 Z-0.125000 I1.220582 J0.599131
G03 X18.375249 Y136.760959 Z-0.125000 I1.514561 J0.892010
G01 X28.323159 Y139.409615 Z-0.125000
G03 X28.113244 Y139.522518 Z-0.125000 I-2.444113 J-4.292611
G03 X27.915383 Y139.613520 Z-0.125000 I-1.287630 J-2.539018
G01 X27.915383 Y139.613520 Z-0.125000
G00 Z5.000000

(End cutting path id: path1646)


(Start cutting path id: path5720)
(Change tool to Default tool)

G00 Z5.000000
G00 X27.431689 Y139.766273

G01 Z-0.125000 F100.0(Penetrate)
G03 X26.185579 Y139.725962 Z-0.125000 I-0.545916 J-2.404745 F400.000000
G03 X24.964997 Y139.109048 Z-0.125000 I1.084129 J-3.660915
G01 X27.431689 Y139.766273 Z-0.125000
G01 X27.431689 Y139.766273 Z-0.125000
G00 Z5.000000

(End cutting path id: path5720)


(Start cutting path id: path3558)
(Change tool to Default tool)

G00 Z5.000000
G00 X27.462028 Y138.063062

G01 Z-0.125000 F100.0(Penetrate)
G02 X27.645493 Y138.114718 Z-0.125000 I0.153162 J-0.192347 F400.000000
G02 X27.793992 Y138.079642 Z-0.125000 I-0.086914 J-0.699848
G01 X30.117351 Y138.699826 Z-0.125000
G02 X29.994373 Y138.823188 Z-0.125000 I1.146932 J1.266339
G02 X29.893020 Y138.950651 Z-0.125000 I0.991826 J0.892689
G01 X26.366336 Y138.012262 Z-0.125000
G02 X26.246756 Y137.817237 Z-0.125000 I-2.281928 J1.264995
G02 X26.113041 Y137.633026 Z-0.125000 I-2.775213 J1.873826
G01 X27.366778 Y137.966753 Z-0.125000
G03 X27.412118 Y138.016733 Z-0.125000 I-2.595724 J2.400347
G02 X27.462028 Y138.063062 Z-0.125000 I0.267129 J-0.237727
G01 X27.462028 Y138.063062 Z-0.125000
G00 Z5.000000

(End cutting path id: path3558)


(Start cutting path id: path3534)
(Change tool to Default tool)

G00 Z5.000000
G00 X26.998866 Y137.273545

G01 Z-0.125000 F100.0(Penetrate)
G02 X27.051910 Y137.452780 Z-0.125000 I2.108092 J-0.526410 F400.000000
G02 X27.120116 Y137.619267 Z-0.125000 I1.466133 J-0.503428
G01 X25.839921 Y137.277778 Z-0.125000
G03 X25.719648 Y137.078068 Z-0.125000 I0.943943 J-0.704548
G03 X25.664908 Y136.919356 Z-0.125000 I0.685826 J-0.325339
G01 X26.998866 Y137.273545 Z-0.125000
G01 X26.998866 Y137.273545 Z-0.125000
G00 Z5.000000

(End cutting path id: path3534)


(Start cutting path id: path1628)
(Change tool to Default tool)

G00 Z5.000000
G00 X26.947996 Y136.942640

G01 Z-0.125000 F100.0(Penetrate)
G01 X25.692495 Y136.607853 Z-0.125000 F400.000000
G03 X25.773676 Y136.482989 Z-0.125000 I0.471650 J0.217823
G03 X25.912981 Y136.354206 Z-0.125000 I0.684728 J0.600938
G01 X26.960414 Y136.633959 Z-0.125000
G02 X26.946436 Y136.786023 Z-0.125000 I1.312187 J0.197287
G02 X26.947996 Y136.942640 Z-0.125000 I1.777572 J0.060616
G01 X26.947996 Y136.942640 Z-0.125000
G00 Z5.000000

(End cutting path id: path1628)


(Start cutting path id: path1632)
(Change tool to Default tool)

G00 Z5.000000
G00 X27.153348 Y136.117492

G01 Z-0.125000 F100.0(Penetrate)
G02 X27.083246 Y136.236434 Z-0.125000 I0.780410 J0.540088 F400.000000
G02 X27.026700 Y136.367965 Z-0.125000 I1.193898 J0.591180
G01 X26.188853 Y136.146420 Z-0.125000
G02 X26.311955 Y136.024201 Z-0.125000 I-1.560577 J-1.694940
G02 X26.425602 Y135.897006 Z-0.125000 I-2.816935 J-2.631294
G01 X27.167106 Y136.095267 Z-0.125000
G02 X27.161494 Y136.105115 Z-0.125000 I0.185988 J0.112523
G03 X27.153348 Y136.117492 Z-0.125000 I-0.072554 J-0.038880
G01 X27.153348 Y136.117492 Z-0.125000
G00 Z5.000000

(End cutting path id: path1632)


(Start cutting path id: path1228)
(Change tool to Default tool)

G00 Z5.000000
G00 X27.325468 Y135.855378

G01 Z-0.125000 F100.0(Penetrate)
G01 X26.622805 Y135.668053 Z-0.125000 F400.000000
G02 X26.632998 Y135.656903 Z-0.125000 I-0.034535 J-0.041806
G03 X26.642208 Y135.646181 Z-0.125000 I0.053680 J0.036791
G02 X26.752730 Y135.519035 Z-0.125000 I-4.005046 J-3.593004
G02 X26.840399 Y135.412995 Z-0.125000 I-5.802051 J-4.886103
G01 X27.482842 Y135.584092 Z-0.125000
G03 X27.404207 Y135.724525 Z-0.125000 I-14.374905 J-7.956964
G03 X27.325468 Y135.855378 Z-0.125000 I-2.521932 J-1.428421
G01 X27.325468 Y135.855378 Z-0.125000
G00 Z5.000000

(End cutting path id: path1228)


(Start cutting path id: path5568)
(Change tool to Default tool)

G00 Z5.000000
G00 X28.036668 Y135.448978

G01 Z-0.125000 F100.0(Penetrate)
G02 X27.936137 Y135.273301 Z-0.125000 I-18.562770 J10.505857 F400.000000
G03 X27.825672 Y135.081031 Z-0.125000 I31.761649 J-18.376057
G01 X28.886898 Y135.365017 Z-0.125000
G03 X28.966033 Y135.501590 Z-0.125000 I-9.389324 J5.531695
G02 X29.043884 Y135.637715 Z-0.125000 I42.728582 J-24.346718
G03 X29.053282 Y135.679577 Z-0.125000 I-0.717930 J0.183164
G03 X29.060394 Y135.723087 Z-0.125000 I-0.724636 J0.140779
G01 X28.036668 Y135.448978 Z-0.125000
G01 X28.036668 Y135.448978 Z-0.125000
G00 Z5.000000

(End cutting path id: path5568)


(Start cutting path id: path5728)
(Change tool to Default tool)

G00 Z5.000000
G00 X27.729504 Y135.056337

G01 Z-0.125000 F100.0(Penetrate)
G03 X27.666907 Y135.202710 Z-0.125000 I-5.499468 J-2.265304 F400.000000
G03 X27.605185 Y135.334678 Z-0.125000 I-3.333856 J-1.478826
G01 X27.018304 Y135.178751 Z-0.125000
G02 X27.109505 Y135.025581 Z-0.125000 I-1.190483 J-0.812579
G02 X27.160086 Y134.904642 Z-0.125000 I-0.738114 J-0.379750
G01 X27.729504 Y135.056337 Z-0.125000
G01 X27.729504 Y135.056337 Z-0.125000
G00 Z5.000000

(End cutting path id: path5728)


(Start cutting path id: path5730)
(Change tool to Default tool)

G00 Z5.000000
G00 X28.487130 Y134.663342

G01 Z-0.125000 F100.0(Penetrate)
G03 X28.592702 Y134.847795 Z-0.125000 I-10.595889 J6.187025 F400.000000
G02 X28.696750 Y135.031290 Z-0.125000 I19.787392 J-11.098975
G01 X27.165730 Y134.623478 Z-0.125000
G02 X27.104267 Y134.465655 Z-0.125000 I-0.625110 J0.152566
G02 X26.964541 Y134.256942 Z-0.125000 I-1.272287 J0.700623
G01 X28.487130 Y134.663342 Z-0.125000
G01 X28.487130 Y134.663342 Z-0.125000
G00 Z5.000000

(End cutting path id: path5730)


(Start cutting path id: path1230)
(Change tool to Default tool)

G00 Z5.000000
G00 X28.093148 Y133.963431

G01 Z-0.125000 F100.0(Penetrate)
G03 X28.195874 Y134.147184 Z-0.125000 I-92.816918 J52.009479 F400.000000
G02 X28.299875 Y134.331378 Z-0.125000 I17.649874 J-9.844178
G01 X26.627074 Y133.886173 Z-0.125000
G01 X26.626498 Y133.885061 Z-0.125000
G01 X26.625557 Y133.884762 Z-0.125000
G03 X26.448015 Y133.696375 Z-0.125000 I2.943910 J-2.952297
G03 X26.254858 Y133.474128 Z-0.125000 I11.932535 J-10.565744
G01 X28.093148 Y133.963431 Z-0.125000
G01 X28.093148 Y133.963431 Z-0.125000
G00 Z5.000000

(End cutting path id: path1230)


(Start cutting path id: path1644)
(Change tool to Default tool)

G00 Z5.000000
G00 X27.908645 Y133.632878

G01 Z-0.125000 F100.0(Penetrate)
G01 X25.161917 Y132.900865 Z-0.125000 F400.000000
G03 X25.165053 Y132.868672 Z-0.125000 I0.441573 J0.026762
G02 X25.167597 Y132.830662 Z-0.125000 I-0.282682 J-0.038011
G02 X25.149798 Y132.673404 Z-0.125000 I-0.703627 J0.000000
G02 X25.111082 Y132.575603 Z-0.125000 I-0.339563 J0.077860
G01 X27.699024 Y133.264931 Z-0.125000
G02 X27.709996 Y133.281335 Z-0.125000 I0.240001 J-0.148646
G03 X27.720967 Y133.297740 Z-0.125000 I-0.229029 J0.165050
G02 X27.813679 Y133.465778 Z-0.125000 I6.630865 J-3.548855
G03 X27.908645 Y133.632878 Z-0.125000 I-624.113190 J354.803970
G01 X27.908645 Y133.632878 Z-0.125000
G00 Z5.000000

(End cutting path id: path1644)


(Start cutting path id: path3780)
(Change tool to Default tool)

G00 Z5.000000
G00 X27.883562 Y132.719184

G01 Z-0.125000 F100.0(Penetrate)
G02 X27.795159 Y132.764621 Z-0.125000 I13.807316 J26.972431 F400.000000
G03 X27.707174 Y132.808790 Z-0.125000 I-2.022078 J-3.918363
G02 X27.601365 Y132.888258 Z-0.125000 I0.157589 J0.319997
G02 X27.568250 Y132.947784 Z-0.125000 I0.109214 J0.099731
G01 X22.554819 Y131.612520 Z-0.125000
G02 X23.033537 Y131.584598 Z-0.125000 I-7.493138 J-132.584464
G02 X23.508412 Y131.554665 Z-0.125000 I-4.953027 J-82.359248
G01 X27.883562 Y132.719184 Z-0.125000
G01 X27.883562 Y132.719184 Z-0.125000
G00 Z5.000000

(End cutting path id: path3780)


(Start cutting path id: path1848)
(Change tool to Default tool)

G00 Z5.000000
G00 X28.284706 Y132.513867

G01 Z-0.125000 F100.0(Penetrate)
G01 X24.416568 Y131.484462 Z-0.125000 F400.000000
G03 X24.437831 Y131.482346 Z-0.125000 I0.268750 J2.593431
G02 X24.459149 Y131.480228 Z-0.125000 I-0.256411 J-2.689133
G03 X24.952598 Y131.450612 Z-0.125000 I0.705563 J7.629928
G03 X25.444422 Y131.445656 Z-0.125000 I0.386588 J13.959882
G01 X28.682957 Y132.308551 Z-0.125000
G02 X28.484102 Y132.410406 Z-0.125000 I22.226837 J43.639077
G02 X28.284706 Y132.513867 Z-0.125000 I17.237463 J33.464798
G01 X28.284706 Y132.513867 Z-0.125000
G00 Z5.000000

(End cutting path id: path1848)


(Start cutting path id: path1840)
(Change tool to Default tool)

G00 Z5.000000
G00 X29.056549 Y132.125106

G01 Z-0.125000 F100.0(Penetrate)
G01 X26.619912 Y131.477406 Z-0.125000 F400.000000
G02 X27.182015 Y131.483297 Z-0.125000 I0.466843 J-17.726699
G02 X27.740370 Y131.462237 Z-0.125000 I-0.046432 J-8.643365
G01 X29.493393 Y131.929315 Z-0.125000
G02 X29.272086 Y132.024457 Z-0.125000 I2.863570 J6.965799
G02 X29.056549 Y132.125106 Z-0.125000 I3.278827 J7.302623
G01 X29.056549 Y132.125106 Z-0.125000
G00 Z5.000000

(End cutting path id: path1840)


(Start cutting path id: path3778)
(Change tool to Default tool)

G00 Z5.000000
G00 X30.514226 Y131.606876

G01 Z-0.125000 F100.0(Penetrate)
G02 X30.219579 Y131.676591 Z-0.125000 I0.744153 J3.802622 F400.000000
G02 X29.934365 Y131.764215 Z-0.125000 I1.500773 J5.392997
G01 X28.459719 Y131.371220 Z-0.125000
G02 X28.758061 Y131.306069 Z-0.125000 I-0.843574 J-4.578596
G02 X29.057642 Y131.218467 Z-0.125000 I-1.043806 J-4.125667
G01 X30.514226 Y131.606876 Z-0.125000
G01 X30.514226 Y131.606876 Z-0.125000
G00 Z5.000000

(End cutting path id: path3778)


(Start cutting path id: path3590)
(Change tool to Default tool)

G00 Z5.000000
G00 X32.012156 Y132.005162

G01 Z-0.125000 F100.0(Penetrate)
G01 X34.779416 Y132.742467 Z-0.125000 F400.000000
G02 X34.906997 Y132.931729 Z-0.125000 I56.542108 J-37.977449
G03 X35.027312 Y133.121351 Z-0.125000 I-3.163375 J2.140151
G01 X33.504724 Y132.714951 Z-0.125000
G02 X33.370541 Y132.653983 Z-0.125000 I-0.226989 J0.321432
G02 X33.223595 Y132.640515 Z-0.125000 I-0.119052 J0.490544
G01 X32.019176 Y132.319487 Z-0.125000
G02 X32.021913 Y132.159233 Z-0.125000 I-1.715823 J-0.109448
G02 X32.012156 Y132.005162 Z-0.125000 I-2.290865 J0.067725
G01 X32.012156 Y132.005162 Z-0.125000
G00 Z5.000000

(End cutting path id: path3590)


(Start cutting path id: path3596)
(Change tool to Default tool)

G00 Z5.000000
G00 X32.748051 Y132.796090

G01 Z-0.125000 F100.0(Penetrate)
G02 X32.558237 Y132.893849 Z-0.125000 I2.375828 J4.846148 F400.000000
G03 X32.356820 Y133.000348 Z-0.125000 I-6.017739 J-11.137400
G01 X32.353295 Y133.001227 Z-0.125000
G01 X32.351176 Y133.002817 Z-0.125000
G01 X31.863601 Y132.873348 Z-0.125000
G02 X31.931422 Y132.733529 Z-0.125000 I-1.169265 J-0.653520
G02 X31.977972 Y132.590773 Z-0.125000 I-0.885601 J-0.367746
G01 X32.748051 Y132.796090 Z-0.125000
G01 X32.748051 Y132.796090 Z-0.125000
G00 Z5.000000

(End cutting path id: path3596)


(Start cutting path id: path1652)
(Change tool to Default tool)

G00 Z5.000000
G00 X32.239662 Y133.339367

G01 Z-0.125000 F100.0(Penetrate)
G02 X32.239856 Y133.458919 Z-0.125000 I3.012060 J0.054893 F400.000000
G03 X32.224528 Y133.563734 Z-0.125000 I-0.319180 J0.006852
G01 X31.511917 Y133.373587 Z-0.125000
G03 X31.540866 Y133.214183 Z-0.125000 I0.105799 J-0.063117
G03 X31.678816 Y133.106181 Z-0.125000 I5.825665 J7.299013
G01 X32.234018 Y133.253642 Z-0.125000
G02 X32.237308 Y133.295447 Z-0.125000 I0.732853 J-0.036643
G03 X32.239662 Y133.339367 Z-0.125000 I-0.408467 J0.043921
G01 X32.239662 Y133.339367 Z-0.125000
G00 Z5.000000

(End cutting path id: path1652)


(Start cutting path id: path5612)
(Change tool to Default tool)

G00 Z5.000000
G00 X33.927775 Y133.705903

G01 Z-0.125000 F100.0(Penetrate)
G01 X35.508537 Y134.126062 Z-0.125000 F400.000000
G02 X35.641770 Y134.316723 Z-0.125000 I2.791061 J-1.808486
G03 X35.779858 Y134.510590 Z-0.125000 I-3.663463 J2.755559
G01 X34.108291 Y134.065384 Z-0.125000
G03 X34.009873 Y133.885466 Z-0.125000 I4.906731 J-2.800926
G03 X33.927775 Y133.705903 Z-0.125000 I1.633630 J-0.855470
G01 X33.927775 Y133.705903 Z-0.125000
G00 Z5.000000

(End cutting path id: path5612)


(Start cutting path id: path5606)
(Change tool to Default tool)

G00 Z5.000000
G00 X35.236898 Y133.458959

G01 Z-0.125000 F100.0(Penetrate)
G02 X35.277030 Y133.524823 Z-0.125000 I2.492589 J-1.473619 F400.000000
G02 X35.319448 Y133.589840 Z-0.125000 I1.876939 J-1.178212
G02 X35.330319 Y133.702469 Z-0.125000 I0.729534 J-0.013573
G02 X35.352680 Y133.802212 Z-0.125000 I1.078168 J-0.189334
G01 X33.840956 Y133.399692 Z-0.125000
G02 X33.793145 Y133.203623 Z-0.125000 I-3.115582 J0.655868
G02 X33.747117 Y133.062084 Z-0.125000 I-1.647864 J0.457621
G01 X35.236898 Y133.458959 Z-0.125000
G01 X35.236898 Y133.458959 Z-0.125000
G00 Z5.000000

(End cutting path id: path5606)


(Start cutting path id: path3774)
(Change tool to Default tool)

G00 Z5.000000
G00 X34.647124 Y132.114170

G01 Z-0.125000 F100.0(Penetrate)
G02 X34.546839 Y132.203592 Z-0.125000 I0.056679 J0.164508 F400.000000
G02 X34.554626 Y132.400626 Z-0.125000 I0.190525 J0.091142
G01 X31.959945 Y131.710240 Z-0.125000
G01 X31.959945 Y131.706359 Z-0.125000
G02 X31.718707 Y131.503656 Z-0.125000 I-0.257484 J0.061533
G02 X31.228319 Y131.516212 Z-0.125000 I-0.173221 J2.817310
G01 X29.542712 Y131.066773 Z-0.125000
G03 X29.857355 Y130.986484 Z-0.125000 I1.611209 J5.657452
G03 X30.172773 Y130.922134 Z-0.125000 I1.690590 J7.481430
G01 X34.647124 Y132.114170 Z-0.125000
G01 X34.647124 Y132.114170 Z-0.125000
G00 Z5.000000

(End cutting path id: path3774)


(Start cutting path id: path1832)
(Change tool to Default tool)

G00 Z5.000000
G00 X34.721525 Y131.852409

G01 Z-0.125000 F100.0(Penetrate)
G01 X30.867004 Y130.824415 Z-0.125000 F400.000000
G03 X31.363823 Y130.790882 Z-0.125000 I0.945547 J10.311957
G03 X31.867482 Y130.778906 Z-0.125000 I0.557687 J12.857567
G01 X34.489997 Y131.477406 Z-0.125000
G03 X34.608946 Y131.646589 Z-0.125000 I-1.217745 J0.982581
G03 X34.721525 Y131.852409 Z-0.125000 I-2.172644 J1.322086
G01 X34.721525 Y131.852409 Z-0.125000
G00 Z5.000000

(End cutting path id: path1832)


(Start cutting path id: path3768)
(Change tool to Default tool)

G00 Z5.000000
G00 X33.078886 Y130.818770

G01 Z-0.125000 F100.0(Penetrate)
G03 X33.559719 Y130.906749 Z-0.125000 I-0.368641 J3.372708 F400.000000
G03 X33.945696 Y131.050192 Z-0.125000 I-0.502567 J1.943315
G01 X33.078886 Y130.818770 Z-0.125000
G01 X33.078886 Y130.818770 Z-0.125000
G00 Z5.000000

(End cutting path id: path3768)


(Start cutting path id: path3530)
(Change tool to Default tool)

G00 Z5.000000
G00 X35.960375 Y134.870070

G01 Z-0.125000 F100.0(Penetrate)
G02 X36.022595 Y135.050300 Z-0.125000 I6.357223 J-2.093818 F400.000000
G02 X36.085646 Y135.216145 Z-0.125000 I5.011878 J-1.810524
G01 X34.509435 Y134.795634 Z-0.125000
G02 X34.424057 Y134.613051 Z-0.125000 I-2.030525 J0.838243
G02 X34.326026 Y134.434742 Z-0.125000 I-4.648109 J2.439356
G01 X35.960375 Y134.870070 Z-0.125000
G01 X35.960375 Y134.870070 Z-0.125000
G00 Z5.000000

(End cutting path id: path3530)


(Start cutting path id: path3528)
(Change tool to Default tool)

G00 Z5.000000
G00 X36.233107 Y135.537173

G01 Z-0.125000 F100.0(Penetrate)
G02 X36.356630 Y135.738786 Z-0.125000 I1.695594 J-0.900198 F400.000000
G02 X36.504852 Y135.923112 Z-0.125000 I1.469620 J-1.030007
G01 X34.615268 Y135.418640 Z-0.125000
G03 X34.616954 Y135.362187 Z-0.125000 I0.945675 J0.000000
G02 X34.616644 Y135.301517 Z-0.125000 I-0.467264 J-0.027943
G02 X34.608348 Y135.199302 Z-0.125000 I-0.841092 J0.016822
G02 X34.591985 Y135.100434 Z-0.125000 I-2.250578 J0.321690
G01 X36.233107 Y135.537173 Z-0.125000
G01 X36.233107 Y135.537173 Z-0.125000
G00 Z5.000000

(End cutting path id: path3528)


(Start cutting path id: path5754)
(Change tool to Default tool)

G00 Z5.000000
G00 X37.437491 Y136.472740

G01 Z-0.125000 F100.0(Penetrate)
G03 X37.928515 Y136.691367 Z-0.125000 I-0.577985 J1.958837 F400.000000
G03 X38.366425 Y137.013195 Z-0.125000 I-1.717405 J2.795713
G01 X34.470735 Y135.975323 Z-0.125000
G02 X34.533607 Y135.840314 Z-0.125000 I-1.253974 J-0.666111
G02 X34.582495 Y135.692748 Z-0.125000 I-1.136880 J-0.458520
G01 X37.244556 Y136.401126 Z-0.125000
G02 X37.335928 Y136.437780 Z-0.125000 I7.887889 J-19.530858
G02 X37.437491 Y136.472740 Z-0.125000 I0.417378 J-1.047524
G01 X37.437491 Y136.472740 Z-0.125000
G00 Z5.000000

(End cutting path id: path5754)


(Start cutting path id: path4672)
(Change tool to Default tool)

G00 Z5.000000
G00 X36.705900 Y137.447112

G01 Z-0.125000 F100.0(Penetrate)
G02 X36.619257 Y137.526718 Z-0.125000 I0.073186 J0.166611 F400.000000
G02 X36.574984 Y137.631967 Z-0.125000 I0.500628 J0.272521
G03 X36.563138 Y137.673378 Z-0.125000 I-0.724266 J-0.184781
G03 X36.548949 Y137.717340 Z-0.125000 I-4.607588 J-1.462898
G01 X35.635149 Y137.474628 Z-0.125000
G02 X35.558319 Y137.293990 Z-0.125000 I-3.983460 J1.587594
G02 X35.472554 Y137.119028 Z-0.125000 I-2.887627 J1.307008
G01 X36.705900 Y137.447112 Z-0.125000
G01 X36.705900 Y137.447112 Z-0.125000
G00 Z5.000000

(End cutting path id: path4672)


(Start cutting path id: path4658)
(Change tool to Default tool)

G00 Z5.000000
G00 X36.489541 Y137.983334

G01 Z-0.125000 F100.0(Penetrate)
G02 X36.485397 Y138.055319 Z-0.125000 I0.632104 J0.072506 F400.000000
G02 X36.493810 Y138.122328 Z-0.125000 I0.269308 J0.000221
G03 X36.506576 Y138.215848 Z-0.125000 I-3.528619 J0.529293
G03 X36.517093 Y138.302951 Z-0.125000 I-19.208747 J2.363671
G01 X35.804518 Y138.112803 Z-0.125000
G02 X35.780512 Y137.951183 Z-0.125000 I-2.364084 J0.268542
G02 X35.741406 Y137.784720 Z-0.125000 I-1.718578 J0.315915
G01 X36.489541 Y137.983334 Z-0.125000
G01 X36.489541 Y137.983334 Z-0.125000
G00 Z5.000000

(End cutting path id: path4658)


(Start cutting path id: path4434)
(Change tool to Default tool)

G00 Z5.000000
G00 X36.529511 Y138.900909

G01 Z-0.125000 F100.0(Penetrate)
G01 X35.752306 Y138.692770 Z-0.125000 F400.000000
G03 X35.761188 Y138.673382 Z-0.125000 I0.245217 J0.100602
G02 X35.768816 Y138.654317 Z-0.125000 I-0.102799 J-0.052192
G02 X35.795989 Y138.528464 Z-0.125000 I-0.989252 J-0.279442
G02 X35.810162 Y138.396437 Z-0.125000 I-1.526099 J-0.230604
G01 X36.541788 Y138.592228 Z-0.125000
G03 X36.541718 Y138.753722 Z-0.125000 I-2.013449 J0.079878
G03 X36.529511 Y138.900909 Z-0.125000 I-1.747698 J-0.070846
G01 X36.529511 Y138.900909 Z-0.125000
G00 Z5.000000

(End cutting path id: path4434)


(Start cutting path id: path5508)
(Change tool to Default tool)

G00 Z5.000000
G00 X35.606221 Y138.936892

G01 Z-0.125000 F100.0(Penetrate)
G01 X36.472996 Y139.168315 Z-0.125000 F400.000000
G03 X36.417208 Y139.311562 Z-0.125000 I-1.263913 J-0.409745
G03 X36.347478 Y139.445245 Z-0.125000 I-1.331003 J-0.609237
G01 X35.309958 Y139.169726 Z-0.125000
G02 X35.474491 Y139.059323 Z-0.125000 I-0.766264 J-1.319767
G02 X35.606221 Y138.936892 Z-0.125000 I-0.591435 J-0.768440
G01 X35.606221 Y138.936892 Z-0.125000
G00 Z5.000000

(End cutting path id: path5508)


(Start cutting path id: path1224)
(Change tool to Default tool)

G00 Z5.000000
G00 X35.495837 Y140.131398

G01 Z-0.125000 F100.0(Penetrate)
G02 X35.432927 Y140.161445 Z-0.125000 I0.451871 J1.026980 F400.000000
G03 X35.366297 Y140.192076 Z-0.125000 I-0.367860 J-0.712403
G02 X35.222634 Y140.260662 Z-0.125000 I0.501297 J1.234778
G02 X35.098962 Y140.338126 Z-0.125000 I0.649503 J1.174406
G01 X31.886885 Y139.482640 Z-0.125000
G02 X31.874606 Y139.341678 Z-0.125000 I-110.353637 J9.541856
G03 X31.866106 Y139.197242 Z-0.125000 I2.506910 J-0.219990
G02 X31.865355 Y139.181826 Z-0.125000 I-0.158608 J-0.000000
G02 X31.863601 Y139.164081 Z-0.125000 I-7.663407 J0.748421
G01 X35.495837 Y140.131398 Z-0.125000
G01 X35.495837 Y140.131398 Z-0.125000
G00 Z5.000000

(End cutting path id: path1224)


(Start cutting path id: path5716)
(Change tool to Default tool)

G00 Z5.000000
G00 X34.689704 Y140.823195

G01 Z-0.125000 F100.0(Penetrate)
G01 X31.988873 Y140.103881 Z-0.125000 F400.000000
G03 X31.956401 Y139.940802 Z-0.125000 I33.783022 J-6.811447
G03 X31.926713 Y139.776151 Z-0.125000 I5.215352 J-1.025375
G01 X34.863306 Y140.557201 Z-0.125000
G02 X34.770191 Y140.684742 Z-0.125000 I1.010333 J0.835384
G02 X34.689704 Y140.823195 Z-0.125000 I1.539751 J0.987722
G01 X34.689704 Y140.823195 Z-0.125000
G00 Z5.000000

(End cutting path id: path5716)


(Start cutting path id: path5496)
(Change tool to Default tool)

G00 Z5.000000
G00 X34.579708 Y141.076842

G01 Z-0.125000 F100.0(Penetrate)
G02 X34.535771 Y141.216446 Z-0.125000 I2.596072 J0.893762 F400.000000
G02 X34.496770 Y141.366120 Z-0.125000 I3.185324 J0.909936
G01 X32.123916 Y140.735001 Z-0.125000
G02 X32.089279 Y140.569806 Z-0.125000 I-10.680937 J2.153304
G03 X32.053784 Y140.404448 Z-0.125000 I27.717638 J-6.036213
G01 X34.579708 Y141.076842 Z-0.125000
G01 X34.579708 Y141.076842 Z-0.125000
G00 Z5.000000

(End cutting path id: path5496)


(Start cutting path id: path4396)
(Change tool to Default tool)

G00 Z5.000000
G00 X34.378237 Y142.211023

G01 Z-0.125000 F100.0(Penetrate)
G02 X34.368220 Y142.314087 Z-0.125000 I68.129124 J6.673160 F400.000000
G02 X34.359222 Y142.419162 Z-0.125000 I4.907707 J0.473210
G02 X34.452077 Y142.336990 Z-0.125000 I-2.381873 J-2.785079
G02 X34.540867 Y142.255120 Z-0.125000 I-11.615372 J-12.686352
G01 X35.235522 Y142.439623 Z-0.125000
G03 X35.070782 Y142.550810 Z-0.125000 I-8.465408 J-12.365113
G02 X34.902041 Y142.664342 Z-0.125000 I10.863659 J16.328596
G01 X33.328335 Y142.244184 Z-0.125000
G03 X33.356024 Y142.102608 Z-0.125000 I3.539021 J0.618673
G03 X33.394339 Y141.949262 Z-0.125000 I2.442845 J0.528908
G01 X34.378237 Y142.211023 Z-0.125000
G01 X34.378237 Y142.211023 Z-0.125000
G00 Z5.000000

(End cutting path id: path4396)


(Start cutting path id: path4392)
(Change tool to Default tool)

G00 Z5.000000
G00 X33.456499 Y141.371765

G01 Z-0.125000 F100.0(Penetrate)
G01 X34.447416 Y141.634937 Z-0.125000 F400.000000
G02 X34.424821 Y141.784159 Z-0.125000 I4.611468 J0.774595
G02 X34.407200 Y141.936915 Z-0.125000 I3.949624 J0.533007
G01 X33.456499 Y141.684679 Z-0.125000
G02 X33.477081 Y141.486534 Z-0.125000 I-1.078733 J-0.212196
G02 X33.456499 Y141.371765 Z-0.125000 I-0.308299 J-0.003941
G01 X33.456499 Y141.371765 Z-0.125000
G00 Z5.000000

(End cutting path id: path4392)


(Start cutting path id: path5500)
(Change tool to Default tool)

G00 Z5.000000
G00 X33.048582 Y141.262756

G01 Z-0.125000 F100.0(Penetrate)
G02 X33.021912 Y141.414937 Z-0.125000 I33.061291 J5.872425 F400.000000
G02 X32.998840 Y141.561912 Z-0.125000 I4.735482 J0.818670
G01 X32.227421 Y141.356595 Z-0.125000
G02 X32.207828 Y141.194656 Z-0.125000 I-4.242287 J0.431116
G02 X32.181807 Y141.031334 Z-0.125000 I-4.434930 J0.622862
G01 X33.048582 Y141.262756 Z-0.125000
G01 X33.048582 Y141.262756 Z-0.125000
G00 Z5.000000

(End cutting path id: path5500)


(Start cutting path id: path5492)
(Change tool to Default tool)

G00 Z5.000000
G00 X32.959012 Y142.146112

G01 Z-0.125000 F100.0(Penetrate)
G01 X32.261570 Y141.960198 Z-0.125000 F400.000000
G03 X32.253823 Y141.821051 Z-0.125000 I29.838772 J-1.731104
G03 X32.249187 Y141.689970 Z-0.125000 I3.650547 J-0.194713
G02 X32.248523 Y141.667472 Z-0.125000 I-0.381076 J-0.000000
G03 X32.247812 Y141.643404 Z-0.125000 I0.406952 J-0.024068
G01 X32.974181 Y141.837431 Z-0.125000
G02 X32.964948 Y141.992908 Z-0.125000 I8.790430 J0.600029
G02 X32.959012 Y142.146112 Z-0.125000 I6.517904 J0.329280
G01 X32.959012 Y142.146112 Z-0.125000
G00 Z5.000000

(End cutting path id: path5492)


(Start cutting path id: path4436)
(Change tool to Default tool)

G00 Z5.000000
G00 X32.983671 Y142.747245

G01 Z-0.125000 F100.0(Penetrate)
G01 X32.221777 Y142.542987 Z-0.125000 F400.000000
G02 X32.251836 Y142.401980 Z-0.125000 I-0.872050 J-0.259610
G02 X32.264357 Y142.242773 Z-0.125000 I-1.516101 J-0.199327
G01 X32.960387 Y142.428687 Z-0.125000
G02 X32.970579 Y142.587864 Z-0.125000 I7.349874 J-0.390691
G02 X32.983671 Y142.747245 Z-0.125000 I11.109559 J-0.832296
G01 X32.983671 Y142.747245 Z-0.125000
G00 Z5.000000

(End cutting path id: path4436)


(Start cutting path id: path4368)
(Change tool to Default tool)

G00 Z5.000000
G00 X33.018278 Y143.037934

G01 Z-0.125000 F100.0(Penetrate)
G02 X33.048200 Y143.202950 Z-0.125000 I4.857790 J-0.795619 F400.000000
G02 X33.084283 Y143.367076 Z-0.125000 I4.121388 J-0.820062
G01 X31.958569 Y143.068273 Z-0.125000
G02 X32.031309 Y142.930976 Z-0.125000 I-55.050728 J-29.253701
G03 X32.104619 Y142.795223 Z-0.125000 I7.415009 J3.916633
G01 X33.018278 Y143.037934 Z-0.125000
G01 X33.018278 Y143.037934 Z-0.125000
G00 Z5.000000

(End cutting path id: path4368)


(Start cutting path id: path4330)
(Change tool to Default tool)

G00 Z5.000000
G00 X33.172477 Y143.697981

G01 Z-0.125000 F100.0(Penetrate)
G02 X33.223736 Y143.867626 Z-0.125000 I3.703950 J-1.026589 F400.000000
G02 X33.282862 Y144.039823 Z-0.125000 I6.065848 J-1.986527
G01 X31.684461 Y143.614020 Z-0.125000
G02 X31.750049 Y143.474413 Z-0.125000 I-11.682198 J-5.573568
G03 X31.815235 Y143.336737 Z-0.125000 I7.713083 J3.567701
G01 X33.172477 Y143.697981 Z-0.125000
G01 X33.172477 Y143.697981 Z-0.125000
G00 Z5.000000

(End cutting path id: path4330)


(Start cutting path id: path4336)
(Change tool to Default tool)

G00 Z5.000000
G00 X33.408098 Y144.353795

G01 Z-0.125000 F100.0(Penetrate)
G02 X33.490195 Y144.531914 Z-0.125000 I3.135018 J-1.336993 F400.000000
G02 X33.583393 Y144.713629 Z-0.125000 I6.913819 J-3.431208
G01 X31.433671 Y144.141776 Z-0.125000
G03 X31.499199 Y144.002580 Z-0.125000 I5.001752 J2.269592
G02 X31.565963 Y143.863434 Z-0.125000 I-10.478992 J-5.113559
G01 X33.408098 Y144.353795 Z-0.125000
G01 X33.408098 Y144.353795 Z-0.125000
G00 Z5.000000

(End cutting path id: path4336)


(Start cutting path id: path4338)
(Change tool to Default tool)

G00 Z5.000000
G00 X33.766555 Y145.044181

G01 Z-0.125000 F100.0(Penetrate)
G02 X33.895841 Y145.238680 Z-0.125000 I5.974315 J-3.830969 F400.000000
G02 X34.031139 Y145.427298 Z-0.125000 I4.991838 J-3.437875
G01 X32.855648 Y145.114384 Z-0.125000
G03 X32.786714 Y144.945331 Z-0.125000 I3.777621 J-1.638961
G03 X32.720463 Y144.765840 Z-0.125000 I7.823165 J-2.989515
G01 X33.766555 Y145.044181 Z-0.125000
G01 X33.766555 Y145.044181 Z-0.125000
G00 Z5.000000

(End cutting path id: path4338)


(Start cutting path id: path4340)
(Change tool to Default tool)

G00 Z5.000000
G00 X34.305212 Y145.782898

G01 Z-0.125000 F100.0(Penetrate)
G03 X34.460100 Y145.979542 Z-0.125000 I-75.881931 J59.928318 F400.000000
G03 X34.608671 Y146.175540 Z-0.125000 I-5.603729 J4.402079
G01 X33.236013 Y145.809004 Z-0.125000
G03 X33.123551 Y145.629789 Z-0.125000 I5.025584 J-3.278595
G03 X33.014010 Y145.438234 Z-0.125000 I4.051370 J-2.443874
G01 X34.305212 Y145.782898 Z-0.125000
G01 X34.305212 Y145.782898 Z-0.125000
G00 Z5.000000

(End cutting path id: path4340)


(Start cutting path id: path4342)
(Change tool to Default tool)

G00 Z5.000000
G00 X34.850924 Y146.521615

G01 Z-0.125000 F100.0(Penetrate)
G03 X34.918408 Y146.630021 Z-0.125000 I-5.210811 J3.319005 F400.000000
G03 X34.981839 Y146.742101 Z-0.125000 I-1.748552 J1.063582
G02 X35.026911 Y146.818442 Z-0.125000 I1.416222 J-0.784664
G03 X35.072927 Y146.893442 Z-0.125000 I-3.581872 J2.249214
G01 X33.798235 Y146.553365 Z-0.125000
G03 X33.637640 Y146.356863 Z-0.125000 I7.314502 J-6.141797
G03 X33.481158 Y146.156490 Z-0.125000 I11.204045 J-8.911102
G01 X34.850924 Y146.521615 Z-0.125000
G01 X34.850924 Y146.521615 Z-0.125000
G00 Z5.000000

(End cutting path id: path4342)


(Start cutting path id: path4448)
(Change tool to Default tool)

G00 Z5.000000
G00 X35.309958 Y147.239517

G01 Z-0.125000 F100.0(Penetrate)
G02 X35.499384 Y147.458876 Z-0.125000 I2.611702 J-2.063852 F400.000000
G02 X35.697308 Y147.654384 Z-0.125000 I2.837058 J-2.674179
G01 X34.470735 Y147.327712 Z-0.125000
G03 X34.345579 Y147.185776 Z-0.125000 I154.702496 J-136.539275
G03 X34.224037 Y147.046548 Z-0.125000 I15.344959 J-13.518332
G02 X34.169135 Y146.984072 Z-0.125000 I-7.064650 J6.152888
G03 X34.113653 Y146.919901 Z-0.125000 I2.538720 J-2.251018
G01 X35.309958 Y147.239517 Z-0.125000
G01 X35.309958 Y147.239517 Z-0.125000
G00 Z5.000000

(End cutting path id: path4448)


(Start cutting path id: path4344)
(Change tool to Default tool)

G00 Z5.000000
G00 X36.321302 Y148.102059

G01 Z-0.125000 F100.0(Penetrate)
G02 X36.496670 Y148.195093 Z-0.125000 I2.079894 J-3.708768 F400.000000
G02 X36.667447 Y148.274215 Z-0.125000 I1.379910 J-2.754567
G03 X37.318688 Y148.554468 Z-0.125000 I-11.913151 J28.580019
G03 X37.951523 Y148.848890 Z-0.125000 I-8.035574 J18.099153
G01 X35.124044 Y148.095356 Z-0.125000
G02 X34.961908 Y147.891666 Z-0.125000 I-6.483651 J4.994567
G02 X34.795926 Y147.695659 Z-0.125000 I-6.866478 J5.646388
G01 X36.321302 Y148.102059 Z-0.125000
G01 X36.321302 Y148.102059 Z-0.125000
G00 Z5.000000

(End cutting path id: path4344)


(Start cutting path id: path4454)
(Change tool to Default tool)

G00 Z5.000000
G00 X34.179940 Y149.067965

G01 Z-0.125000 F100.0(Penetrate)
G01 X30.062389 Y147.971179 Z-0.125000 F400.000000
G02 X30.370622 Y147.925653 Z-0.125000 I-0.086116 J-1.649266
G02 X30.668708 Y147.820895 Z-0.125000 I-0.390134 J-1.586600
G01 X33.900223 Y148.682379 Z-0.125000
G03 X34.062351 Y148.861872 Z-0.125000 I-0.640827 J0.741800
G03 X34.179940 Y149.067965 Z-0.125000 I-1.052881 J0.737328
G01 X34.179940 Y149.067965 Z-0.125000
G00 Z5.000000

(End cutting path id: path4454)


(Start cutting path id: path4328)
(Change tool to Default tool)

G00 Z5.000000
G00 X34.307963 Y149.385112

G01 Z-0.125000 F100.0(Penetrate)
G02 X34.372991 Y149.560923 Z-0.125000 I19.547225 J-7.130027 F400.000000
G02 X34.441772 Y149.732245 Z-0.125000 I3.757528 J-1.409076
G01 X33.023923 Y149.354773 Z-0.125000
G02 X32.590880 Y149.037977 Z-0.125000 I-1.752700 J1.941472
G02 X32.114144 Y148.800912 Z-0.125000 I-1.994690 J3.413419
G01 X34.307963 Y149.385112 Z-0.125000
G01 X34.307963 Y149.385112 Z-0.125000
G00 Z5.000000

(End cutting path id: path4328)


(Start cutting path id: path4326)
(Change tool to Default tool)

G00 Z5.000000
G00 X34.626592 Y150.064562

G01 Z-0.125000 F100.0(Penetrate)
G03 X34.630526 Y150.073064 Z-0.125000 I-1.315066 J0.613697 F400.000000
G01 X34.636082 Y150.082201 Z-0.125000
G03 X34.704353 Y150.273788 Z-0.125000 I-0.243778 J0.194826
G03 X34.670689 Y150.388412 Z-0.125000 I-0.204744 J0.002125
G01 X33.570728 Y150.094901 Z-0.125000
G02 X33.465405 Y149.897086 Z-0.125000 I-2.301759 J1.098594
G02 X33.354511 Y149.725542 Z-0.125000 I-2.163470 J1.276952
G01 X34.626592 Y150.064562 Z-0.125000
G01 X34.626592 Y150.064562 Z-0.125000
G00 Z5.000000

(End cutting path id: path4326)


(Start cutting path id: path4352)
(Change tool to Default tool)

G00 Z5.000000
G00 X33.614826 Y150.700973

G01 Z-0.125000 F100.0(Penetrate)
G02 X33.705408 Y150.543018 Z-0.125000 I-0.261787 J-0.255077 F400.000000
G02 X33.708664 Y150.414517 Z-0.125000 I-0.256877 J-0.070802
G01 X34.458317 Y150.612779 Z-0.125000
G02 X34.414084 Y150.688164 Z-0.125000 I0.321160 J0.239112
G02 X34.399051 Y150.772940 Z-0.125000 I0.161483 J0.072358
G03 X34.403121 Y150.841152 Z-0.125000 I-0.982016 J0.092831
G02 X34.406106 Y150.911934 Z-0.125000 I2.060819 J-0.051450
G01 X33.614826 Y150.700973 Z-0.125000
G01 X33.614826 Y150.700973 Z-0.125000
G00 Z5.000000

(End cutting path id: path4352)


(Start cutting path id: path4334)
(Change tool to Default tool)

G00 Z5.000000
G00 X32.923028 Y150.799045

G01 Z-0.125000 F100.0(Penetrate)
G02 X32.953795 Y150.821791 Z-0.125000 I0.451792 J-0.578925 F400.000000
G03 X32.985047 Y150.847023 Z-0.125000 I-0.167839 J0.239852
G02 X33.114020 Y150.903846 Z-0.125000 I0.158943 J-0.185981
G02 X33.280110 Y150.893942 Z-0.125000 I0.056194 J-0.455263
G01 X34.409951 Y151.194509 Z-0.125000
G03 X34.405168 Y151.350865 Z-0.125000 I-4.481195 J-0.058844
G03 X34.396158 Y151.503190 Z-0.125000 I-6.899914 J-0.331708
G01 X30.196056 Y150.384179 Z-0.125000
G02 X30.220490 Y150.237334 Z-0.125000 I-1.252432 J-0.283854
G02 X30.232004 Y150.082201 Z-0.125000 I-2.357552 J-0.252968
G01 X32.923028 Y150.799045 Z-0.125000
G01 X32.923028 Y150.799045 Z-0.125000
G00 Z5.000000

(End cutting path id: path4334)


(Start cutting path id: path4358)
(Change tool to Default tool)

G00 Z5.000000
G00 X31.789200 Y151.089734

G01 Z-0.125000 F100.0(Penetrate)
G01 X33.099417 Y151.439690 Z-0.125000 F400.000000
G03 X32.409037 Y151.336297 Z-0.125000 I0.225521 J-3.862483
G03 X31.789200 Y151.089734 Z-0.125000 I0.567417 J-2.328823
G01 X31.789200 Y151.089734 Z-0.125000
G00 Z5.000000

(End cutting path id: path4358)


(Start cutting path id: path4450)
(Change tool to Default tool)

G00 Z5.000000
G00 X31.487258 Y149.904754

G01 Z-0.125000 F100.0(Penetrate)
G02 X31.543848 Y150.054678 Z-0.125000 I1.020257 J-0.299461 F400.000000
G02 X31.607167 Y150.166515 Z-0.125000 I0.739571 J-0.344883
G01 X30.271833 Y149.810915 Z-0.125000
G03 X30.438859 Y149.696348 Z-0.125000 I0.229137 J0.155021
G03 X30.672976 Y149.677212 Z-0.125000 I0.182637 J0.792730
G02 X30.779527 Y149.677382 Z-0.125000 I0.054333 J-0.661839
G02 X30.901612 Y149.666276 Z-0.125000 I-0.401410 J-5.089006
G01 X31.444537 Y149.810915 Z-0.125000
G03 X31.466570 Y149.851162 Z-0.125000 I-0.485958 J0.292198
G03 X31.487258 Y149.904754 Z-0.125000 I-0.280023 J0.138884
G01 X31.487258 Y149.904754 Z-0.125000
G00 Z5.000000

(End cutting path id: path4450)


(Start cutting path id: path4356)
(Change tool to Default tool)

G00 Z5.000000
G00 X30.118727 Y150.645940

G01 Z-0.125000 F100.0(Penetrate)
G01 X30.588662 Y150.771529 Z-0.125000 F400.000000
G02 X30.448408 Y150.877173 Z-0.125000 I0.525780 J0.843952
G02 X30.320199 Y151.011065 Z-0.125000 I0.850149 J0.942402
G01 X29.996384 Y150.925692 Z-0.125000
G02 X30.062379 Y150.787045 Z-0.125000 I-2.386370 J-1.220934
G02 X30.118727 Y150.645940 Z-0.125000 I-1.948041 J-0.859716
G01 X30.118727 Y150.645940 Z-0.125000
G00 Z5.000000

(End cutting path id: path4356)


(Start cutting path id: path4550)
(Change tool to Default tool)

G00 Z5.000000
G00 X30.165717 Y151.253776

G01 Z-0.125000 F100.0(Penetrate)
G02 X30.111719 Y151.385064 Z-0.125000 I1.389510 J0.648247 F400.000000
G02 X30.074630 Y151.525062 Z-0.125000 I0.803771 J0.287851
G01 X30.074630 Y151.540231 Z-0.125000
G01 X29.690173 Y151.438279 Z-0.125000
G03 X29.771913 Y151.305883 Z-0.125000 I18.297313 J11.205275
G02 X29.855661 Y151.169462 Z-0.125000 I-11.013798 J-6.855168
G01 X30.165717 Y151.253776 Z-0.125000
G01 X30.165717 Y151.253776 Z-0.125000
G00 Z5.000000

(End cutting path id: path4550)


(Start cutting path id: path4872)
(Change tool to Default tool)

G00 Z5.000000
G00 X30.118727 Y152.146656

G01 Z-0.125000 F100.0(Penetrate)
G01 X29.400930 Y151.956509 Z-0.125000 F400.000000
G03 X29.448598 Y151.853661 Z-0.125000 I1.963396 J0.847516
G03 X29.512408 Y151.733201 Z-0.125000 I2.293193 J1.137619
G03 X29.526470 Y151.707237 Z-0.125000 I0.224039 J0.104552
G02 X29.542712 Y151.680990 Z-0.125000 I-6.505719 J-4.043774
G01 X30.055615 Y151.817162 Z-0.125000
G02 X30.075300 Y151.992737 Z-0.125000 I0.974342 J-0.020347
G02 X30.118727 Y152.146656 Z-0.125000 I1.080199 J-0.221686
G01 X30.118727 Y152.146656 Z-0.125000
G00 Z5.000000

(End cutting path id: path4872)


(Start cutting path id: path5674)
(Change tool to Default tool)

G00 Z5.000000
G00 X30.708677 Y153.210634

G01 Z-0.125000 F100.0(Penetrate)
G03 X30.529844 Y153.166246 Z-0.125000 I1.149566 J-5.013875 F400.000000
G03 X30.351631 Y153.115384 Z-0.125000 I1.424097 J-5.327487
G01 X30.708677 Y153.210634 Z-0.125000
G01 X30.708677 Y153.210634 Z-0.125000
G00 Z5.000000

(End cutting path id: path5674)


(Start cutting path id: path4864)
(Change tool to Default tool)

G00 Z5.000000
G00 X31.459706 Y153.025779

G01 Z-0.125000 F100.0(Penetrate)
G02 X31.849133 Y153.019526 Z-0.125000 I0.077984 J-7.272997 F400.000000
G02 X32.123916 Y152.994029 Z-0.125000 I-0.118945 J-2.775297
G01 X33.970496 Y153.484742 Z-0.125000
G02 X33.924742 Y153.629705 Z-0.125000 I161.758944 J51.134749
G03 X33.879409 Y153.772609 Z-0.125000 I-37.481137 J-11.811501
G01 X29.373343 Y152.572459 Z-0.125000
G03 X29.325204 Y152.427676 Z-0.125000 I0.406882 J-0.215678
G03 X29.322225 Y152.247198 Z-0.125000 I0.647974 J-0.100958
G01 X30.375338 Y152.526951 Z-0.125000
G02 X30.749452 Y152.778775 Z-0.125000 I0.968434 J-1.034914
G02 X31.459706 Y153.025779 Z-0.125000 I1.611246 J-3.488445
G01 X31.459706 Y153.025779 Z-0.125000
G00 Z5.000000

(End cutting path id: path4864)


(Start cutting path id: path5672)
(Change tool to Default tool)

G00 Z5.000000
G00 X33.794107 Y154.033312

G01 Z-0.125000 F100.0(Penetrate)
G02 X33.747250 Y154.176709 Z-0.125000 I9.279169 J3.111454 F400.000000
G03 X33.701644 Y154.319767 Z-0.125000 I-146.538288 J-46.636575
G01 X32.432597 Y153.982159 Z-0.125000
G03 X32.498530 Y153.842071 Z-0.125000 I6.255309 J2.858558
G03 X32.570251 Y153.706640 Z-0.125000 I1.923158 J0.931737
G01 X33.794107 Y154.033312 Z-0.125000
G01 X33.794107 Y154.033312 Z-0.125000
G00 Z5.000000

(End cutting path id: path5672)


(Start cutting path id: path5678)
(Change tool to Default tool)

G00 Z5.000000
G00 X33.616201 Y154.580117

G01 Z-0.125000 F100.0(Penetrate)
G02 X33.571691 Y154.723359 Z-0.125000 I10.598911 J3.372024 F400.000000
G02 X33.528007 Y154.868337 Z-0.125000 I38.649607 J11.724722
G01 X32.201245 Y154.514148 Z-0.125000
G02 X32.264671 Y154.375163 Z-0.125000 I-4.046227 J-1.930452
G02 X32.323588 Y154.235806 Z-0.125000 I-6.254196 J-2.726309
G01 X33.616201 Y154.580117 Z-0.125000
G01 X33.616201 Y154.580117 Z-0.125000
G00 Z5.000000

(End cutting path id: path5678)


(Start cutting path id: path1130)
(Change tool to Default tool)

G00 Z5.000000
G00 X33.392964 Y155.351995

G01 Z-0.125000 F100.0(Penetrate)
G03 X33.382550 Y155.386248 Z-0.125000 I-1.426978 J-0.415121 F400.000000
G03 X33.371056 Y155.420787 Z-0.125000 I-1.233145 J-0.391187
G01 X31.859333 Y155.018620 Z-0.125000
G02 X31.970684 Y154.892228 Z-0.125000 I-0.972030 J-0.968604
G02 X32.063274 Y154.760740 Z-0.125000 I-1.342971 J-1.044016
G01 X33.453606 Y155.130098 Z-0.125000
G02 X33.421680 Y155.241420 Z-0.125000 I7.531138 J2.220080
G02 X33.392964 Y155.351995 Z-0.125000 I3.086539 J0.860599
G01 X33.392964 Y155.351995 Z-0.125000
G00 Z5.000000

(End cutting path id: path1130)


(Start cutting path id: path3306)
(Change tool to Default tool)

G00 Z5.000000
G00 X33.277217 Y155.843767

G01 Z-0.125000 F100.0(Penetrate)
G03 X33.276851 Y155.918382 Z-0.125000 I-1.145717 J0.031690 F400.000000
G02 X33.274712 Y155.988759 Z-0.125000 I4.970551 J0.186282
G01 X31.423723 Y155.496634 Z-0.125000
G03 X31.512944 Y155.308953 Z-0.125000 I0.990162 J0.355662
G03 X31.584977 Y155.239106 Z-0.125000 I0.168293 J0.101495
G01 X31.590732 Y155.233810 Z-0.125000
G03 X31.594749 Y155.229229 Z-0.125000 I0.045319 J0.035687
G01 X33.296620 Y155.682548 Z-0.125000
G02 X33.282775 Y155.763822 Z-0.125000 I1.350849 J0.271936
G02 X33.277217 Y155.843767 Z-0.125000 I0.572222 J0.079945
G01 X33.277217 Y155.843767 Z-0.125000
G00 Z5.000000

(End cutting path id: path3306)


(Start cutting path id: path1110)
(Change tool to Default tool)

G00 Z5.000000
G00 X33.176746 Y156.557790

G01 Z-0.125000 F100.0(Penetrate)
G01 X31.629075 Y156.144334 Z-0.125000 F400.000000
G02 X31.565908 Y156.107534 Z-0.125000 I-0.907484 J1.485086
G02 X31.482989 Y156.065665 Z-0.125000 I-0.579242 J1.044085
G03 X31.388491 Y155.957452 Z-0.125000 I0.074901 J-0.160775
G03 X31.365867 Y155.762629 Z-0.125000 I0.508462 J-0.157771
G01 X33.248254 Y156.264279 Z-0.125000
G03 X33.217609 Y156.416696 Z-0.125000 I-1.451027 J-0.212454
G03 X33.176746 Y156.557790 Z-0.125000 I-2.335963 J-0.600068
G01 X33.176746 Y156.557790 Z-0.125000
G00 Z5.000000

(End cutting path id: path1110)


(Start cutting path id: path1098)
(Change tool to Default tool)

G00 Z5.000000
G00 X32.499977 Y157.566381

G01 Z-0.125000 F100.0(Penetrate)
G01 X31.429402 Y157.281337 Z-0.125000 F400.000000
G02 X31.505003 Y157.177917 Z-0.125000 I-1.319242 J-1.043713
G02 X31.576828 Y157.062262 Z-0.125000 I-1.509348 J-1.017484
G02 X31.590555 Y157.038827 Z-0.125000 I-0.373146 J-0.234301
G03 X31.604415 Y157.015342 Z-0.125000 I0.350681 J0.191140
G01 X32.745546 Y157.318379 Z-0.125000
G03 X32.626595 Y157.445338 Z-0.125000 I-2.488795 J-2.212600
G03 X32.499977 Y157.566381 Z-0.125000 I-2.154366 J-2.126835
G01 X32.499977 Y157.566381 Z-0.125000
G00 Z5.000000

(End cutting path id: path1098)


(Start cutting path id: path5704)
(Change tool to Default tool)

G00 Z5.000000
G00 X31.874643 Y158.029579

G01 Z-0.125000 F100.0(Penetrate)
G01 X30.599669 Y157.689148 Z-0.125000 F400.000000
G02 X30.927112 Y157.638218 Z-0.125000 I-0.022631 J-1.223583
G02 X31.164819 Y157.527929 Z-0.125000 I-0.260634 J-0.873053
G01 X32.205090 Y157.804859 Z-0.125000
G03 X32.043767 Y157.919324 Z-0.125000 I-2.191678 J-2.917979
G03 X31.874643 Y158.029579 Z-0.125000 I-4.577519 J-6.836767
G01 X31.874643 Y158.029579 Z-0.125000
G00 Z5.000000

(End cutting path id: path5704)


(Start cutting path id: path1096)
(Change tool to Default tool)

G00 Z5.000000
G00 X31.155294 Y158.431745

G01 Z-0.125000 F100.0(Penetrate)
G01 X25.751726 Y156.993117 Z-0.125000 F400.000000
G02 X25.908967 Y156.989019 Z-0.125000 I-0.083941 J-6.238949
G02 X26.061783 Y156.980770 Z-0.125000 I-0.193796 J-5.009847
G03 X26.460974 Y156.966610 Z-0.125000 I0.420412 J6.217975
G03 X26.843291 Y156.971245 Z-0.125000 I0.041921 J12.311659
G01 X31.547900 Y158.225017 Z-0.125000
G03 X31.351696 Y158.333106 Z-0.125000 I-3.097438 J-5.390423
G03 X31.155294 Y158.431745 Z-0.125000 I-2.553802 J-4.840048
G01 X31.155294 Y158.431745 Z-0.125000
G00 Z5.000000

(End cutting path id: path1096)


(Start cutting path id: path1714)
(Change tool to Default tool)

G00 Z5.000000
G00 X30.749882 Y158.607076

G01 Z-0.125000 F100.0(Penetrate)
G03 X30.474189 Y158.699562 Z-0.125000 I-1.266697 J-3.318746 F400.000000
G03 X30.196056 Y158.770765 Z-0.125000 I-1.247386 J-4.293750
G01 X21.996865 Y156.586717 Z-0.125000
G02 X20.775124 Y155.982880 Z-0.125000 I-2.407796 J3.333788
G02 X19.371423 Y155.755573 Z-0.125000 I-1.557677 J5.171389
G03 X18.725814 Y155.725124 Z-0.125000 I0.454664 J-16.499921
G03 X18.355811 Y155.305076 Z-0.125000 I0.026476 J-0.396306
G01 X30.749882 Y158.607076 Z-0.125000
G01 X30.749882 Y158.607076 Z-0.125000
G00 Z5.000000

(End cutting path id: path1714)


(Start cutting path id: path1708)
(Change tool to Default tool)

G00 Z5.000000
G00 X29.424214 Y158.846612

G01 Z-0.125000 F100.0(Penetrate)
G03 X28.903424 Y158.791108 Z-0.125000 I0.072189 J-3.148371 F400.000000
G03 X28.333072 Y158.623304 Z-0.125000 I0.579659 J-3.023395
G02 X27.165130 Y158.287675 Z-0.125000 I-2.209445 J5.488609
G02 X25.874528 Y158.214081 Z-0.125000 I-0.950489 J5.315276
G01 X23.053682 Y157.463017 Z-0.125000
G03 X22.770224 Y157.247662 Z-0.125000 I3.062348 J-4.324978
G03 X22.497069 Y157.002995 Z-0.125000 I2.456952 J-3.017851
G01 X22.495552 Y157.002995 Z-0.125000
G01 X29.424214 Y158.846612 Z-0.125000
G01 X29.424214 Y158.846612 Z-0.125000
G00 Z5.000000

(End cutting path id: path1708)


(Start cutting path id: path5706)
(Change tool to Default tool)

G00 Z5.000000
G00 X28.557403 Y157.146223

G01 Z-0.125000 F100.0(Penetrate)
G03 X28.841871 Y157.207308 Z-0.125000 I-0.344294 J2.296275 F400.000000
G03 X29.118285 Y157.295095 Z-0.125000 I-1.179252 J4.192132
G01 X28.557403 Y157.146223 Z-0.125000
G01 X28.557403 Y157.146223 Z-0.125000
G00 Z5.000000

(End cutting path id: path5706)


(Start cutting path id: path5712)
(Change tool to Default tool)

G00 Z5.000000
G00 X28.470620 Y157.001584

G01 Z-0.125000 F100.0(Penetrate)
G03 X28.539916 Y157.045717 Z-0.125000 I0.006541 J0.066199 F400.000000
G03 X28.532744 Y157.139167 Z-0.125000 I-0.109719 J0.038580
G01 X28.372900 Y157.096481 Z-0.125000
G03 X28.426761 Y157.025150 Z-0.125000 I1.526905 J1.096928
G03 X28.470620 Y157.001584 Z-0.125000 I0.049245 J0.039056
G01 X28.470620 Y157.001584 Z-0.125000
G00 Z5.000000

(End cutting path id: path5712)


(Start cutting path id: path3292)
(Change tool to Default tool)

G00 Z5.000000
G00 X27.428797 Y155.903034

G01 Z-0.125000 F100.0(Penetrate)
G02 X27.556354 Y156.075925 Z-0.125000 I2.188214 J-1.480952 F400.000000
G02 X27.708690 Y156.254754 Z-0.125000 I3.131459 J-2.513248
G03 X27.615160 Y156.250315 Z-0.125000 I0.000000 J-0.987679
G03 X27.529409 Y156.242054 Z-0.125000 I3.379142 J-35.523421
G01 X27.197445 Y156.153859 Z-0.125000
G03 X26.969710 Y155.992150 Z-0.125000 I0.357918 J-0.745268
G03 X26.774500 Y155.728056 Z-0.125000 I0.793748 J-0.790911
G01 X27.428797 Y155.903034 Z-0.125000
G01 X27.428797 Y155.903034 Z-0.125000
G00 Z5.000000

(End cutting path id: path3292)


(Start cutting path id: path3300)
(Change tool to Default tool)

G00 Z5.000000
G00 X27.176631 Y155.241576

G01 Z-0.125000 F100.0(Penetrate)
G02 X27.203070 Y155.411125 Z-0.125000 I1.249833 J-0.108062 F400.000000
G02 X27.253925 Y155.573892 Z-0.125000 I1.044590 J-0.237037
G01 X26.648840 Y155.412673 Z-0.125000
G03 X26.605590 Y155.259807 Z-0.125000 I2.539409 J-0.801028
G03 X26.562163 Y155.077887 Z-0.125000 I7.847305 J-1.969412
G01 X27.176631 Y155.241576 Z-0.125000
G01 X27.176631 Y155.241576 Z-0.125000
G00 Z5.000000

(End cutting path id: path3300)


(Start cutting path id: path1124)
(Change tool to Default tool)

G00 Z5.000000
G00 X27.176631 Y154.959354

G01 Z-0.125000 F100.0(Penetrate)
G01 X26.509916 Y154.781554 Z-0.125000 F400.000000
G03 X26.517959 Y154.597987 Z-0.125000 I0.754585 J-0.058900
G03 X26.559270 Y154.482398 Z-0.125000 I0.342308 J0.057163
G01 X27.233393 Y154.663020 Z-0.125000
G03 X27.226615 Y154.712039 Z-0.125000 I-6.511024 J-0.875371
G03 X27.219352 Y154.752626 Z-0.125000 I-0.568951 J-0.080860
G02 X27.192577 Y154.858848 Z-0.125000 I0.941560 J0.293824
G02 X27.176631 Y154.959354 Z-0.125000 I1.468695 J0.284540
G01 X27.176631 Y154.959354 Z-0.125000
G00 Z5.000000

(End cutting path id: path1124)


(Start cutting path id: path1128)
(Change tool to Default tool)

G00 Z5.000000
G00 X27.167106 Y154.362454

G01 Z-0.125000 F100.0(Penetrate)
G01 X26.867950 Y154.282726 Z-0.125000 F400.000000
G02 X26.890999 Y154.277915 Z-0.125000 I-0.098765 J-0.530859
G03 X26.916316 Y154.272848 Z-0.125000 I0.097085 J0.419258
G03 X27.081102 Y154.294318 Z-0.125000 I0.043943 J0.305845
G03 X27.167106 Y154.362454 Z-0.125000 I-0.080975 J0.190558
G01 X27.167106 Y154.362454 Z-0.125000
G00 Z5.000000

(End cutting path id: path1128)


(Start cutting path id: path1122)
(Change tool to Default tool)

G00 Z5.000000
G00 X26.618537 Y153.622679

G01 Z-0.125000 F100.0(Penetrate)
G01 X25.977857 Y153.451581 Z-0.125000 F400.000000
G02 X25.975974 Y153.446515 Z-0.125000 I-0.169211 J0.059993
G03 X25.973588 Y153.439234 Z-0.125000 I0.065985 J-0.025656
G02 X26.010846 Y153.298446 Z-0.125000 I-2.566627 J-0.754550
G02 X26.043862 Y153.156659 Z-0.125000 I-26.162004 J-6.166641
G01 X26.691562 Y153.330579 Z-0.125000
G02 X26.652762 Y153.473880 Z-0.125000 I3.927139 J1.140184
G02 X26.618537 Y153.622679 Z-0.125000 I3.669698 J0.922419
G01 X26.618537 Y153.622679 Z-0.125000
G00 Z5.000000

(End cutting path id: path1122)


(Start cutting path id: path3294)
(Change tool to Default tool)

G00 Z5.000000
G00 X26.778380 Y153.069876

G01 Z-0.125000 F100.0(Penetrate)
G01 X26.101752 Y152.889606 Z-0.125000 F400.000000
G03 X26.130400 Y152.741363 Z-0.125000 I5.868678 J1.057195
G03 X26.161019 Y152.593273 Z-0.125000 I218.154739 J45.029219
G01 X26.886013 Y152.786242 Z-0.125000
G02 X26.829447 Y152.927946 Z-0.125000 I2.896032 J1.238190
G02 X26.778380 Y153.069876 Z-0.125000 I6.933294 J2.574773
G01 X26.778380 Y153.069876 Z-0.125000
G00 Z5.000000

(End cutting path id: path3294)


(Start cutting path id: path3494)
(Change tool to Default tool)

G00 Z5.000000
G00 X27.135427 Y152.258134

G01 Z-0.125000 F100.0(Penetrate)
G02 X27.066146 Y152.396444 Z-0.125000 I11.549114 J5.871535 F400.000000
G02 X27.000242 Y152.535417 Z-0.125000 I4.423742 J2.182944
G01 X26.220250 Y152.327279 Z-0.125000
G03 X26.254543 Y152.179655 Z-0.125000 I3.371356 J0.705355
G03 X26.294687 Y152.035179 Z-0.125000 I3.497278 J0.893930
G01 X27.135427 Y152.258134 Z-0.125000
G01 X27.135427 Y152.258134 Z-0.125000
G00 Z5.000000

(End cutting path id: path3494)


(Start cutting path id: path1120)
(Change tool to Default tool)

G00 Z5.000000
G00 X27.270470 Y152.012954

G01 Z-0.125000 F100.0(Penetrate)
G01 X26.377625 Y151.774476 Z-0.125000 F400.000000
G03 X26.432860 Y151.633340 Z-0.125000 I4.889259 J1.832109
G03 X26.494782 Y151.493312 Z-0.125000 I2.461118 J1.004626
G01 X27.435958 Y151.744137 Z-0.125000
G03 X27.353230 Y151.876054 Z-0.125000 I-39.590198 J-24.735956
G02 X27.270470 Y152.012954 Z-0.125000 I3.751182 J2.361172
G01 X27.270470 Y152.012954 Z-0.125000
G00 Z5.000000

(End cutting path id: path1120)


(Start cutting path id: path5400)
(Change tool to Default tool)

G00 Z5.000000
G00 X26.833766 Y150.960265

G01 Z-0.125000 F100.0(Penetrate)
G01 X27.816182 Y151.222026 Z-0.125000 F400.000000
G02 X27.715536 Y151.349642 Z-0.125000 I6.008769 J4.842361
G02 X27.617603 Y151.480965 Z-0.125000 I3.933785 J3.035772
G01 X26.647464 Y151.222026 Z-0.125000
G03 X26.724488 Y151.107749 Z-0.125000 I2.753904 J1.773061
G03 X26.811435 Y150.993073 Z-0.125000 I1.698963 J1.197856
G02 X26.823842 Y150.975431 Z-0.125000 I-0.068992 J-0.061699
G03 X26.833766 Y150.960265 Z-0.125000 I0.095715 J0.051806
G01 X26.833766 Y150.960265 Z-0.125000
G00 Z5.000000

(End cutting path id: path5400)


(Start cutting path id: path4868)
(Change tool to Default tool)

G00 Z5.000000
G00 X28.237857 Y150.739779

G01 Z-0.125000 F100.0(Penetrate)
G02 X28.125249 Y150.864329 Z-0.125000 I7.282437 J6.697352 F400.000000
G02 X28.013102 Y150.992015 Z-0.125000 I10.761049 J9.564547
G01 X26.861177 Y150.684745 Z-0.125000
G02 X26.753093 Y150.598107 Z-0.125000 I-0.312424 J0.279021
G03 X26.604743 Y150.505534 Z-0.125000 I0.883454 J-1.580909
G02 X26.305437 Y150.310399 Z-0.125000 I-3.189109 J4.564464
G02 X26.008196 Y150.145701 Z-0.125000 I-2.222574 J3.660650
G01 X28.237857 Y150.739779 Z-0.125000
G01 X28.237857 Y150.739779 Z-0.125000
G00 Z5.000000

(End cutting path id: path4868)


(Start cutting path id: path4562)
(Change tool to Default tool)

G00 Z5.000000
G00 X29.177551 Y149.801390

G01 Z-0.125000 F100.0(Penetrate)
G02 X29.053060 Y149.923496 Z-0.125000 I8.407606 J8.696389 F400.000000
G03 X28.926726 Y150.046570 Z-0.125000 I-5.868859 J-5.897877
G01 X24.741759 Y148.931792 Z-0.125000
G02 X24.937212 Y148.831650 Z-0.125000 I-1.830098 J-3.812704
G02 X25.127768 Y148.722242 Z-0.125000 I-2.420640 J-4.436707
G01 X29.177551 Y149.801390 Z-0.125000
G01 X29.177551 Y149.801390 Z-0.125000
G00 Z5.000000

(End cutting path id: path4562)


(Start cutting path id: path4560)
(Change tool to Default tool)

G00 Z5.000000
G00 X29.399554 Y149.578081

G01 Z-0.125000 F100.0(Penetrate)
G01 X27.292660 Y149.017165 Z-0.125000 F400.000000
G02 X27.380817 Y148.915212 Z-0.125000 I-0.811514 J-0.790795
G02 X27.488204 Y148.756815 Z-0.125000 I-1.318214 J-1.009303
G01 X29.637926 Y149.330079 Z-0.125000
G03 X29.519310 Y149.454425 Z-0.125000 I-128.098998 J-122.077250
G03 X29.399554 Y149.578081 Z-0.125000 I-8.804526 J-8.406969
G01 X29.399554 Y149.578081 Z-0.125000
G00 Z5.000000

(End cutting path id: path4560)


(Start cutting path id: path4870)
(Change tool to Default tool)

G00 Z5.000000
G00 X29.846171 Y149.102537

G01 Z-0.125000 F100.0(Penetrate)
G01 X27.620496 Y148.509870 Z-0.125000 F400.000000
G01 X27.621086 Y148.508812 Z-0.125000
G01 X27.621872 Y148.507401 Z-0.125000
G02 X27.683473 Y148.369095 Z-0.125000 I-1.528580 J-0.763698
G03 X27.741746 Y148.230117 Z-0.125000 I3.140915 J1.235269
G01 X30.058120 Y148.847479 Z-0.125000
G02 X29.953009 Y148.976392 Z-0.125000 I33.996413 J27.826693
G03 X29.846171 Y149.102537 Z-0.125000 I-3.118844 J-2.533173
G01 X29.846171 Y149.102537 Z-0.125000
G00 Z5.000000

(End cutting path id: path4870)


(Start cutting path id: path4564)
(Change tool to Default tool)

G00 Z5.000000
G00 X30.610958 Y148.399804

G01 Z-0.125000 F100.0(Penetrate)
G02 X30.396198 Y148.472430 Z-0.125000 I0.189859 J0.915258 F400.000000
G02 X30.278606 Y148.570548 Z-0.125000 I0.135201 J0.281560
G03 X30.261483 Y148.592825 Z-0.125000 I-0.354245 J-0.254562
G02 X30.245798 Y148.614645 Z-0.125000 I0.161717 J0.132799
G01 X27.851848 Y147.976823 Z-0.125000
G02 X27.901047 Y147.835089 Z-0.125000 I-3.663167 J-1.350965
G03 X27.948474 Y147.690015 Z-0.125000 I67.728994 J22.061396
G01 X30.610958 Y148.399804 Z-0.125000
G01 X30.610958 Y148.399804 Z-0.125000
G00 Z5.000000

(End cutting path id: path4564)


(Start cutting path id: path5680)
(Change tool to Default tool)

G00 Z5.000000
G00 X29.136347 Y147.724587

G01 Z-0.125000 F100.0(Penetrate)
G01 X28.028237 Y147.429665 Z-0.125000 F400.000000
G03 X28.056676 Y147.334340 Z-0.125000 I1.194453 J0.304456
G02 X28.085034 Y147.239517 Z-0.125000 I-1.179183 J-0.404296
G03 X28.099508 Y147.188819 Z-0.125000 I0.279031 J0.052250
G02 X28.116431 Y147.141798 Z-0.125000 I-0.908102 J-0.353374
G01 X29.020565 Y147.382745 Z-0.125000
G02 X29.054566 Y147.589141 Z-0.125000 I0.609267 J0.005631
G02 X29.136347 Y147.724587 Z-0.125000 I0.362691 J-0.126577
G01 X29.136347 Y147.724587 Z-0.125000
G00 Z5.000000

(End cutting path id: path5680)


(Start cutting path id: path5522)
(Change tool to Default tool)

G00 Z5.000000
G00 X29.673910 Y146.925192

G01 Z-0.125000 F100.0(Penetrate)
G03 X29.570275 Y146.944101 Z-0.125000 I-0.353656 J-1.644910 F400.000000
G03 X29.460162 Y146.951298 Z-0.125000 I-0.097858 J-0.651219
G02 X29.252456 Y146.991115 Z-0.125000 I0.000000 J0.561655
G02 X29.116909 Y147.089234 Z-0.125000 I0.126166 J0.316979
G01 X28.229708 Y146.853579 Z-0.125000
G03 X28.312161 Y146.711337 Z-0.125000 I1.273492 J0.643182
G03 X28.404580 Y146.587584 Z-0.125000 I1.103311 J0.727572
G01 X29.673910 Y146.925192 Z-0.125000
G01 X29.673910 Y146.925192 Z-0.125000
G00 Z5.000000

(End cutting path id: path5522)


(Start cutting path id: path5524)
(Change tool to Default tool)

G00 Z5.000000
G00 X30.474398 Y146.544898

G01 Z-0.125000 F100.0(Penetrate)
G02 X30.425939 Y146.572642 Z-0.125000 I0.570561 J1.052742 F400.000000
G03 X30.378089 Y146.599931 Z-0.125000 I-0.569592 J-0.943152
G02 X30.230746 Y146.679026 Z-0.125000 I2.156852 J4.194704
G03 X30.092692 Y146.755859 Z-0.125000 I-15.216892 J-27.179466
G01 X28.633215 Y146.367098 Z-0.125000
G03 X28.817750 Y146.250818 Z-0.125000 I0.789876 J1.048956
G03 X29.026245 Y146.158959 Z-0.125000 I0.819421 J1.577322
G01 X30.474398 Y146.544898 Z-0.125000
G01 X30.474398 Y146.544898 Z-0.125000
G00 Z5.000000

(End cutting path id: path5524)


(Start cutting path id: path4866)
(Change tool to Default tool)

G00 Z5.000000
G00 X30.809149 Y146.351929

G01 Z-0.125000 F100.0(Penetrate)
G01 X29.601978 Y146.030901 Z-0.125000 F400.000000
G02 X29.624050 Y146.027556 Z-0.125000 I-0.017944 J-0.192903
G03 X29.646075 Y146.025256 Z-0.125000 I0.022025 J0.104332
G02 X29.946801 Y145.970250 Z-0.125000 I-0.116861 J-1.488455
G02 X30.191787 Y145.875326 Z-0.125000 I-0.426837 J-1.465201
G01 X31.148274 Y146.130031 Z-0.125000
G03 X30.980226 Y146.243672 Z-0.125000 I-5.052020 J-7.289673
G03 X30.809149 Y146.351929 Z-0.125000 I-2.936828 J-4.451757
G01 X30.809149 Y146.351929 Z-0.125000
G00 Z5.000000

(End cutting path id: path4866)


(Start cutting path id: path4900)
(Change tool to Default tool)

G00 Z5.000000
G00 X31.429402 Y145.922245

G01 Z-0.125000 F100.0(Penetrate)
G01 X30.497681 Y145.673890 Z-0.125000 F400.000000
G02 X30.623565 Y145.553847 Z-0.125000 I-1.054030 J-1.231343
G02 X30.734712 Y145.424476 Z-0.125000 I-1.359310 J-1.280264
G01 X31.716175 Y145.686590 Z-0.125000
G03 X31.573037 Y145.807482 Z-0.125000 I-14.369797 J-16.868893
G03 X31.429402 Y145.922245 Z-0.125000 I-2.567791 J-3.066512
G01 X31.429402 Y145.922245 Z-0.125000
G00 Z5.000000

(End cutting path id: path4900)


(Start cutting path id: path5516)
(Change tool to Default tool)

G00 Z5.000000
G00 X32.195565 Y145.220570

G01 Z-0.125000 F100.0(Penetrate)
G03 X32.073696 Y145.347601 Z-0.125000 I-5.605079 J-5.255340 F400.000000
G03 X31.952889 Y145.467162 Z-0.125000 I-4.193035 J-4.115923
G01 X30.895967 Y145.186351 Z-0.125000
G02 X30.970718 Y145.051208 Z-0.125000 I-3.332949 J-1.931777
G02 X31.043393 Y144.913301 Z-0.125000 I-364.252857 J-192.044264
G01 X32.195565 Y145.220570 Z-0.125000
G01 X32.195565 Y145.220570 Z-0.125000
G00 Z5.000000

(End cutting path id: path5516)


(Start cutting path id: path4332)
(Change tool to Default tool)

G00 Z5.000000
G00 X31.313621 Y144.391190

G01 Z-0.125000 F100.0(Penetrate)
G01 X32.610502 Y144.735501 Z-0.125000 F400.000000
G03 X32.505313 Y144.867430 Z-0.125000 I-8.353242 J-6.552283
G03 X32.400917 Y144.993381 Z-0.125000 I-5.755219 J-4.664022
G01 X31.177060 Y144.666709 Z-0.125000
G02 X31.246485 Y144.529232 Z-0.125000 I-7.641146 J-3.944964
G02 X31.313621 Y144.391190 Z-0.125000 I-11.442703 J-5.650418
G01 X31.313621 Y144.391190 Z-0.125000
G00 Z5.000000

(End cutting path id: path4332)


(Start cutting path id: path4428)
(Change tool to Default tool)

G00 Z5.000000
G00 X35.046751 Y144.196809

G01 Z-0.125000 F100.0(Penetrate)
G01 X35.970041 Y144.443401 Z-0.125000 F400.000000
G03 X35.585632 Y144.431008 Z-0.125000 I-0.167780 J-0.763782
G03 X35.046751 Y144.196809 Z-0.125000 I0.631272 J-2.189603
G01 X35.046751 Y144.196809 Z-0.125000
G00 Z5.000000

(End cutting path id: path4428)


(Start cutting path id: path4398)
(Change tool to Default tool)

G00 Z5.000000
G00 X35.188532 Y143.334267

G01 Z-0.125000 F100.0(Penetrate)
G01 X33.335073 Y142.839320 Z-0.125000 F400.000000
G03 X33.307021 Y142.688731 Z-0.125000 I0.849967 J-0.236236
G03 X33.300889 Y142.518292 Z-0.125000 I1.386057 J-0.135204
G01 X34.809719 Y142.920812 Z-0.125000
G02 X35.017328 Y143.175896 Z-0.125000 I2.308766 J-1.667038
G02 X35.188532 Y143.334267 Z-0.125000 I1.033004 J-0.944984
G01 X35.188532 Y143.334267 Z-0.125000
G00 Z5.000000

(End cutting path id: path4398)


(Start cutting path id: path4390)
(Change tool to Default tool)

G00 Z5.000000
G00 X35.810162 Y142.020876

G01 Z-0.125000 F100.0(Penetrate)
G03 X35.667067 Y142.128822 Z-0.125000 I-1.396737 J-1.702720 F400.000000
G02 X35.519403 Y142.232895 Z-0.125000 I6.154624 J8.889273
G01 X34.776523 Y142.036045 Z-0.125000
G03 X34.907687 Y141.911577 Z-0.125000 I52.095060 J54.766602
G03 X35.035850 Y141.791923 Z-0.125000 I8.695708 J9.185545
G01 X35.833445 Y142.004295 Z-0.125000
G03 X35.822546 Y142.012399 Z-0.125000 I-0.058380 J-0.067137
G02 X35.810162 Y142.020876 Z-0.125000 I0.107353 J0.170121
G01 X35.810162 Y142.020876 Z-0.125000
G00 Z5.000000

(End cutting path id: path4390)


(Start cutting path id: path4394)
(Change tool to Default tool)

G00 Z5.000000
G00 X36.987029 Y142.311565

G01 Z-0.125000 F100.0(Penetrate)
G01 X37.240711 Y142.379298 Z-0.125000 F400.000000
G03 X37.103699 Y142.387824 Z-0.125000 I-0.078165 J-0.150956
G03 X36.987029 Y142.311565 Z-0.125000 I0.107931 J-0.292503
G01 X36.987029 Y142.311565 Z-0.125000
G00 Z5.000000

(End cutting path id: path4394)


(Start cutting path id: path5502)
(Change tool to Default tool)

G00 Z5.000000
G00 X37.436115 Y142.148934

G01 Z-0.125000 F100.0(Penetrate)
G01 X36.620457 Y141.932681 Z-0.125000 F400.000000
G02 X36.403953 Y141.841870 Z-0.125000 I-0.446410 J0.760805
G02 X36.220831 Y141.826495 Z-0.125000 I-0.133829 J0.495728
G01 X35.289144 Y141.577081 Z-0.125000
G03 X35.455896 Y141.458456 Z-0.125000 I1.426174 J1.828259
G03 X35.628129 Y141.355184 Z-0.125000 I1.601744 J2.476062
G01 X37.341182 Y141.812737 Z-0.125000
G03 X37.432596 Y141.978015 Z-0.125000 I-0.459641 J0.362141
G03 X37.436115 Y142.148934 Z-0.125000 I-0.253953 J0.090724
G01 X37.436115 Y142.148934 Z-0.125000
G00 Z5.000000

(End cutting path id: path5502)


(Start cutting path id: path5494)
(Change tool to Default tool)

G00 Z5.000000
G00 X37.026857 Y141.446201

G01 Z-0.125000 F100.0(Penetrate)
G01 X36.055343 Y141.187262 Z-0.125000 F400.000000
G03 X36.211781 Y141.158605 Z-0.125000 I0.405849 J1.774225
G03 X36.384802 Y141.145634 Z-0.125000 I0.189916 J1.372820
G03 X36.749117 Y141.222443 Z-0.125000 I-0.021810 J1.005859
G03 X37.026857 Y141.446201 Z-0.125000 I-0.244028 J0.587151
G01 X37.026857 Y141.446201 Z-0.125000
G00 Z5.000000

(End cutting path id: path5494)


(Start cutting path id: path4404)
(Change tool to Default tool)

G00 Z5.000000
G00 X38.009379 Y142.895765

G01 Z-0.125000 F100.0(Penetrate)
G01 X37.230798 Y142.689037 Z-0.125000 F400.000000
G02 X37.376680 Y142.573066 Z-0.125000 I-3.598337 J-4.676157
G02 X37.516195 Y142.453381 Z-0.125000 I-2.702253 J-3.291147
G01 X38.238261 Y142.644940 Z-0.125000
G03 X38.124560 Y142.772473 Z-0.125000 I-4.842159 J-4.202516
G03 X38.009379 Y142.895765 Z-0.125000 I-6.248180 J-5.721723
G01 X38.009379 Y142.895765 Z-0.125000
G00 Z5.000000

(End cutting path id: path4404)


(Start cutting path id: path4482)
(Change tool to Default tool)

G00 Z5.000000
G00 X37.788893 Y143.119073

G01 Z-0.125000 F100.0(Penetrate)
G03 X37.656429 Y143.241462 Z-0.125000 I-3.788243 J-3.967177 F400.000000
G02 X37.521840 Y143.361784 Z-0.125000 I1742.019937 J1948.723984
G01 X36.614813 Y143.119073 Z-0.125000
G02 X36.785785 Y143.009205 Z-0.125000 I-3.128089 J-5.055792
G02 X36.951045 Y142.897176 Z-0.125000 I-7.399029 J-11.092562
G01 X37.788893 Y143.119073 Z-0.125000
G01 X37.788893 Y143.119073 Z-0.125000
G00 Z5.000000

(End cutting path id: path4482)


(Start cutting path id: path4438)
(Change tool to Default tool)

G00 Z5.000000
G00 X37.272426 Y143.576626

G01 Z-0.125000 F100.0(Penetrate)
G02 X37.120805 Y143.703329 Z-0.125000 I30.727264 J36.924363 F400.000000
G03 X36.988404 Y143.813692 Z-0.125000 I-16.836510 J-20.063682
G01 X35.793652 Y143.495487 Z-0.125000
G02 X36.003044 Y143.438453 Z-0.125000 I-0.196698 J-1.135032
G02 X36.280097 Y143.312042 Z-0.125000 I-0.792474 J-2.103684
G01 X37.272426 Y143.576626 Z-0.125000
G01 X37.272426 Y143.576626 Z-0.125000
G00 Z5.000000

(End cutting path id: path4438)


(Start cutting path id: path4422)
(Change tool to Default tool)

G00 Z5.000000
G00 X36.723821 Y144.024654

G01 Z-0.125000 F100.0(Penetrate)
G03 X36.544934 Y144.154934 Z-0.125000 I-2.860759 J-3.740136 F400.000000
G03 X36.399971 Y144.250431 Z-0.125000 I-2.109300 J-3.044095
G01 X34.294346 Y143.689515 Z-0.125000
G02 X34.200181 Y143.622678 Z-0.125000 I-7.808886 J10.902173
G03 X34.099895 Y143.551931 Z-0.125000 I24.725919 J-35.156017
G03 X34.064657 Y143.522908 Z-0.125000 I0.131452 J-0.195500
G02 X34.031139 Y143.500779 Z-0.125000 I-0.070646 J0.070556
G03 X33.706344 Y143.337428 Z-0.125000 I0.513344 J-1.425273
G03 X33.514213 Y143.170226 Z-0.125000 I0.544097 J-0.819205
G01 X36.723821 Y144.024654 Z-0.125000
G01 X36.723821 Y144.024654 Z-0.125000
G00 Z5.000000

(End cutting path id: path4422)


(Start cutting path id: path4400)
(Change tool to Default tool)

G00 Z5.000000
G00 X38.628116 Y142.155990

G01 Z-0.125000 F100.0(Penetrate)
G03 X38.533078 Y142.287131 Z-0.125000 I-2.695608 J-1.853500 F400.000000
G03 X38.434088 Y142.414929 Z-0.125000 I-8.948362 J-6.828999
G01 X37.747547 Y142.232895 Z-0.125000
G02 X37.864226 Y142.108871 Z-0.125000 I-2.439380 J-2.411804
G02 X37.975194 Y141.981012 Z-0.125000 I-4.129177 J-3.695785
G01 X38.628116 Y142.155990 Z-0.125000
G01 X38.628116 Y142.155990 Z-0.125000
G00 Z5.000000

(End cutting path id: path4400)


(Start cutting path id: path5498)
(Change tool to Default tool)

G00 Z5.000000
G00 X38.789370 Y141.914690

G01 Z-0.125000 F100.0(Penetrate)
G01 X38.156840 Y141.746767 Z-0.125000 F400.000000
G02 X38.246183 Y141.616678 Z-0.125000 I-4.642002 J-3.283787
G02 X38.331853 Y141.482184 Z-0.125000 I-3.196075 J-2.130356
G01 X38.951966 Y141.647284 Z-0.125000
G03 X38.872339 Y141.782060 Z-0.125000 I-5.419954 J-3.111221
G03 X38.789370 Y141.914690 Z-0.125000 I-5.200309 J-3.160890
G01 X38.789370 Y141.914690 Z-0.125000
G00 Z5.000000

(End cutting path id: path5498)


(Start cutting path id: path5510)
(Change tool to Default tool)

G00 Z5.000000
G00 X39.208400 Y141.120940

G01 Z-0.125000 F100.0(Penetrate)
G03 X39.148222 Y141.261089 Z-0.125000 I-4.888172 J-2.015912 F400.000000
G03 X39.082881 Y141.399281 Z-0.125000 I-3.221062 J-1.438446
G01 X38.465520 Y141.235240 Z-0.125000
G02 X38.529036 Y141.098365 Z-0.125000 I-3.723597 J-1.811088
G02 X38.586911 Y140.955487 Z-0.125000 I-2.246573 J-0.993169
G01 X39.208400 Y141.120940 Z-0.125000
G01 X39.208400 Y141.120940 Z-0.125000
G00 Z5.000000

(End cutting path id: path5510)


(Start cutting path id: path5512)
(Change tool to Default tool)

G00 Z5.000000
G00 X39.406731 Y140.579426

G01 Z-0.125000 F100.0(Penetrate)
G03 X39.361715 Y140.725108 Z-0.125000 I-9.650398 J-2.902189 F400.000000
G03 X39.313281 Y140.865881 Z-0.125000 I-2.942327 J-0.933626
G01 X38.675106 Y140.696548 Z-0.125000
G02 X38.714612 Y140.552746 Z-0.125000 I-5.762693 J-1.660509
G02 X38.749542 Y140.404448 Z-0.125000 I-3.025640 J-0.790909
G01 X39.406731 Y140.579426 Z-0.125000
G01 X39.406731 Y140.579426 Z-0.125000
G00 Z5.000000

(End cutting path id: path5512)


(Start cutting path id: path4670)
(Change tool to Default tool)

G00 Z5.000000
G00 X38.825318 Y139.793790

G01 Z-0.125000 F100.0(Penetrate)
G01 X39.546043 Y139.986759 Z-0.125000 F400.000000
G02 X39.510075 Y140.134398 Z-0.125000 I1.396246 J0.418364
G02 X39.482649 Y140.281681 Z-0.125000 I27.044572 J5.112111
G01 X38.800659 Y140.100001 Z-0.125000
G02 X38.814800 Y139.950690 Z-0.125000 I-5.189757 J-0.566824
G02 X38.825318 Y139.793790 Z-0.125000 I-5.973955 J-0.479296
G01 X38.825318 Y139.793790 Z-0.125000
G00 Z5.000000

(End cutting path id: path4670)


(Start cutting path id: path5040)
(Change tool to Default tool)

G00 Z5.000000
G00 X38.810149 Y139.195831

G01 Z-0.125000 F100.0(Penetrate)
G01 X39.920729 Y139.492165 Z-0.125000 F400.000000
G03 X39.884885 Y139.533015 Z-0.125000 I-0.300901 J-0.227878
G03 X39.838179 Y139.572245 Z-0.125000 I-0.268356 J-0.272072
G02 X39.741131 Y139.655359 Z-0.125000 I0.404561 J0.570599
G02 X39.671315 Y139.737345 Z-0.125000 I0.587948 J0.571394
G01 X38.837736 Y139.515448 Z-0.125000
G02 X38.834217 Y139.352759 Z-0.125000 I-1.709639 J-0.044406
G02 X38.810149 Y139.195831 Z-0.125000 I-0.955552 J0.066247
G01 X38.810149 Y139.195831 Z-0.125000
G00 Z5.000000

(End cutting path id: path5040)


(Start cutting path id: path4678)
(Change tool to Default tool)

G00 Z5.000000
G00 X39.625806 Y138.535784

G01 Z-0.125000 F100.0(Penetrate)
G01 X37.918715 Y138.082465 Z-0.125000 F400.000000
G02 X37.529293 Y137.787506 Z-0.125000 I-4.511585 J5.551913
G02 X37.200459 Y137.577992 Z-0.125000 I-2.400950 J3.405504
G01 X39.353109 Y138.152667 Z-0.125000
G02 X39.490545 Y138.345404 Z-0.125000 I50.381369 J-35.780488
G03 X39.625806 Y138.535784 Z-0.125000 I-26.077083 J18.670448
G01 X39.625806 Y138.535784 Z-0.125000
G00 Z5.000000

(End cutting path id: path4678)


(Start cutting path id: path4384)
(Change tool to Default tool)

G00 Z5.000000
G00 X39.861462 Y138.881506

G01 Z-0.125000 F100.0(Penetrate)
G03 X39.946223 Y139.056047 Z-0.125000 I-0.880639 J0.535508 F400.000000
G03 X39.985640 Y139.227581 Z-0.125000 I-0.626562 J0.234275
G01 X38.647554 Y138.870570 Z-0.125000
G02 X38.570480 Y138.727291 Z-0.125000 I-0.513074 J0.183626
G02 X38.359687 Y138.482162 Z-0.125000 I-1.935649 J1.451318
G01 X39.861462 Y138.881506 Z-0.125000
G01 X39.861462 Y138.881506 Z-0.125000
G00 Z5.000000

(End cutting path id: path4384)


(Start cutting path id: path4904)
(Change tool to Default tool)

G00 Z5.000000
G00 X39.091278 Y137.799890

G01 Z-0.125000 F100.0(Penetrate)
G01 X34.054422 Y136.457570 Z-0.125000 F400.000000
G02 X34.188124 Y136.337935 Z-0.125000 I-2.069883 J-2.447779
G02 X34.305212 Y136.213801 Z-0.125000 I-1.035325 J-1.093848
G01 X38.763300 Y137.400192 Z-0.125000
G03 X38.929829 Y137.595860 Z-0.125000 I-4.353509 J3.873905
G03 X39.091278 Y137.799890 Z-0.125000 I-7.383812 J6.008670
G01 X39.091278 Y137.799890 Z-0.125000
G00 Z5.000000

(End cutting path id: path4904)


(Start cutting path id: path5560)
(Change tool to Default tool)

G00 Z5.000000
G00 X34.411468 Y137.147956

G01 Z-0.125000 F100.0(Penetrate)
G01 X33.501972 Y136.905598 Z-0.125000 F400.000000
G03 X33.628363 Y136.787849 Z-0.125000 I1.455188 J1.435288
G03 X33.780314 Y136.667120 Z-0.125000 I1.736043 J2.029008
G01 X34.795926 Y136.938759 Z-0.125000
G03 X34.605058 Y137.042021 Z-0.125000 I-1.145309 J-1.888945
G02 X34.411468 Y137.147956 Z-0.125000 I0.884482 J1.846180
G01 X34.411468 Y137.147956 Z-0.125000
G00 Z5.000000

(End cutting path id: path5560)


(Start cutting path id: path5566)
(Change tool to Default tool)

G00 Z5.000000
G00 X34.181316 Y137.368442

G01 Z-0.125000 F100.0(Penetrate)
G02 X34.130572 Y137.464635 Z-0.125000 I0.750450 J0.457357 F400.000000
G02 X34.087477 Y137.597395 Z-0.125000 I0.581540 J0.262149
G02 X34.083998 Y137.625531 Z-0.125000 I0.787079 J0.111622
G03 X34.079504 Y137.653840 Z-0.125000 I-0.273184 J-0.028849
G01 X33.162952 Y137.410070 Z-0.125000
G03 X33.225719 Y137.274630 Z-0.125000 I1.388972 J0.561420
G03 X33.309038 Y137.135609 Z-0.125000 I1.278942 J0.672026
G01 X34.181316 Y137.368442 Z-0.125000
G01 X34.181316 Y137.368442 Z-0.125000
G00 Z5.000000

(End cutting path id: path5566)


(Start cutting path id: path5534)
(Change tool to Default tool)

G00 Z5.000000
G00 X33.099417 Y137.674653

G01 Z-0.125000 F100.0(Penetrate)
G01 X34.055798 Y137.929359 Z-0.125000 F400.000000
G02 X34.055749 Y138.086444 Z-0.125000 I3.376693 J0.079585
G02 X34.062818 Y138.243684 Z-0.125000 I3.580142 J-0.082168
G01 X33.106473 Y137.988626 Z-0.125000
G03 X33.091116 Y137.831145 Z-0.125000 I1.081060 J-0.184909
G03 X33.099417 Y137.674653 Z-0.125000 I1.005183 J-0.025146
G01 X33.099417 Y137.674653 Z-0.125000
G00 Z5.000000

(End cutting path id: path5534)


(Start cutting path id: path5724)
(Change tool to Default tool)

G00 Z5.000000
G00 X31.910203 Y137.952995

G01 Z-0.125000 F100.0(Penetrate)
G02 X32.131018 Y138.167917 Z-0.125000 I3.051418 J-2.914177 F400.000000
G02 X32.395273 Y138.393967 Z-0.125000 I4.208436 J-4.652229
G01 X28.590635 Y137.379731 Z-0.125000
G02 X28.637173 Y137.238026 Z-0.125000 I-0.865760 J-0.362826
G02 X28.666412 Y137.088690 Z-0.125000 I-1.664060 J-0.403331
G01 X31.910203 Y137.952995 Z-0.125000
G01 X31.910203 Y137.952995 Z-0.125000
G00 Z5.000000

(End cutting path id: path5724)


(Start cutting path id: path5718)
(Change tool to Default tool)

G00 Z5.000000
G00 X31.484365 Y138.469462

G01 Z-0.125000 F100.0(Penetrate)
G01 X33.107849 Y138.900909 Z-0.125000 F400.000000
G02 X34.051348 Y139.391426 Z-0.125000 I3.500677 J-5.580825
G02 X34.470735 Y139.443834 Z-0.125000 I0.302810 J-0.718942
G02 X34.652552 Y139.410450 Z-0.125000 I-0.395837 J-2.667629
G02 X34.841399 Y139.362695 Z-0.125000 I-0.655824 J-2.990721
G01 X36.136764 Y139.708417 Z-0.125000
G03 X36.006987 Y139.825584 Z-0.125000 I-0.946188 J-0.917564
G03 X35.843394 Y139.942662 Z-0.125000 I-1.330576 J-1.686390
G01 X31.779287 Y138.859634 Z-0.125000
G02 X31.656943 Y138.648559 Z-0.125000 I-1.062239 J0.474704
G02 X31.484365 Y138.469462 Z-0.125000 I-0.738122 J0.538559
G01 X31.484365 Y138.469462 Z-0.125000
G00 Z5.000000

(End cutting path id: path5718)


(Start cutting path id: path1226)
(Change tool to Default tool)

G00 Z5.000000
