%
(Header)
(Generated by gcodetools from Inkscape.)
(Using default header. To add your own header create file "header" in the output dir.)
M3
(Header end.)
G21 (All units in mm)

(Start cutting path id: path14)
(Change tool to Default tool)

(Reference point for drift detection)
G00 Z5.000000

G00 X20.000000 Y5.000000
G01 Z-0.125000 F100.0(Penetrate)
G01 X20.000000 Y30.000000
G00 Z5.000000

G00 X5.000000 Y20.000000
G01 Z-0.125000 F100.0(Penetrate)
G01 X35.000000 Y20.000000
G00 Z5.000000

G00 X15.000000 Y20.000000
G01 Z-0.125000 F100.0(Penetrate)
G02 X25.000000 Y20.000000 I5.000000 J0.000000
G02 X15.000000 Y20.000000 I-5.000000 J0.000000
G00 Z5.000000

G00 X10.000000 Y20.000000
G01 Z-0.125000 F100.0(Penetrate)
G02 X30.000000 Y20.000000 I10.000000 J0.000000
G02 X10.000000 Y20.000000 I-10.000000 J0.000000
G00 Z5.000000



G00 Z5.000000
G00 X75.155951 Y176.328458

G01 Z-0.125000 F100.0(Penetrate)
G02 X75.002582 Y176.164526 Z-0.125000 I-537.870279 J503.056741 F400.000000
G03 X74.848682 Y175.998964 Z-0.125000 I24.565682 J-22.989713
G03 X76.103279 Y176.016324 Z-0.125000 I0.474335 J11.063167
G03 X77.348465 Y176.157361 Z-0.125000 I-1.044957 J14.792957
G02 X77.583856 Y176.185749 Z-0.125000 I0.602508 J-4.005864
G03 X77.760509 Y176.412419 Z-0.125000 I-0.017843 J0.196078
G03 X77.543226 Y176.596975 Z-0.125000 I-0.215832 J-0.033921
G02 X77.269796 Y176.608211 Z-0.125000 I-0.019060 J2.868845
G02 X76.636628 Y176.483564 Z-0.125000 I-0.608402 J1.420012
G02 X76.003323 Y176.497792 Z-0.125000 I0.789557 J49.245257
G02 X75.570479 Y176.322535 Z-0.125000 I-0.381198 J0.319331
G03 X75.155951 Y176.328458 Z-0.125000 I-0.240174 J-2.300051
G01 X75.155951 Y176.328458 Z-0.125000
G00 Z5.000000

(End cutting path id: path14)


(Start cutting path id: path14)
(Change tool to Default tool)

G00 Z5.000000
G00 X75.150307 Y176.328458

G01 Z-0.125000 F100.0(Penetrate)
G01 X75.155951 Y176.328458 Z-0.125000 F400.000000
G01 X75.163007 Y176.335161 Z-0.125000
G01 X75.150307 Y176.328458 Z-0.125000
G01 X75.150307 Y176.328458 Z-0.125000
G00 Z5.000000

(End cutting path id: path14)


(Start cutting path id: path14)
(Change tool to Default tool)

G00 Z5.000000
G00 X75.150307 Y176.328458

G01 Z-0.125000 F100.0(Penetrate)
G01 X75.163007 Y176.335161 Z-0.125000 F400.000000
G01 X75.157362 Y176.335161 Z-0.125000
G01 X75.152990 Y176.331440 Z-0.125000
G01 X75.150307 Y176.328458 Z-0.125000
G01 X75.150307 Y176.328458 Z-0.125000
G00 Z5.000000

(End cutting path id: path14)


(Start cutting path id: path14)
(Change tool to Default tool)

G00 Z5.000000
G00 X76.003323 Y176.497792

G01 Z-0.125000 F100.0(Penetrate)
G01 X76.006146 Y176.499908 Z-0.125000 F400.000000
G01 X76.008968 Y176.502025 Z-0.125000
G01 X75.998032 Y176.499203 Z-0.125000
G01 X76.001880 Y176.498177 Z-0.125000
G01 X76.003323 Y176.497792 Z-0.125000
G01 X76.003323 Y176.497792 Z-0.125000
G00 Z5.000000

(End cutting path id: path14)


(Start cutting path id: path14)
(Change tool to Default tool)

G00 Z5.000000
G00 X76.008968 Y176.502025

G01 Z-0.125000 F100.0(Penetrate)
G01 X76.007431 Y176.503133 Z-0.125000 F400.000000
G01 X76.006146 Y176.503436 Z-0.125000
G01 X76.001830 Y176.500773 Z-0.125000
G01 X75.998032 Y176.499203 Z-0.125000
G01 X76.008968 Y176.502025 Z-0.125000
G01 X76.008968 Y176.502025 Z-0.125000
G00 Z5.000000

(End cutting path id: path14)


(Start cutting path id: path14)
(Change tool to Default tool)

G00 Z5.000000
G00 X70.950134 Y179.430433

G01 Z-0.125000 F100.0(Penetrate)
G03 X71.721571 Y179.814559 Z-0.125000 I0.138568 J0.688413 F400.000000
G02 X72.071968 Y180.356475 Z-0.125000 I2.317736 J-1.114382
G03 X72.989139 Y181.891894 Z-0.125000 I-4.220875 J3.562952
G03 X73.670404 Y183.651067 Z-0.125000 I-137.664262 J54.323928
G03 X73.367298 Y183.462559 Z-0.125000 I0.097071 J-0.494022
G03 X73.274940 Y183.321925 Z-0.125000 I0.943047 J-0.719968
G02 X72.449539 Y181.854448 Z-0.125000 I-2108.094657 J1184.757860
G03 X71.626762 Y180.387872 Z-0.125000 I506.942692 J-285.368583
G02 X71.433103 Y180.092601 Z-0.125000 I-2.235188 J1.254842
G02 X71.151570 Y179.953956 Z-0.125000 I-0.279368 J0.212121
G02 X70.905406 Y180.181047 Z-0.125000 I0.002388 J0.249554
G03 X70.834423 Y180.480300 Z-0.125000 I-1.076405 J-0.097278
G03 X70.571300 Y181.155359 Z-0.125000 I-382.583268 J-148.733966
G03 X70.080537 Y181.735836 Z-0.125000 I-1.094675 J-0.427794
G02 X70.111193 Y181.281479 Z-0.125000 I-9.478285 J-0.867730
G03 X70.177198 Y180.835900 Z-0.125000 I2.175400 J0.094569
G02 X70.315302 Y180.113050 Z-0.125000 I-5.766812 J-1.476396
G03 X70.950134 Y179.430433 Z-0.125000 I0.793266 J0.101231
G01 X70.950134 Y179.430433 Z-0.125000
G00 Z5.000000

(End cutting path id: path14)


(Start cutting path id: path14)
(Change tool to Default tool)

G00 Z5.000000
G00 X70.080537 Y181.735836

G01 Z-0.125000 F100.0(Penetrate)
G03 X70.080430 Y181.742325 Z-0.125000 I-0.195926 J0.000000 F400.000000
G01 X70.079126 Y181.749595 Z-0.125000
G01 X70.071012 Y181.742539 Z-0.125000
G02 X70.077073 Y181.738161 Z-0.125000 I-0.055261 J-0.082891
G01 X70.080537 Y181.735836 Z-0.125000
G01 X70.080537 Y181.735836 Z-0.125000
G00 Z5.000000

(End cutting path id: path14)


(Start cutting path id: path14)
(Change tool to Default tool)

G00 Z5.000000
G00 X70.079126 Y181.749595

G01 Z-0.125000 F100.0(Penetrate)
G02 X70.067646 Y181.770173 Z-0.125000 I0.423484 J0.249747 F400.000000
G03 X70.055843 Y181.790870 Z-0.125000 I-0.315879 J-0.166426
G02 X70.063858 Y181.767578 Z-0.125000 I-0.465683 J-0.173277
G02 X70.071012 Y181.742539 Z-0.125000 I-0.438205 J-0.138747
G01 X70.079126 Y181.749595 Z-0.125000
G01 X70.079126 Y181.749595 Z-0.125000
G00 Z5.000000

(End cutting path id: path14)


(Start cutting path id: path14)
(Change tool to Default tool)

G00 Z5.000000
G00 X70.046318 Y181.821208

G01 Z-0.125000 F100.0(Penetrate)
G03 X70.029999 Y181.846389 Z-0.125000 I-0.100735 J-0.047405 F400.000000
G02 X70.010334 Y181.870950 Z-0.125000 I0.340435 J0.292721
G03 X70.032918 Y181.831601 Z-0.125000 I44.647588 J25.597950
G02 X70.055843 Y181.790870 Z-0.125000 I-2.298113 J-1.320278
G03 X70.051363 Y181.806916 Z-0.125000 I-0.410272 J-0.105877
G03 X70.046318 Y181.821208 Z-0.125000 I-0.152857 J-0.045927
G01 X70.046318 Y181.821208 Z-0.125000
G00 Z5.000000

(End cutting path id: path14)


(Start cutting path id: path14)
(Change tool to Default tool)

G00 Z5.000000
G00 X71.192845 Y192.955581

G01 Z-0.125000 F100.0(Penetrate)
G03 X70.818387 Y192.830338 Z-0.125000 I0.488938 J-2.084272 F400.000000
G03 X70.545145 Y192.516020 Z-0.125000 I0.197137 J-0.447300
G03 X70.608000 Y192.328143 Z-0.125000 I0.167384 J-0.048453
G03 X70.808318 Y192.266606 Z-0.125000 I0.185702 J0.247693
G03 X71.157000 Y192.415857 Z-0.125000 I-0.032961 J0.558928
G03 X71.341718 Y192.682883 Z-0.125000 I-0.517169 J0.555157
G03 X71.309309 Y192.901121 Z-0.125000 I-0.354261 J0.058918
G03 X71.192845 Y192.955581 Z-0.125000 I-0.092338 J-0.045708
G01 X71.192845 Y192.955581 Z-0.125000
G00 Z5.000000

(End cutting path id: path14)


(Start cutting path id: path14)
(Change tool to Default tool)

G00 Z5.000000
G00 X74.041173 Y193.147139

G01 Z-0.125000 F100.0(Penetrate)
G01 X74.018885 Y193.135144 Z-0.125000 F400.000000
G02 X73.910293 Y193.013436 Z-0.125000 I-1.817296 J1.512162
G03 X74.410523 Y192.613766 Z-0.125000 I1.701987 J1.617338
G03 X74.996143 Y192.468042 Z-0.125000 I0.533936 J0.896150
G03 X75.109539 Y192.545490 Z-0.125000 I-0.008294 J0.133882
G03 X75.098096 Y192.656778 Z-0.125000 I-0.099249 J0.046027
G03 X74.649432 Y193.045536 Z-0.125000 I-1.116148 J-0.834861
G03 X74.041173 Y193.147139 Z-0.125000 I-0.450592 J-0.826016
G01 X74.041173 Y193.147139 Z-0.125000
G00 Z5.000000

(End cutting path id: path14)


(Start cutting path id: path14)
(Change tool to Default tool)

G00 Z5.000000
G00 X79.178323 Y189.783403

G01 Z-0.125000 F100.0(Penetrate)
G02 X79.526015 Y189.939403 Z-0.125000 I3.829915 J-8.070609 F400.000000
G03 X79.804151 Y190.085381 Z-0.125000 I-0.739314 J1.746599
G03 X80.909276 Y191.309249 Z-0.125000 I-1.655067 J2.605374
G03 X81.015237 Y192.484270 Z-0.125000 I-1.443434 J0.722454
G02 X80.759193 Y192.000382 Z-0.125000 I-2.300190 J0.907435
G02 X80.313915 Y191.464742 Z-0.125000 I-3.006035 J2.046020
G02 X80.483297 Y192.177228 Z-0.125000 I1.533286 J0.011863
G02 X80.848726 Y192.646900 Z-0.125000 I1.426067 J-0.732555
G03 X81.298748 Y193.444027 Z-0.125000 I-5.136265 J3.425297
G03 X81.399765 Y194.431603 Z-0.125000 I-1.355190 J0.637574
G02 X81.392614 Y194.836099 Z-0.125000 I0.911122 J0.218420
G03 X81.477023 Y195.266628 Z-0.125000 I-33.992208 J6.888070
G03 X81.609218 Y198.126005 Z-0.125000 I-9.866666 J1.888901
G03 X80.971140 Y200.907192 Z-0.125000 I-11.058489 J-1.073322
G02 X80.910477 Y201.077100 Z-0.125000 I27.121307 J9.778950
G03 X80.676571 Y201.208817 Z-0.125000 I-0.192324 J-0.067988
G02 X81.156466 Y196.439497 Z-0.125000 I-13.306029 J-3.747674
G02 X79.542390 Y191.834100 Z-0.125000 I-9.355475 J0.693314
G03 X79.454223 Y191.613432 Z-0.125000 I0.445398 J-0.305905
G02 X79.410098 Y191.358556 Z-0.125000 I-9.817204 J1.568301
G03 X79.404769 Y191.158427 Z-0.125000 I0.661172 J-0.117743
G01 X79.439026 Y191.124311 Z-0.125000
G02 X79.607302 Y190.660284 Z-0.125000 I-0.046781 J-0.279491
G03 X79.507818 Y190.432514 Z-0.125000 I0.321884 J-0.276203
G02 X79.356440 Y190.182030 Z-0.125000 I-0.340699 J0.034915
G03 X79.178323 Y189.783403 Z-0.125000 I0.225435 J-0.339837
G01 X79.178323 Y189.783403 Z-0.125000
G00 Z5.000000

(End cutting path id: path14)


(Start cutting path id: path14)
(Change tool to Default tool)

G00 Z5.000000
G00 X82.389307 Y192.178411

G01 Z-0.125000 F100.0(Penetrate)
G03 X82.407021 Y192.282102 Z-0.125000 I-6.898243 J1.231829 F400.000000
G02 X82.423879 Y192.385139 Z-0.125000 I107.802822 J-17.584917
G02 X82.373191 Y192.307123 Z-0.125000 I-4.322659 J2.752978
G03 X82.389307 Y192.178411 Z-0.125000 I0.082961 J-0.054977
G01 X82.389307 Y192.178411 Z-0.125000
G00 Z5.000000

(End cutting path id: path14)


(Start cutting path id: path14)
(Change tool to Default tool)

G00 Z5.000000
G00 X82.439048 Y192.419711

G01 Z-0.125000 F100.0(Penetrate)
G01 X82.430582 Y192.426414 Z-0.125000 F400.000000
G02 X82.427638 Y192.405831 Z-0.125000 I-0.259744 J0.026640
G03 X82.423879 Y192.385139 Z-0.125000 I4.852120 J-0.892260
G03 X82.433542 Y192.402023 Z-0.125000 I-0.276163 J0.169261
G01 X82.439048 Y192.419711 Z-0.125000
G01 X82.439048 Y192.419711 Z-0.125000
G00 Z5.000000

(End cutting path id: path14)


(Start cutting path id: path14)
(Change tool to Default tool)

G00 Z5.000000
G00 X82.439048 Y192.419711

G01 Z-0.125000 F100.0(Penetrate)
G01 X82.439048 Y192.451461 Z-0.125000 F400.000000
G03 X82.435374 Y192.439126 Z-0.125000 I0.189545 J-0.063182
G02 X82.430582 Y192.426414 Z-0.125000 I-0.063791 J0.016787
G01 X82.439048 Y192.419711 Z-0.125000
G01 X82.439048 Y192.419711 Z-0.125000
G00 Z5.000000

(End cutting path id: path14)


(Start cutting path id: path14)
(Change tool to Default tool)

G00 Z5.000000
G00 X84.226221 Y185.811831

G01 Z-0.125000 F100.0(Penetrate)
G03 X85.416691 Y187.692382 Z-0.125000 I-201.765430 J129.043315 F400.000000
G02 X86.663915 Y189.539633 Z-0.125000 I27.654142 J-17.326804
G03 X87.007902 Y190.486155 Z-0.125000 I-84.693069 J31.315084
G02 X87.368059 Y191.424878 Z-0.125000 I20.283527 J-7.243684
G03 X87.459599 Y192.311955 Z-0.125000 I-1.441833 J0.597048
G03 X87.186379 Y193.165131 Z-0.125000 I-3.587766 J-0.678606
G03 X87.055778 Y192.748370 Z-0.125000 I0.429935 J-0.363573
G02 X86.855473 Y192.360445 Z-0.125000 I-0.401933 J-0.038138
G02 X86.767138 Y193.094023 Z-0.125000 I4.855402 J0.956780
G03 X86.498462 Y193.835056 Z-0.125000 I-1.320717 J-0.059628
G02 X86.192240 Y191.506756 Z-0.125000 I-2.967719 J-0.793968
G03 X85.334296 Y189.528697 Z-0.125000 I8.231139 J-4.745185
G02 X84.112241 Y186.956645 Z-0.125000 I-27.093736 J11.296656
G02 X82.325807 Y184.664245 Z-0.125000 I-7.574260 J4.060238
G03 X81.793997 Y183.990425 Z-0.125000 I1.738494 J-1.918874
G03 X81.377893 Y182.959270 Z-0.125000 I4.138224 J-2.269439
G03 X83.068925 Y184.320959 Z-0.125000 I-3.961458 J6.650447
G03 X84.226221 Y185.811831 Z-0.125000 I-7.494612 J7.012341
G01 X84.226221 Y185.811831 Z-0.125000
G00 Z5.000000

(End cutting path id: path14)


(Start cutting path id: path14)
(Change tool to Default tool)

G00 Z5.000000
G00 X94.232057 Y186.860639

G01 Z-0.125000 F100.0(Penetrate)
G02 X93.480654 Y187.689542 Z-0.125000 I0.077628 J0.825396 F400.000000
G03 X93.412201 Y188.459075 Z-0.125000 I-4.161749 J0.017607
G02 X93.433771 Y189.000985 Z-0.125000 I1.228588 J0.222483
G03 X93.139504 Y189.674747 Z-0.125000 I-0.571921 J0.151354
G02 X92.836018 Y188.220137 Z-0.125000 I-47.367415 J9.123629
G03 X92.618451 Y186.802783 Z-0.125000 I10.179166 J-2.287902
G02 X92.484455 Y186.220091 Z-0.125000 I-2.091152 J0.174130
G02 X92.148551 Y185.733514 Z-0.125000 I-1.183065 J0.457485
G02 X89.702810 Y183.614482 Z-0.125000 I-64.318084 J71.763618
G03 X87.419212 Y181.302978 Z-0.125000 I11.076187 J-13.226234
G02 X87.155589 Y181.098821 Z-0.125000 I-0.577801 J0.473819
G02 X86.833601 Y181.041217 Z-0.125000 I-0.270623 J0.583987
G02 X85.706831 Y180.944097 Z-0.125000 I-9.628732 J105.125997
G03 X84.580409 Y180.830256 Z-0.125000 I2.268543 J-28.076245
G03 X80.011194 Y180.006563 Z-0.125000 I4.674811 J-39.017374
G03 X75.638198 Y178.370689 Z-0.125000 I4.568200 J-18.874499
G02 X75.331711 Y178.227360 Z-0.125000 I-1.932824 J3.733715
G03 X75.032126 Y178.078589 Z-0.125000 I1.015766 J-2.421497
G02 X73.401211 Y177.654289 Z-0.125000 I-1.574667 J2.706088
G02 X71.782690 Y177.834467 Z-0.125000 I0.157694 J8.776180
G02 X71.683445 Y177.777776 Z-0.125000 I-0.126135 J0.105601
G02 X71.570318 Y177.811183 Z-0.125000 I-0.022103 J0.133399
G02 X71.451047 Y177.803071 Z-0.125000 I-1.709621 J24.255250
G02 X71.331840 Y177.796014 Z-0.125000 I-0.618038 J9.429170
G02 X70.878139 Y177.670386 Z-0.125000 I-0.413514 J0.611316
G03 X70.429434 Y177.634794 Z-0.125000 I-0.091976 J-1.686682
G02 X68.838008 Y177.358160 Z-0.125000 I-4.122376 J18.999323
G03 X67.277718 Y176.739092 Z-0.125000 I0.446611 J-3.401433
G03 X64.866277 Y174.404960 Z-0.125000 I6.848838 J-9.488401
G03 X63.271926 Y171.513394 Z-0.125000 I8.523335 J-6.584924
G03 X62.012494 Y166.437933 Z-0.125000 I23.042755 J-8.411848
G03 X61.454062 Y161.245797 Z-0.125000 I88.319648 J-12.125184
G03 X61.449034 Y160.907395 Z-0.125000 I2.827144 J-0.211249
G03 X61.495337 Y160.573050 Z-0.125000 I1.820394 J0.081728
G03 X62.041630 Y158.355898 Z-0.125000 I296.214248 J71.809515
G02 X62.595298 Y156.138633 Z-0.125000 I-1776.052878 J-444.672072
G03 X62.911730 Y155.500736 Z-0.125000 I3.710122 J1.442988
G03 X63.304734 Y154.906733 Z-0.125000 I8.811976 J5.403177
G03 X64.768855 Y153.327648 Z-0.125000 I6.882615 J4.913223
G02 X66.387659 Y151.937050 Z-0.125000 I-48.064803 J-57.590088
G03 X69.516940 Y150.006441 Z-0.125000 I7.117635 J8.035419
G03 X73.083382 Y149.195967 Z-0.125000 I4.339478 J10.843410
G02 X73.289973 Y149.236198 Z-0.125000 I0.181994 J-0.384006
G02 X73.489782 Y149.135642 Z-0.125000 I-0.016304 J-0.281187
G03 X73.628100 Y149.116879 Z-0.125000 I5.497644 J40.010628
G03 X73.768476 Y149.098247 Z-0.125000 I8.293160 J61.942534
G02 X74.870413 Y149.603598 Z-0.125000 I1.396227 J-1.590442
G02 X76.080582 Y149.514525 Z-0.125000 I0.399143 J-2.842501
G03 X78.322516 Y149.283988 Z-0.125000 I1.743993 J5.943550
G02 X80.558037 Y149.300742 Z-0.125000 I1.232337 J-15.280002
G03 X78.370780 Y150.110373 Z-0.125000 I-2.804484 J-4.217137
G03 X76.139848 Y150.275114 Z-0.125000 I-2.813669 J-22.914874
G02 X73.913655 Y150.609805 Z-0.125000 I0.212067 J8.981645
G03 X71.615826 Y151.122486 Z-0.125000 I-5.777703 J-20.489827
G03 X72.083443 Y150.616259 Z-0.125000 I0.698267 J0.175922
G02 X72.494948 Y150.207733 Z-0.125000 I-0.211012 J-0.624066
G02 X70.481322 Y150.488666 Z-0.125000 I-0.196954 J5.945257
G02 X68.834879 Y151.282647 Z-0.125000 I2.014788 J6.282042
G02 X66.607075 Y153.139928 Z-0.125000 I7.528360 J11.295012
G02 X64.692562 Y155.354408 Z-0.125000 I18.818005 J18.203800
G02 X63.295295 Y157.779511 Z-0.125000 I8.259038 J6.373676
G02 X62.559315 Y160.522250 Z-0.125000 I10.457965 J4.276381
G02 X62.732727 Y165.827361 Z-0.125000 I15.695581 J2.142337
G02 X63.924918 Y170.912614 Z-0.125000 I87.424265 J-17.813438
G02 X64.012195 Y171.127302 Z-0.125000 I0.897159 J-0.239639
G02 X64.224073 Y171.283383 Z-0.125000 I0.278531 J-0.156250
G02 X64.738687 Y172.689483 Z-0.125000 I2.451650 J-0.100050
G02 X65.596379 Y173.737658 Z-0.125000 I21.489735 J-16.709436
G02 X67.211632 Y175.151759 Z-0.125000 I5.818668 J-5.016802
G02 X69.207059 Y176.099506 Z-0.125000 I4.473352 J-6.843886
G02 X70.336590 Y176.281317 Z-0.125000 I1.177724 J-3.717190
G02 X71.495882 Y176.277306 Z-0.125000 I0.452874 J-36.639150
G02 X72.704986 Y176.036853 Z-0.125000 I-0.062484 J-3.474383
G03 X73.954390 Y176.007078 Z-0.125000 I0.665385 J1.692222
G02 X74.533308 Y176.263864 Z-0.125000 I0.981527 J-1.431859
G02 X75.157362 Y176.335161 Z-0.125000 I0.606936 J-2.545643
G02 X75.573970 Y176.523747 Z-0.125000 I0.454266 J-0.449067
G02 X76.006146 Y176.503436 Z-0.125000 I0.120597 J-2.042054
G02 X76.589874 Y176.761664 Z-0.125000 I0.977100 J-1.419870
G02 X77.221818 Y176.821642 Z-0.125000 I0.535717 J-2.285330
G02 X77.553005 Y177.599440 Z-0.125000 I0.751893 J0.139252
G02 X78.180668 Y177.922661 Z-0.125000 I1.818071 J-2.759468
G02 X78.695517 Y178.117092 Z-0.125000 I41.984711 J-110.395766
G02 X79.218540 Y178.265914 Z-0.125000 I1.172012 J-3.125476
G02 X81.330051 Y178.670444 Z-0.125000 I29.191809 J-146.658469
G03 X83.443407 Y179.062486 Z-0.125000 I-147.329775 J800.093083
G02 X83.539782 Y179.125043 Z-0.125000 I0.137040 J-0.105609
G02 X83.658601 Y179.100939 Z-0.125000 I0.033636 J-0.139100
G02 X83.874454 Y179.127985 Z-0.125000 I43.516920 J-346.428884
G03 X84.092518 Y179.155972 Z-0.125000 I-4.121553 J32.976931
G02 X84.215032 Y179.159317 Z-0.125000 I0.289613 J-8.362577
G02 X84.339109 Y179.161617 Z-0.125000 I0.860874 J-43.100277
G02 X85.482639 Y179.156724 Z-0.125000 I-3.683532 J-995.202629
G03 X86.628284 Y179.152092 Z-0.125000 I3.434857 J708.064068
G02 X86.756904 Y179.157600 Z-0.125000 I0.071814 J-0.172477
G02 X86.856884 Y179.074833 Z-0.125000 I-0.052861 J-0.165625
G03 X89.462548 Y179.520724 Z-0.125000 I0.581221 J4.439843
G03 X91.670537 Y181.320970 Z-0.125000 I-3.020161 J5.958372
G03 X90.042777 Y180.693001 Z-0.125000 I0.553611 J-3.858666
G02 X88.426393 Y180.469364 Z-0.125000 I-1.035939 J1.534267
G02 X88.829529 Y181.291133 Z-0.125000 I18.008711 J-8.324781
G02 X89.440629 Y182.032170 Z-0.125000 I2.040086 J-1.059877
G02 X89.813361 Y182.607439 Z-0.125000 I1.154110 J-0.339393
G03 X90.304582 Y183.028414 Z-0.125000 I-133.893427 J156.732413
G02 X92.230140 Y184.667554 Z-0.125000 I153.315932 J-178.155375
G02 X94.172790 Y186.285964 Z-0.125000 I155.247154 J-184.374912
G03 X94.395146 Y186.608456 Z-0.125000 I-0.453325 J0.550466
G03 X94.232057 Y186.860639 Z-0.125000 I-0.181715 J0.061310
G01 X94.232057 Y186.860639 Z-0.125000
G00 Z5.000000

(End cutting path id: path14)


(Start cutting path id: path14)
(Change tool to Default tool)

G00 Z5.000000
G00 X96.450676 Y186.119453

G01 Z-0.125000 F100.0(Penetrate)
G03 X95.728346 Y184.409419 Z-0.125000 I4.039834 J-2.714031 F400.000000
G02 X95.302737 Y182.642475 Z-0.125000 I-31.111236 J6.559114
G03 X95.064964 Y181.660357 Z-0.125000 I18.536061 J-5.007472
G03 X95.162332 Y180.662333 Z-0.125000 I1.614755 J-0.346224
G02 X95.357856 Y179.654879 Z-0.125000 I-2.193991 J-0.948504
G02 X95.319318 Y178.705475 Z-0.125000 I-29.864770 J0.736772
G03 X95.457162 Y177.338009 Z-0.125000 I4.420087 J-0.245124
G03 X96.303215 Y176.147836 Z-0.125000 I1.996111 J0.523165
G02 X96.311638 Y176.013420 Z-0.125000 I-205.666943 J-12.955379
G02 X96.319796 Y175.879019 Z-0.125000 I-41.111396 J-2.562721
G03 X96.374050 Y176.021814 Z-0.125000 I-0.169769 J0.146207
G03 X96.310271 Y176.160183 Z-0.125000 I-0.176165 J0.002683
G03 X96.076596 Y177.054944 Z-0.125000 I-2.914276 J-0.283195
G02 X95.957493 Y178.002742 Z-0.125000 I1.534170 J0.674171
G01 X95.936679 Y178.036961 Z-0.125000
G02 X95.858986 Y178.127529 Z-0.125000 I0.039014 J0.112076
G02 X95.877412 Y178.234164 Z-0.125000 I0.153768 J0.028338
G03 X95.883596 Y178.872872 Z-0.125000 I-1225.785604 J12.186779
G03 X95.888701 Y179.507339 Z-0.125000 I-230.839120 J2.174711
G02 X95.843918 Y179.616729 Z-0.125000 I0.118820 J0.112505
G02 X95.888701 Y179.727825 Z-0.125000 I0.152966 J0.002913
G03 X96.125115 Y181.372432 Z-0.125000 I-19.344189 J3.620038
G02 X96.629887 Y182.992431 Z-0.125000 I4.217537 J-0.425495
G02 X97.657027 Y184.648337 Z-0.125000 I16.520489 J-9.100956
G02 X98.891193 Y186.188245 Z-0.125000 I11.799682 J-8.192389
G02 X101.500758 Y188.614714 Z-0.125000 I17.049663 J-15.719715
G02 X104.612896 Y190.376070 Z-0.125000 I7.114387 J-8.940313
G03 X104.818964 Y190.498085 Z-0.125000 I-0.235339 J0.632473
G03 X104.938157 Y190.709445 Z-0.125000 I-0.235087 J0.271863
G03 X102.187768 Y190.211674 Z-0.125000 I1.038247 J-13.584151
G03 X99.676829 Y188.805150 Z-0.125000 I1.764353 J-6.094277
G03 X98.249308 Y187.309419 Z-0.125000 I10.159587 J-11.125357
G02 X96.450676 Y186.119453 Z-0.125000 I-2.872133 J2.386925
G01 X96.450676 Y186.119453 Z-0.125000
G00 Z5.000000

(End cutting path id: path14)


(Start cutting path id: path14)
(Change tool to Default tool)

G00 Z5.000000
G00 X105.977087 Y195.470533

G01 Z-0.125000 F100.0(Penetrate)
G01 X105.974870 Y195.469122 Z-0.125000 F400.000000
G01 X105.973207 Y195.468064 Z-0.125000
G02 X105.974309 Y195.418327 Z-0.125000 I-2.551863 J-0.081442
G03 X105.975676 Y195.368581 Z-0.125000 I1.652775 J0.020526
G02 X105.976397 Y195.417962 Z-0.125000 I1.691667 J0.000000
G03 X105.977087 Y195.465242 Z-0.125000 I-1.618991 J0.047280
G01 X105.977087 Y195.470533 Z-0.125000
G01 X105.977087 Y195.470533 Z-0.125000
G00 Z5.000000

(End cutting path id: path14)


(Start cutting path id: path14)
(Change tool to Default tool)

G00 Z5.000000
G00 X105.977087 Y195.470533

G01 Z-0.125000 F100.0(Penetrate)
G02 X106.025177 Y195.513971 Z-0.125000 I0.130207 J-0.095813 F400.000000
G02 X106.087507 Y195.534033 Z-0.125000 I0.075726 J-0.128412
G02 X106.151204 Y195.683928 Z-0.125000 I0.718223 J-0.216727
G02 X106.274832 Y195.711833 Z-0.125000 I0.074366 J-0.041655
G02 X106.323891 Y195.537194 Z-0.125000 I-0.083908 J-0.117782
G02 X106.218387 Y195.372814 Z-0.125000 I-0.541735 J0.231653
G02 X106.125003 Y195.288820 Z-0.125000 I-0.244221 J0.177615
G02 X105.978498 Y195.299789 Z-0.125000 I-0.065197 J0.113076
G02 X105.977098 Y195.333112 Z-0.125000 I0.742325 J0.047892
G03 X105.975676 Y195.368581 Z-0.125000 I-0.866829 J-0.016980
G01 X105.975676 Y195.296967 Z-0.125000
G02 X106.042265 Y194.941094 Z-0.125000 I-0.201438 J-0.221858
G03 X106.077629 Y194.592822 Z-0.125000 I0.292465 J-0.146234
G03 X107.210309 Y195.308305 Z-0.125000 I-0.592643 J2.192526
G02 X108.562243 Y195.833189 Z-0.125000 I1.165117 J-0.997453
G03 X107.872837 Y197.468287 Z-0.125000 I-3.572365 J-0.543329
G02 X107.363504 Y199.291822 Z-0.125000 I2.063563 J1.559274
G03 X106.891113 Y198.087716 Z-0.125000 I6.941093 J-3.417822
G02 X106.290001 Y197.004411 Z-0.125000 I-2.764263 J0.825427
G02 X106.288530 Y196.899713 Z-0.125000 I-0.165496 J-0.050034
G02 X106.196162 Y196.826611 Z-0.125000 I-0.102019 J0.034000
G01 X106.174290 Y196.804739 Z-0.125000
G02 X106.090531 Y196.129946 Z-0.125000 I-0.926847 J-0.227549
G03 X105.977087 Y195.470533 Z-0.125000 I0.947048 J-0.502392
G01 X105.977087 Y195.470533 Z-0.125000
G00 Z5.000000

(End cutting path id: path14)


(Start cutting path id: path14)
(Change tool to Default tool)

G00 Z5.000000
G00 X111.908340 Y191.952633

G01 Z-0.125000 F100.0(Penetrate)
G02 X111.713047 Y191.996228 Z-0.125000 I0.180884 J1.269540 F400.000000
G03 X111.511465 Y191.936053 Z-0.125000 I-0.055642 J-0.181333
G02 X111.093976 Y191.648915 Z-0.125000 I-0.721571 J0.602064
G02 X110.672207 Y191.618906 Z-0.125000 I-0.267638 J0.782631
G02 X109.629071 Y191.934405 Z-0.125000 I1.004139 J5.202192
G03 X108.306126 Y191.631606 Z-0.125000 I-0.450180 J-1.074547
G02 X108.136174 Y191.574945 Z-0.125000 I-0.134322 J0.119680
G02 X107.826348 Y191.670058 Z-0.125000 I0.326398 J1.615392
G03 X106.412956 Y191.886175 Z-0.125000 I-1.138309 J-2.714670
G02 X104.990368 Y191.933231 Z-0.125000 I-0.526520 J5.609632
G03 X105.213485 Y191.551771 Z-0.125000 I0.521850 J0.049251
G02 X105.340676 Y191.216739 Z-0.125000 I-0.180444 J-0.260163
G02 X105.477259 Y191.248727 Z-0.125000 I2.466375 J-10.223520
G02 X105.616196 Y191.279886 Z-0.125000 I5.711432 J-25.141147
G02 X105.721937 Y191.365511 Z-0.125000 I0.143101 J-0.068616
G02 X105.851851 Y191.346208 Z-0.125000 I0.041149 J-0.169886
G02 X107.598222 Y191.267969 Z-0.125000 I-0.105747 J-21.889707
G02 X109.306604 Y190.924639 Z-0.125000 I-0.650246 J-7.657624
G03 X110.247386 Y190.648298 Z-0.125000 I5.491180 J16.954726
G03 X111.224657 Y190.564806 Z-0.125000 I0.727588 J2.755168
G02 X111.754301 Y190.749438 Z-0.125000 I0.340444 J-0.124615
G03 X112.076262 Y190.595145 Z-0.125000 I0.913485 J1.493089
G02 X112.514381 Y190.430735 Z-0.125000 I-0.535904 J-2.094040
G03 X113.042521 Y190.425811 Z-0.125000 I0.269063 J0.533038
G03 X112.702275 Y190.748611 Z-0.125000 I-0.456743 J-0.140712
G02 X112.402935 Y191.054108 Z-0.125000 I0.099839 J0.397229
G02 X112.270975 Y191.079409 Z-0.125000 I3.449077 J18.346152
G03 X112.136940 Y191.104908 Z-0.125000 I-2.602056 J-13.312314
G02 X111.947630 Y191.110828 Z-0.125000 I-0.084439 J0.329713
G02 X111.796510 Y191.237200 Z-0.125000 I0.081168 J0.250606
G02 X111.824998 Y191.359395 Z-0.125000 I0.085438 J0.044499
G02 X111.902696 Y191.394539 Z-0.125000 I0.122215 J-0.166735
G02 X112.052975 Y191.352783 Z-0.125000 I0.037287 J-0.157110
G02 X112.130237 Y191.226264 Z-0.125000 I-0.211713 J-0.216138
G03 X112.274251 Y191.185199 Z-0.125000 I0.211511 J0.468707
G02 X112.409990 Y191.063633 Z-0.125000 I-0.021219 J-0.160258
G02 X113.625641 Y190.769992 Z-0.125000 I0.183183 J-1.904803
G02 X114.610618 Y190.126656 Z-0.125000 I-36.526435 J-56.999345
G03 X115.572050 Y189.691994 Z-0.125000 I1.815399 J2.734868
G03 X116.264087 Y189.710378 Z-0.125000 I0.315187 J1.169827
G03 X114.580127 Y190.865970 Z-0.125000 I-3.424037 J-3.184849
G02 X112.788874 Y191.781536 Z-0.125000 I4.108198 J10.247478
G02 X112.312588 Y191.808732 Z-0.125000 I-0.212775 J0.457876
G03 X111.908340 Y191.952633 Z-0.125000 I-0.544569 J-0.890043
G01 X111.908340 Y191.952633 Z-0.125000
G00 Z5.000000

(End cutting path id: path14)


(Start cutting path id: path14)
(Change tool to Default tool)

G00 Z5.000000
G00 X135.812915 Y178.796492

G01 Z-0.125000 F100.0(Penetrate)
G03 X135.988156 Y180.915725 Z-0.125000 I-7.469517 J1.684520 F400.000000
G03 X135.624179 Y182.090025 Z-0.125000 I-2.542824 J-0.144596
G02 X135.592880 Y180.599698 Z-0.125000 I-15.205999 J-0.426142
G03 X135.812915 Y178.796492 Z-0.125000 I4.761966 J-0.333951
G01 X135.812915 Y178.796492 Z-0.125000
G00 Z5.000000

(End cutting path id: path14)


(Start cutting path id: path14)
(Change tool to Default tool)

G00 Z5.000000
G00 X141.728999 Y171.199422

G01 Z-0.125000 F100.0(Penetrate)
G02 X141.879094 Y170.657425 Z-0.125000 I-0.480519 J-0.424852 F400.000000
G03 X142.091301 Y170.098050 Z-0.125000 I0.566135 J-0.105168
G03 X142.330823 Y169.923313 Z-0.125000 I3.852971 J5.029959
G03 X142.602829 Y169.906492 Z-0.125000 I0.149874 J0.215873
G03 X142.692783 Y170.186672 Z-0.125000 I-0.098581 J0.186180
G03 X142.580604 Y170.397206 Z-0.125000 I-3.946682 J-1.967752
G03 X142.297796 Y170.835234 Z-0.125000 I-4.409616 J-2.536715
G03 X141.728999 Y171.199422 Z-0.125000 I-0.744689 J-0.536797
G01 X141.728999 Y171.199422 Z-0.125000
G00 Z5.000000

(End cutting path id: path14)


(Start cutting path id: path14)
(Change tool to Default tool)

G00 Z5.000000
G00 X151.869949 Y155.187897

G01 Z-0.125000 F100.0(Penetrate)
G03 X150.990695 Y157.395331 Z-0.125000 I-11.272709 J-3.211262 F400.000000
G03 X149.605821 Y159.346794 Z-0.125000 I-7.791325 J-4.062058
G03 X149.427889 Y159.494699 Z-0.125000 I-0.674972 J-0.631021
G03 X149.149679 Y159.476264 Z-0.125000 I-0.126572 J-0.198354
G03 X149.138295 Y159.233829 Z-0.125000 I0.107033 J-0.126511
G02 X149.229760 Y159.105494 Z-0.125000 I-0.363437 J-0.355785
G02 X150.121953 Y156.825028 Z-0.125000 I-11.266150 J-5.722446
G02 X150.719188 Y154.458705 Z-0.125000 I-40.985579 J-11.602860
G03 X150.799063 Y154.165354 Z-0.125000 I2.938375 J0.642525
G02 X150.764696 Y154.070297 Z-0.125000 I-0.078006 J-0.025539
G03 X150.406609 Y153.204045 Z-0.125000 I0.442508 J-0.690060
G02 X150.500113 Y152.456692 Z-0.125000 I-3.996554 J-0.879547
G03 X150.572915 Y151.320713 Z-0.125000 I18.368291 J0.606863
G02 X150.643693 Y150.182686 Z-0.125000 I-17.274402 J-1.645572
G03 X150.772477 Y149.814189 Z-0.125000 I0.645508 J0.018842
G03 X151.156279 Y149.451025 Z-0.125000 I1.251164 J0.937877
G03 X151.373194 Y151.609648 Z-0.125000 I-71.305384 J8.255523
G03 X151.305152 Y153.892497 Z-0.125000 I-9.929861 J0.846468
G02 X151.760057 Y152.916213 Z-0.125000 I-1.507808 J-1.296697
G03 X152.193799 Y152.055583 Z-0.125000 I1.583690 J0.258537
G03 X152.372891 Y152.620268 Z-0.125000 I-1.050036 J0.643766
G03 X152.342671 Y153.077933 Z-0.125000 I-1.762901 J0.113424
G03 X152.127905 Y154.139102 Z-0.125000 I-72.055921 J-14.030809
G03 X151.869949 Y155.187897 Z-0.125000 I-15.499194 J-3.255982
G01 X151.869949 Y155.187897 Z-0.125000
G00 Z5.000000

(End cutting path id: path14)


(Start cutting path id: path14)
(Change tool to Default tool)

G00 Z5.000000
G00 X155.680302 Y147.444778

G01 Z-0.125000 F100.0(Penetrate)
G03 X155.375576 Y146.132636 Z-0.125000 I18.402483 J-4.965156 F400.000000
G03 X155.133143 Y144.811292 Z-0.125000 I57.881179 J-11.302635
G03 X155.122864 Y144.605600 Z-0.125000 I0.842672 J-0.145212
G02 X155.130321 Y144.395014 Z-0.125000 I-2.969941 J-0.210586
G02 X155.580410 Y145.866486 Z-0.125000 I18.159562 J-4.750012
G03 X155.680302 Y147.444778 Z-0.125000 I-2.750900 J0.966414
G01 X155.680302 Y147.444778 Z-0.125000
G00 Z5.000000

(End cutting path id: path14)


(Start cutting path id: path14)
(Change tool to Default tool)

G00 Z5.000000
G00 X156.643385 Y138.318064

G01 Z-0.125000 F100.0(Penetrate)
G03 X156.267218 Y135.841898 Z-0.125000 I156615.265111 J-23777.498101 F400.000000
G02 X155.889852 Y133.364005 Z-0.125000 I-3280.070150 J498.258290
G02 X155.992199 Y133.349963 Z-0.125000 I-0.454271 J-3.690949
G03 X156.095168 Y133.335078 Z-0.125000 I1.166654 J7.706681
G03 X156.522341 Y135.791211 Z-0.125000 I-121.493402 J22.395457
G03 X156.643385 Y138.318064 Z-0.125000 I-10.950525 J1.790888
G01 X156.643385 Y138.318064 Z-0.125000
G00 Z5.000000

(End cutting path id: path14)


(Start cutting path id: path14)
(Change tool to Default tool)

G00 Z5.000000
G00 X157.328479 Y133.813091

G01 Z-0.125000 F100.0(Penetrate)
G03 X157.231577 Y133.445514 Z-0.125000 I51.700108 J-13.826011 F400.000000
G03 X157.518627 Y132.911744 Z-0.125000 I0.431377 J-0.112085
G02 X157.596238 Y132.763446 Z-0.125000 I-0.040218 J-0.115506
G02 X157.510160 Y132.534272 Z-0.125000 I-1.343771 J0.373970
G03 X156.891744 Y130.786780 Z-0.125000 I7.129317 J-3.506148
G02 X156.380213 Y129.010728 Z-0.125000 I-15.758651 J3.577052
G03 X155.694529 Y125.161643 Z-0.125000 I11.542308 J-4.041788
G03 X156.402438 Y121.272900 Z-0.125000 I10.155751 J-0.160046
G02 X156.534170 Y120.815871 Z-0.125000 I-2.426264 J-0.946835
G03 X156.702652 Y120.395189 Z-0.125000 I1.167749 J0.223601
G02 X157.210475 Y118.476904 Z-0.125000 I-2.684601 J-1.737048
G03 X157.158793 Y116.617997 Z-0.125000 I32.109217 J-1.822872
G02 X156.780798 Y115.765454 Z-0.125000 I-1.144703 J-0.002537
G03 X156.155846 Y114.851286 Z-0.125000 I1.578066 J-1.749514
G02 X155.751821 Y114.126621 Z-0.125000 I-2.638203 J0.995926
G02 X155.206168 Y113.463458 Z-0.125000 I-10.555354 J8.128914
G03 X154.721782 Y112.647271 Z-0.125000 I1.946775 J-1.707190
G03 X154.886552 Y111.609964 Z-0.125000 I1.012189 J-0.370960
G02 X154.949504 Y111.319430 Z-0.125000 I-0.265283 J-0.209568
G02 X154.854802 Y111.051869 Z-0.125000 I-1.403248 J0.346137
G02 X153.543031 Y108.291589 Z-0.125000 I-1306.881516 J619.378680
G03 X152.244952 Y105.524547 Z-0.125000 I227.951080 J-108.624798
G03 X152.207843 Y105.171577 Z-0.125000 I0.497643 J-0.230754
G02 X151.965199 Y104.596036 Z-0.125000 I-0.521304 J-0.119142
G02 X150.968840 Y104.247575 Z-0.125000 I-1.315602 J2.163039
G02 X150.037268 Y104.179758 Z-0.125000 I-1.095871 J8.621252
G03 X147.672398 Y103.509822 Z-0.125000 I0.096182 J-4.848481
G03 X146.043471 Y101.624941 Z-0.125000 I1.974786 J-3.352929
G02 X145.670703 Y101.111195 Z-0.125000 I-1.243829 J0.510395
G02 X145.147768 Y100.784272 Z-0.125000 I-1.372489 J1.613690
G02 X145.002037 Y100.835830 Z-0.125000 I-0.044760 J0.105219
G02 X144.964676 Y100.935966 Z-0.125000 I0.360203 J0.191428
G02 X144.905398 Y100.995295 Z-0.125000 I70.530028 J70.530028
G02 X144.847554 Y101.054500 Z-0.125000 I2.714854 J2.710293
G03 X144.506340 Y100.937791 Z-0.125000 I0.086129 J-0.808957
G03 X144.205499 Y100.705602 Z-0.125000 I0.959223 J-1.553835
G02 X142.132685 Y99.862727 Z-0.125000 I-2.103757 J2.203408
G02 X140.166193 Y100.718302 Z-0.125000 I-0.026678 J2.626406
G03 X139.129419 Y101.404436 Z-0.125000 I-1.874549 J-1.706145
G03 X138.135251 Y101.620708 Z-0.125000 I-1.374323 J-3.924398
G02 X136.709261 Y101.750524 Z-0.125000 I93.562660 J1035.654974
G03 X135.175093 Y101.638700 Z-0.125000 I-0.429709 J-4.684504
G02 X133.462799 Y101.431774 Z-0.125000 I-1.741540 J7.223107
G02 X131.734099 Y102.170688 Z-0.125000 I-0.009328 J2.369794
G02 X130.864959 Y103.189391 Z-0.125000 I9.422801 J8.919491
G02 X130.242907 Y104.374139 Z-0.125000 I3.114695 J2.391050
G03 X129.519614 Y106.327773 Z-0.125000 I-23.110002 J-7.445297
G03 X128.523115 Y108.002458 Z-0.125000 I-6.471864 J-2.717175
G02 X128.363921 Y108.945841 Z-0.125000 I0.761966 J0.613704
G03 X128.539696 Y109.441086 Z-0.125000 I-93.859356 J33.591846
G02 X129.443508 Y111.036614 Z-0.125000 I4.946546 J-1.748297
G03 X130.464804 Y112.580102 Z-0.125000 I-6.707167 J5.547630
G02 X131.067595 Y113.083999 Z-0.125000 I0.903138 J-0.467891
G02 X132.039957 Y113.080341 Z-0.125000 I0.480341 J-1.554166
G03 X132.720307 Y113.320136 Z-0.125000 I0.181772 J0.569322
G03 X132.846054 Y113.810944 Z-0.125000 I-0.646141 J0.427057
G02 X132.881188 Y115.622931 Z-0.125000 I9.197365 J0.728003
G02 X133.158968 Y117.389522 Z-0.125000 I23.249760 J-2.750681
G02 X133.680139 Y118.350967 Z-0.125000 I1.795192 J-0.351142
G02 X134.477651 Y119.104022 Z-0.125000 I27.770329 J-28.610969
G03 X135.094987 Y120.364838 Z-0.125000 I-1.295984 J1.416097
G03 X134.892518 Y121.739978 Z-0.125000 I-3.075734 J0.249619
G03 X133.693055 Y122.660223 Z-0.125000 I-1.362641 J-0.534266
G02 X132.602285 Y122.795841 Z-0.125000 I5.115566 J45.598446
G03 X132.014920 Y122.802936 Z-0.125000 I-0.322059 J-2.345807
G03 X131.428240 Y122.689655 Z-0.125000 I0.427102 J-3.787805
G02 X130.287477 Y122.810245 Z-0.125000 I-0.417348 J1.507975
G02 X129.410704 Y123.419905 Z-0.125000 I1.949767 J3.739314
G02 X128.801870 Y124.028443 Z-0.125000 I5.797757 J6.409423
G03 X128.053215 Y124.538916 Z-0.125000 I-1.433212 J-1.297710
G02 X127.808900 Y124.863171 Z-0.125000 I0.136252 J0.356830
G02 X127.797099 Y125.285747 Z-0.125000 I3.666626 J0.313854
G02 X128.011309 Y126.287178 Z-0.125000 I2.867504 J-0.089745
G02 X128.408815 Y127.205564 Z-0.125000 I25.266912 J-10.391102
G03 X129.148289 Y129.803745 Z-0.125000 I-8.295726 J3.765387
G03 X129.430107 Y132.462658 Z-0.125000 I-57.961879 J7.487762
G02 X129.848889 Y133.630950 Z-0.125000 I2.389423 J-0.197301
G02 X130.668710 Y134.595905 Z-0.125000 I5.303952 J-3.675474
G03 X130.823590 Y134.801034 Z-0.125000 I-0.594833 J0.610159
G03 X130.711749 Y135.136008 Z-0.125000 I-0.212964 J0.115053
G02 X130.587481 Y135.290729 Z-0.125000 I0.091301 J0.200595
G02 X130.540651 Y135.597794 Z-0.125000 I2.605533 J0.554465
G03 X129.588197 Y137.307070 Z-0.125000 I-2.376931 J-0.204485
G03 X128.064504 Y138.254564 Z-0.125000 I-6.419464 J-8.624442
G02 X125.509848 Y140.247861 Z-0.125000 I3.922380 J7.660714
G02 X124.351871 Y143.714153 Z-0.125000 I3.561561 J3.116371
G03 X124.421039 Y146.877201 Z-0.125000 I-30.658410 J2.252707
G02 X124.390676 Y150.054628 Z-0.125000 I79.164006 J2.345331
G03 X124.068064 Y150.745443 Z-0.125000 I-0.882334 J0.008686
G03 X123.449465 Y150.971144 Z-0.125000 I-0.631089 J-0.769104
G03 X121.718862 Y150.969490 Z-0.125000 I-0.815277 J-52.337572
G02 X119.986246 Y151.039936 Z-0.125000 I-0.260994 J14.922926
G03 X119.508478 Y150.785684 Z-0.125000 I-0.047263 J-0.487202
G03 X119.429562 Y150.381300 Z-0.125000 I0.606695 J-0.328288
G02 X119.485875 Y148.101019 Z-0.125000 I-13.154292 J-1.465685
G02 X119.257407 Y145.880561 Z-0.125000 I-27.212848 J1.678007
G02 X118.896977 Y143.874877 Z-0.125000 I-30.196419 J4.391192
G02 X118.283035 Y141.880061 Z-0.125000 I-11.694455 J2.507307
G03 X118.066567 Y141.241384 Z-0.125000 I5.494195 J-2.218182
G03 X117.894626 Y140.587483 Z-0.125000 I25.620657 J-7.086387
G03 X117.832847 Y140.274329 Z-0.125000 I2.952774 J-0.745197
G03 X117.879457 Y140.008575 Z-0.125000 I0.429752 J-0.061592
G02 X118.321401 Y137.905816 Z-0.125000 I-3.507206 J-1.834944
G02 X118.039265 Y135.863436 Z-0.125000 I-14.798102 J1.003545
G03 X118.099174 Y134.736422 Z-0.125000 I2.133741 J-0.451675
G03 X118.557143 Y133.873769 Z-0.125000 I2.693921 J0.877269
G02 X119.760300 Y132.009868 Z-0.125000 I-9.946276 J-7.740641
G03 X121.094321 Y130.223225 Z-0.125000 I6.336595 J3.339948
G02 X121.236151 Y130.019517 Z-0.125000 I-0.441262 J-0.458455
G02 X121.303871 Y129.771316 Z-0.125000 I-0.812812 J-0.355108
G03 X121.991067 Y126.983636 Z-0.125000 I11.999294 J1.479426
G02 X122.647249 Y124.197075 Z-0.125000 I-10.375249 J-3.913712
G02 X122.495034 Y122.447304 Z-0.125000 I-4.657061 J-0.476384
G02 X121.885249 Y120.796297 Z-0.125000 I-10.823814 J3.059572
G03 X121.545074 Y119.703587 Z-0.125000 I3.963384 J-1.833156
G03 X121.668996 Y118.372008 Z-0.125000 I2.533046 J-0.435822
G03 X122.655133 Y116.038095 Z-0.125000 I27.158775 J10.099971
G02 X123.566587 Y113.675830 Z-0.125000 I-15.207144 J-7.224487
G03 X123.646122 Y113.460016 Z-0.125000 I1.514319 J0.435517
G02 X123.662896 Y113.269430 Z-0.125000 I-0.262418 J-0.119126
G03 X123.351007 Y111.097114 Z-0.125000 I9.164162 J-2.424286
G02 X123.033187 Y108.873466 Z-0.125000 I-9.752158 J0.259311
G02 X121.694229 Y105.298896 Z-0.125000 I-18.209799 J4.782945
G03 X120.139351 Y101.878588 Z-0.125000 I50.602159 J-25.067414
G03 X120.235426 Y101.347828 Z-0.125000 I0.460089 J-0.190794
G03 X120.526349 Y101.079194 Z-0.125000 I1.958276 J1.828908
G02 X120.942907 Y100.136502 Z-0.125000 I-0.694521 J-0.870277
G02 X120.394057 Y99.180191 Z-0.125000 I-1.249446 J0.081433
G03 X120.995246 Y99.040819 Z-0.125000 I0.766820 J1.941404
G03 X121.810812 Y99.279322 Z-0.125000 I0.094710 J1.189815
G02 X123.118022 Y99.754505 Z-0.125000 I1.429493 J-1.896845
G02 X124.663374 Y99.745341 Z-0.125000 I0.692990 J-13.442393
G02 X125.407613 Y99.363958 Z-0.125000 I-0.066151 J-1.045941
G02 X125.943604 Y98.609750 Z-0.125000 I-5.188975 J-4.255200
G03 X126.387408 Y97.933910 Z-0.125000 I11.151942 J6.839513
G02 X126.773337 Y97.235680 Z-0.125000 I-3.056610 J-2.145238
G03 X127.590608 Y96.434404 Z-0.125000 I1.364578 J0.574387
G03 X128.612721 Y96.410533 Z-0.125000 I0.543224 J1.365399
G02 X131.106576 Y96.135686 Z-0.125000 I0.957120 J-2.767033
G03 X133.026676 Y95.036463 Z-0.125000 I17.807293 J28.878813
G02 X133.636746 Y94.370120 Z-0.125000 I-0.631833 J-1.190919
G03 X134.116760 Y93.380172 Z-0.125000 I9.783119 J4.132364
G02 X135.035648 Y91.476406 Z-0.125000 I-16.735652 J-9.251415
G02 X135.760704 Y89.493972 Z-0.125000 I-22.275772 J-9.270962
G03 X136.773717 Y87.305789 Z-0.125000 I9.172919 J2.918000
G03 X138.271424 Y85.435616 Z-0.125000 I8.766573 J5.485813
G02 X139.056598 Y84.365198 Z-0.125000 I-2.941042 J-2.980497
G02 X139.639849 Y83.218408 Z-0.125000 I-179.918879 J-92.227368
G02 X140.842980 Y80.744903 Z-0.125000 I-83.858907 J-42.318947
G02 X141.891629 Y78.210727 Z-0.125000 I-27.168059 J-12.726280
G03 X142.370727 Y77.044609 Z-0.125000 I13.472088 J4.853514
G03 X143.025810 Y76.052891 Z-0.125000 I3.610648 J1.672808
G02 X143.875954 Y74.247800 Z-0.125000 I-2.568305 J-2.312338
G02 X143.920101 Y72.410461 Z-0.125000 I-7.391609 J-1.096803
G03 X144.202809 Y69.985188 Z-0.125000 I5.702751 J-0.564359
G03 X145.196099 Y67.884957 Z-0.125000 I9.914827 J3.404148
G02 X145.886515 Y66.132029 Z-0.125000 I-4.544250 J-2.802248
G03 X146.364851 Y64.377993 Z-0.125000 I13.041368 J2.614221
G03 X147.026901 Y62.504629 Z-0.125000 I188.257077 J65.476646
G03 X148.114982 Y60.774439 Z-0.125000 I4.473526 J1.606077
G02 X148.456907 Y60.203203 Z-0.125000 I-1.007529 J-0.991029
G02 X148.491043 Y59.415539 Z-0.125000 I-1.473681 J-0.458439
G03 X148.430502 Y57.865580 Z-0.125000 I4.327517 J-0.945193
G03 X148.803957 Y56.342385 Z-0.125000 I7.520454 J1.036475
G02 X148.884406 Y55.648616 Z-0.125000 I-1.450277 J-0.519722
G02 X148.300896 Y54.967364 Z-0.125000 I-0.794970 J0.090390
G03 X147.857273 Y54.706317 Z-0.125000 I0.257260 J-0.944657
G02 X147.436943 Y54.307281 Z-0.125000 I-5.395621 J5.262653
G02 X146.758798 Y53.907652 Z-0.125000 I-1.373545 J1.555618
G02 X145.867082 Y54.024671 Z-0.125000 I-0.331296 J0.931501
G03 X145.519060 Y54.031620 Z-0.125000 I-0.179313 J-0.262078
G03 X145.332624 Y53.663744 Z-0.125000 I0.212514 J-0.338880
G02 X145.376070 Y52.877336 Z-0.125000 I-26.732477 J-1.871273
G03 X145.521360 Y52.087286 Z-0.125000 I2.848205 J0.115399
G02 X145.506410 Y51.422995 Z-0.125000 I-0.924351 J-0.311512
G02 X144.955151 Y50.924072 Z-0.125000 I-0.772699 J0.299749
G03 X144.649326 Y50.777051 Z-0.125000 I0.262274 J-0.937163
G03 X144.424574 Y50.532841 Z-0.125000 I0.479308 J-0.666646
G02 X143.965521 Y50.130558 Z-0.125000 I-0.865476 J0.524553
G02 X143.371532 Y50.013199 Z-0.125000 I-0.561651 J1.280827
G03 X142.722454 Y49.830648 Z-0.125000 I-0.027661 J-1.146852
G03 X142.291326 Y49.123247 Z-0.125000 I0.514766 J-0.798803
G02 X141.772715 Y48.348251 Z-0.125000 I-0.980671 J0.095225
G03 X140.994515 Y47.907539 Z-0.125000 I7.717933 J-14.535587
G02 X140.002859 Y47.600820 Z-0.125000 I-1.111571 J1.837404
G03 X138.961810 Y47.472212 Z-0.125000 I0.437142 J-7.816317
G02 X138.383413 Y47.674851 Z-0.125000 I-0.115062 J0.598359
G02 X138.041413 Y48.203837 Z-0.125000 I1.807031 J1.543329
G03 X137.850666 Y48.458034 Z-0.125000 I-0.704124 J-0.329702
G03 X137.528826 Y48.556615 Z-0.125000 I-0.270124 J-0.307230
G03 X137.294319 Y48.364486 Z-0.125000 I0.037113 J-0.284481
G02 X137.200743 Y48.117019 Z-0.125000 I-3.708684 J1.260954
G02 X137.005237 Y47.729618 Z-0.125000 I-2.854868 J1.197709
G03 X136.887829 Y47.350821 Z-0.125000 I0.725598 J-0.432492
G02 X136.115101 Y45.937685 Z-0.125000 I-1.892923 J0.117246
G02 X134.629346 Y45.482199 Z-0.125000 I-1.398371 J1.910420
G03 X133.345506 Y45.433039 Z-0.125000 I-0.314209 J-8.583003
G02 X132.026199 Y45.533324 Z-0.125000 I-0.397523 J3.498649
G02 X130.892590 Y46.269989 Z-0.125000 I0.570711 J2.118783
G02 X130.453868 Y47.532854 Z-0.125000 I1.526572 J1.237974
G03 X130.404727 Y49.556273 Z-0.125000 I-27.704761 J0.339457
G03 X130.128607 Y51.555226 Z-0.125000 I-13.186502 J-0.802931
G02 X130.034710 Y52.137806 Z-0.125000 I5.211668 J1.138844
G03 X129.642126 Y52.531010 Z-0.125000 I-0.439340 J-0.046063
G03 X128.888146 Y52.202537 Z-0.125000 I-0.087377 J-0.829017
G03 X128.571446 Y51.599323 Z-0.125000 I1.703418 J-1.279075
G02 X128.218474 Y50.554696 Z-0.125000 I-191.423221 J64.098523
G03 X128.169279 Y49.330927 Z-0.125000 I2.037893 J-0.694796
G02 X128.048841 Y47.760622 Z-0.125000 I-2.394708 J-0.606104
G03 X127.717018 Y46.278704 Z-0.125000 I3.889654 J-1.649060
G02 X126.818684 Y44.577925 Z-0.125000 I-2.223860 J0.086985
G02 X125.247574 Y43.964842 Z-0.125000 I-1.910868 J2.577226
G02 X122.496842 Y44.113337 Z-0.125000 I-0.915225 J8.597951
G02 X119.838785 Y44.738194 Z-0.125000 I17.071070 J78.583871
G03 X118.742087 Y46.070984 Z-0.125000 I-2.751456 J-1.146451
G02 X117.755279 Y47.597483 Z-0.125000 I1.270504 J1.903531
G02 X117.644597 Y49.037208 Z-0.125000 I8.159595 J1.351405
G03 X117.644860 Y50.469447 Z-0.125000 I-68.229118 J0.728636
G03 X117.483096 Y52.658522 Z-0.125000 I-17.760120 J-0.211884
G03 X116.805954 Y54.743985 Z-0.125000 I-6.122545 J-0.835304
G02 X115.593002 Y58.077749 Z-0.125000 I10.868080 J5.841767
G03 X114.787007 Y61.479994 Z-0.125000 I-61.311775 J-12.728230
G02 X114.675127 Y62.851952 Z-0.125000 I3.758827 J0.997063
G02 X114.993735 Y64.218149 Z-0.125000 I5.282241 J-0.511609
G03 X115.408366 Y66.576914 Z-0.125000 I-5.952537 J2.262183
G03 X115.200462 Y68.964104 Z-0.125000 I-16.721384 J-0.253643
G03 X114.556207 Y70.419015 Z-0.125000 I-3.076952 J-0.492420
G03 X113.428107 Y71.487171 Z-0.125000 I-4.419480 J-3.537717
G03 X111.202631 Y72.747243 Z-0.125000 I-7.138264 J-10.011941
G03 X108.861398 Y73.614844 Z-0.125000 I-8.890896 J-20.399477
G03 X107.739220 Y73.648498 Z-0.125000 I-0.622266 J-2.023072
G03 X106.624787 Y73.340630 Z-0.125000 I4.391679 J-18.068125
G02 X106.051356 Y73.253454 Z-0.125000 I-0.573616 J1.843593
G02 X105.482493 Y73.360033 Z-0.125000 I-0.000151 J1.570631
G03 X104.491663 Y73.728808 Z-0.125000 I-11.564492 J-29.556179
G03 X103.481537 Y74.035285 Z-0.125000 I-3.902851 J-11.045620
G02 X100.863749 Y75.099060 Z-0.125000 I2.580862 J10.103981
G03 X98.442107 Y76.464901 Z-0.125000 I-83.097579 J-144.502739
G03 X96.840612 Y76.880120 Z-0.125000 I-1.607009 J-2.902128
G03 X95.364826 Y76.711422 Z-0.125000 I-0.010714 J-6.445760
G03 X93.958882 Y76.288952 Z-0.125000 I2.607325 J-11.227632
G02 X92.582821 Y76.051480 Z-0.125000 I-1.323424 J3.563134
G03 X91.373353 Y75.842291 Z-0.125000 I-0.042330 J-3.356241
G03 X90.343387 Y75.413199 Z-0.125000 I4.900239 J-13.212919
G03 X90.225138 Y75.571898 Z-0.125000 I-1.363568 J-0.892619
G01 X90.222032 Y75.604864 Z-0.125000
G03 X91.182906 Y77.799345 Z-0.125000 I-10.292303 J5.814186
G02 X92.189826 Y79.995077 Z-0.125000 I9.704537 J-3.121569
G03 X92.494914 Y80.546425 Z-0.125000 I-6.317088 J3.855644
G03 X92.488982 Y81.461574 Z-0.125000 I-0.905308 J0.451725
G03 X92.155834 Y81.725416 Z-0.125000 I-0.458488 J-0.236675
G03 X91.769668 Y81.636552 Z-0.125000 I-0.105949 J-0.423082
G03 X90.730548 Y80.651961 Z-0.125000 I7.480619 J-8.935542
G02 X89.618429 Y79.733316 Z-0.125000 I-4.082974 J3.810389
G03 X89.262304 Y79.481234 Z-0.125000 I2.084238 J-3.322060
G02 X88.875832 Y79.430280 Z-0.125000 I-0.235686 J0.296493
G02 X88.706464 Y79.804087 Z-0.125000 I0.122784 J0.280905
G03 X88.762590 Y80.186636 Z-0.125000 I-1.140793 J0.362765
G02 X88.722637 Y83.314270 Z-0.125000 I528.086829 J8.309996
G02 X88.698032 Y86.441738 Z-0.125000 I803.898952 J7.888437
G03 X88.546290 Y87.104730 Z-0.125000 I-1.561712 J-0.008575
G03 X88.105365 Y87.669405 Z-0.125000 I-1.492323 J-0.710790
G02 X86.452452 Y89.163220 Z-0.125000 I16.013656 J19.380568
G02 X84.983987 Y90.855341 Z-0.125000 I10.254842 J10.382652
G02 X84.649472 Y91.315302 Z-0.125000 I35.808679 J26.394191
G02 X84.487982 Y91.817366 Z-0.125000 I0.699701 J0.502064
G03 X84.054525 Y94.076517 Z-0.125000 I-6.161754 J-0.011080
G02 X83.303001 Y96.195338 Z-0.125000 I28.650466 J11.354709
G02 X82.217711 Y100.400276 Z-0.125000 I40.417414 J12.674217
G02 X81.373659 Y104.648247 Z-0.125000 I411.108852 J83.893223
G02 X80.847009 Y107.819649 Z-0.125000 I58.750511 J11.385682
G03 X80.367890 Y111.001069 Z-0.125000 I-135.284747 J-18.746962
G03 X80.295568 Y111.413870 Z-0.125000 I-18.182297 J-2.972771
G02 X80.263115 Y111.831861 Z-0.125000 I1.923569 J0.359602
G03 X79.885265 Y112.880908 Z-0.125000 I-1.526166 J0.042870
G03 X78.883754 Y113.408425 Z-0.125000 I-1.187949 J-1.040905
G03 X78.300431 Y113.343750 Z-0.125000 I-0.152294 J-1.289345
G03 X77.939721 Y112.989677 Z-0.125000 I0.197952 J-0.562436
G02 X77.280124 Y112.076802 Z-0.125000 I-1.981814 J0.737224
G03 X76.477457 Y111.402177 Z-0.125000 I14.005336 J-17.478346
G03 X74.616050 Y109.750036 Z-0.125000 I224.259177 J-254.539201
G03 X72.882298 Y107.950247 Z-0.125000 I11.188659 J-12.513090
G02 X72.023235 Y107.093944 Z-0.125000 I-4.990651 J4.147673
G02 X70.960012 Y106.459055 Z-0.125000 I-2.605591 J3.155764
G02 X70.832150 Y106.418252 Z-0.125000 I-0.336579 J0.833967
G03 X70.726826 Y106.361336 Z-0.125000 I0.053792 J-0.225453
G02 X68.181025 Y104.574138 Z-0.125000 I-7.389465 J7.819233
G03 X65.699743 Y102.697033 Z-0.125000 I3.898386 J-7.731662
G02 X64.418587 Y101.616516 Z-0.125000 I-4.846147 J4.446233
G03 X63.161507 Y100.512633 Z-0.125000 I3.080681 J-4.775930
G03 X62.814364 Y99.170897 Z-0.125000 I1.219485 J-1.031288
G03 X63.707254 Y98.294013 Z-0.125000 I1.088948 J0.215789
G02 X66.403332 Y96.849493 Z-0.125000 I-0.865541 J-4.853725
G03 X68.570295 Y94.941213 Z-0.125000 I12.248175 J11.724026
G02 X68.883003 Y94.404123 Z-0.125000 I-0.464365 J-0.629943
G02 X68.898379 Y93.757644 Z-0.125000 I-3.379341 J-0.403798
G02 X68.310068 Y90.016426 Z-0.125000 I-22.498758 J1.621090
G02 X66.645187 Y86.524288 Z-0.125000 I-9.236244 J2.260455
G03 X64.635719 Y83.699999 Z-0.125000 I44.102313 J-33.505589
G02 X62.581540 Y80.903480 Z-0.125000 I-31.117157 J20.704358
G03 X62.208805 Y80.187363 Z-0.125000 I1.586803 J-1.280983
G03 X62.244990 Y79.206972 Z-0.125000 I1.509545 J-0.435149
G02 X62.287006 Y78.437132 Z-0.125000 I-1.221984 J-0.452760
G03 X62.170554 Y77.487286 Z-0.125000 I3.758648 J-0.942876
G02 X62.160534 Y75.244443 Z-0.125000 I-122.646295 J-0.573516
G03 X62.449248 Y72.976951 Z-0.125000 I8.174607 J-0.111273
G02 X62.497500 Y71.303882 Z-0.125000 I-3.442344 J-0.936508
G02 X61.729582 Y69.737040 Z-0.125000 I-3.481288 J0.734598
G03 X60.505553 Y67.854553 Z-0.125000 I6.832324 J-5.781695
G02 X59.045295 Y66.081239 Z-0.125000 I-4.382971 J2.121322
G03 X58.504362 Y65.614071 Z-0.125000 I3.206502 J-4.259561
G03 X58.062809 Y64.937463 Z-0.125000 I1.342192 J-1.358294
G03 X57.879957 Y64.385867 Z-0.125000 I6.443295 J-2.442034
G03 X57.970382 Y63.754987 Z-0.125000 I0.751044 J-0.214273
G02 X58.012704 Y62.981768 Z-0.125000 I-0.675511 J-0.424742
G02 X57.613723 Y62.387974 Z-0.125000 I-2.311167 J1.121972
G03 X56.832777 Y61.443407 Z-0.125000 I10.997534 J-9.887633
G03 X56.188501 Y60.406491 Z-0.125000 I5.209881 J-3.955716
G02 X55.849261 Y60.036079 Z-0.125000 I-0.809526 J0.400847
G02 X55.397573 Y59.863531 Z-0.125000 I-0.692875 J1.136300
G02 X53.935189 Y59.702628 Z-0.125000 I-1.837742 J9.976525
G03 X52.570059 Y59.476181 Z-0.125000 I0.201538 J-5.443019
G02 X50.888982 Y59.673719 Z-0.125000 I-0.612180 J2.042138
G03 X49.564393 Y60.181737 Z-0.125000 I-2.246726 J-3.877184
G02 X49.120899 Y60.483431 Z-0.125000 I0.144551 J0.689309
G03 X48.780168 Y60.964586 Z-0.125000 I-7.372624 J-4.859723
G02 X48.064312 Y62.740208 Z-0.125000 I2.895008 J2.199258
G02 X48.322968 Y64.647939 Z-0.125000 I3.840962 J0.450631
G03 X48.405094 Y65.342883 Z-0.125000 I-1.222247 J0.496767
G02 X48.836965 Y66.177583 Z-0.125000 I0.790454 J0.120096
G03 X48.884758 Y66.355070 Z-0.125000 I-0.056178 J0.110306
G03 X48.694795 Y66.599399 Z-0.125000 I-1.492456 J-0.964351
G03 X48.197158 Y66.863879 Z-0.125000 I-0.626344 J-0.578100
G03 X47.739826 Y66.698601 Z-0.125000 I-0.076809 J-0.502832
G02 X47.398599 Y66.441689 Z-0.125000 I-0.808911 J0.719323
G03 X47.112940 Y65.755908 Z-0.125000 I0.240829 J-0.502702
G02 X47.299181 Y64.323439 Z-0.125000 I-3.338309 J-1.162368
G02 X47.060376 Y62.849760 Z-0.125000 I-8.853390 J0.678472
G02 X46.422309 Y61.939128 Z-0.125000 I-1.503423 J0.374569
G02 X45.474287 Y61.530688 Z-0.125000 I-1.560491 J2.317592
G02 X43.437191 Y61.518573 Z-0.125000 I-1.046558 J4.703697
G02 X41.544378 Y62.240512 Z-0.125000 I1.328790 J6.326183
G02 X41.306882 Y62.445266 Z-0.125000 I0.424254 J0.732209
G02 X41.208145 Y62.706567 Z-0.125000 I0.356170 J0.283890
G03 X40.986078 Y63.305688 Z-0.125000 I-1.052229 J-0.049299
G03 X40.408751 Y63.757880 Z-0.125000 I-1.199711 J-0.937065
G03 X40.076951 Y63.791474 Z-0.125000 I-0.216234 J-0.480337
G03 X39.849281 Y63.530233 Z-0.125000 I0.064277 J-0.285845
G02 X39.644688 Y63.387901 Z-0.125000 I-0.161391 J0.013779
G02 X39.397266 Y63.622696 Z-0.125000 I0.096788 J0.349755
G03 X39.102160 Y63.966532 Z-0.125000 I-0.572740 J-0.193010
G03 X38.683315 Y64.069312 Z-0.125000 I-0.422517 J-0.817000
G02 X37.504559 Y64.383322 Z-0.125000 I0.003785 J2.383672
G02 X36.577937 Y65.171743 Z-0.125000 I1.632877 J2.857835
G03 X36.402462 Y65.316713 Z-0.125000 I-0.451296 J-0.367575
G03 X35.968725 Y65.185537 Z-0.125000 I-0.151540 J-0.281599
G02 X35.583890 Y65.008950 Z-0.125000 I-0.308505 J0.164695
G02 X35.135147 Y65.189805 Z-0.125000 I0.325211 J1.454063
G03 X34.225147 Y65.731630 Z-0.125000 I-25.721640 J-42.164674
G02 X33.350444 Y66.316895 Z-0.125000 I4.174348 J7.185007
G03 X32.884748 Y66.631302 Z-0.125000 I-2.988350 J-3.924217
G02 X32.639527 Y67.412305 Z-0.125000 I0.314000 J0.527590
G03 X32.604637 Y67.529484 Z-0.125000 I-0.085961 J0.038189
G02 X32.242652 Y67.813308 Z-0.125000 I1.374261 J2.125465
G02 X31.489887 Y69.179595 Z-0.125000 I1.732458 J1.845022
G02 X31.648574 Y70.704427 Z-0.125000 I2.597475 J0.500359
G02 X32.966663 Y73.225770 Z-0.125000 I15.703040 J-6.603921
G03 X34.177250 Y75.837626 Z-0.125000 I-9.284975 J5.890034
G03 X34.341919 Y76.822919 Z-0.125000 I-3.507730 J1.092646
G02 X34.560366 Y77.802563 Z-0.125000 I2.653773 J-0.077576
G02 X35.673311 Y80.313974 Z-0.125000 I141.977195 J-61.415609
G02 X37.018909 Y82.726636 Z-0.125000 I15.221472 J-6.907809
G03 X37.255086 Y83.404270 Z-0.125000 I-1.177194 J0.790264
G02 X37.346604 Y84.195602 Z-0.125000 I11.149724 J-0.888514
G03 X37.555911 Y85.824784 Z-0.125000 I-34.554294 J5.267341
G02 X37.902229 Y87.440805 Z-0.125000 I7.707491 J-0.806622
G03 X37.870529 Y88.009900 Z-0.125000 I-0.742532 J0.244069
G03 X37.589280 Y88.446575 Z-0.125000 I-1.653498 J-0.756058
G03 X36.442223 Y89.399109 Z-0.125000 I-3.493442 J-3.039938
G03 X35.001338 Y89.857686 Z-0.125000 I-1.730584 J-2.944662
G03 X34.800459 Y89.849568 Z-0.125000 I-0.067820 J-0.811297
G02 X34.610108 Y89.924008 Z-0.125000 I-0.032653 J0.197099
G03 X33.328183 Y91.495633 Z-0.125000 I-35.466201 J-27.620034
G02 X32.658541 Y93.611594 Z-0.125000 I2.165561 J1.849281
G03 X32.679715 Y94.546664 Z-0.125000 I-6.447899 J0.613780
G03 X32.352753 Y95.481669 Z-0.125000 I-1.748761 J-0.086853
G02 X32.327754 Y96.022401 Z-0.125000 I0.402518 J0.289553
G03 X32.574615 Y96.514955 Z-0.125000 I-3.568826 J2.096785
G03 X32.124524 Y96.233755 Z-0.125000 I0.243221 J-0.890111
G03 X31.373090 Y95.146883 Z-0.125000 I4.297745 J-3.774546
G03 X31.240507 Y95.846876 Z-0.125000 I-690.003391 J-130.328939
G02 X31.131790 Y96.422880 Z-0.125000 I250.988961 J47.670861
G03 X31.115499 Y97.264272 Z-0.125000 I-6.521568 J0.294587
G03 X30.823109 Y98.092930 Z-0.125000 I-1.733361 J-0.145699
G02 X30.768890 Y97.274101 Z-0.125000 I-2.877633 J-0.220667
G03 X30.835386 Y96.441930 Z-0.125000 I1.435213 J-0.304061
G02 X30.944508 Y95.864200 Z-0.125000 I-4.574387 J-1.163189
G02 X30.874227 Y95.255538 Z-0.125000 I-1.282419 J-0.160308
G02 X30.566015 Y96.241188 Z-0.125000 I2.759975 J1.404055
G02 X30.504939 Y97.249438 Z-0.125000 I6.675817 J0.910373
G03 X30.339555 Y97.699669 Z-0.125000 I-0.669746 J0.009472
G03 X29.759413 Y97.778605 Z-0.125000 I-0.335311 J-0.293026
G02 X29.607522 Y97.710253 Z-0.125000 I-0.293361 J0.448962
G03 X29.443713 Y97.660425 Z-0.125000 I0.796677 J-2.913222
G02 X28.608742 Y97.828963 Z-0.125000 I-0.270158 J0.814155
G02 X28.327488 Y98.635855 Z-0.125000 I0.569495 J0.650969
G03 X28.131989 Y99.555896 Z-0.125000 I-1.210648 J0.223540
G03 X27.332690 Y100.085772 Z-0.125000 I-1.055254 J-0.724017
G03 X27.120934 Y100.114984 Z-0.125000 I-0.349758 J-1.753273
G02 X26.917753 Y100.158797 Z-0.125000 I0.059551 J0.769189
G03 X26.629320 Y100.225252 Z-0.125000 I-0.419198 J-1.160273
G02 X26.388586 Y100.467477 Z-0.125000 I0.028702 J0.269263
G02 X26.528116 Y100.727688 Z-0.125000 I0.261852 J0.027105
G03 X26.768916 Y100.871055 Z-0.125000 I-1.211680 J2.309059
G02 X27.750495 Y101.520697 Z-0.125000 I179.503078 J-270.154233
G02 X28.973777 Y102.326264 Z-0.125000 I826.090502 J-1253.118203
G02 X27.935768 Y102.986913 Z-0.125000 I0.417569 J1.801866
G02 X27.462230 Y103.928933 Z-0.125000 I2.097165 J1.644238
G02 X27.537104 Y104.454364 Z-0.125000 I0.642092 J0.176553
G02 X27.806471 Y104.672941 Z-0.125000 I0.445924 J-0.274274
G03 X29.635110 Y105.670579 Z-0.125000 I-2.204482 J6.215488
G02 X31.288740 Y106.884858 Z-0.125000 I25.460629 J-32.939690
G03 X31.491100 Y107.036223 Z-0.125000 I-1.999901 J2.884613
G03 X31.578406 Y107.383686 Z-0.125000 I-0.186596 J0.231586
G02 X31.448893 Y108.784399 Z-0.125000 I2.120520 J0.902413
G03 X31.728619 Y110.106777 Z-0.125000 I-69.556517 J15.404247
G02 X34.403141 Y116.399344 Z-0.125000 I16.590652 J-3.336848
G02 X38.672414 Y121.581580 Z-0.125000 I32.985306 J-22.824535
G02 X42.555984 Y125.392619 Z-0.125000 I88.535243 J-86.335975
G03 X46.316368 Y129.349747 Z-0.125000 I-32.845463 J34.977695
G02 X48.325748 Y131.015304 Z-0.125000 I5.707565 J-4.840916
G03 X50.544056 Y132.421383 Z-0.125000 I-13.498718 J23.749236
G02 X50.708943 Y132.530913 Z-0.125000 I1.741069 J-2.442118
G03 X50.924704 Y132.666564 Z-0.125000 I-8.456930 J13.690745
G01 X57.992607 Y136.270189 Z-0.125000
G03 X58.593019 Y136.645363 Z-0.125000 I-0.164958 J0.932015
G03 X58.739437 Y137.387789 Z-0.125000 I-0.727193 J0.529065
G02 X58.676363 Y137.968312 Z-0.125000 I2.187011 J0.531308
G02 X58.700984 Y138.568536 Z-0.125000 I15.700136 J-0.343405
G02 X59.046133 Y139.114253 Z-0.125000 I0.661615 J-0.036444
G02 X59.691584 Y139.112872 Z-0.125000 I0.321462 J-0.591349
G03 X59.138380 Y141.214485 Z-0.125000 I-3.201219 J0.280964
G03 X57.512829 Y142.450503 Z-0.125000 I-2.687910 J-1.848079
G02 X56.015917 Y143.186790 Z-0.125000 I2.183935 J6.329853
G02 X54.822898 Y144.393603 Z-0.125000 I2.246589 J3.414007
G02 X53.247463 Y147.021261 Z-0.125000 I41.237285 J26.510284
G02 X51.977393 Y149.852133 Z-0.125000 I15.572390 J8.686894
G03 X51.561843 Y150.836122 Z-0.125000 I-7.764062 J-2.699112
G02 X51.133901 Y151.877783 Z-0.125000 I6.735498 J3.375856
G02 X50.715141 Y153.898756 Z-0.125000 I8.880202 J2.893912
G02 X50.867906 Y155.996817 Z-0.125000 I6.326758 J0.593924
G03 X50.869550 Y156.945632 Z-0.125000 I-1.956446 J0.477798
G03 X50.279473 Y157.905344 Z-0.125000 I-1.766666 J-0.424971
G02 X48.576369 Y159.631863 Z-0.125000 I9.034515 J10.615255
G02 X47.172206 Y161.641261 Z-0.125000 I11.590212 J9.594524
G03 X46.604607 Y162.506436 Z-0.125000 I-8.259689 J-4.800007
G02 X45.941718 Y163.519450 Z-0.125000 I8.808915 J6.487717
G03 X45.623653 Y162.168445 Z-0.125000 I14.077084 J-4.027082
G03 X45.605203 Y160.870794 Z-0.125000 I3.779970 J-0.702701
G02 X45.542333 Y159.903680 Z-0.125000 I-2.197968 J-0.342715
G03 X45.268970 Y158.889242 Z-0.125000 I23.681686 J-6.925593
G02 X44.836232 Y157.253844 Z-0.125000 I-47.908543 J11.802011
G03 X44.394046 Y155.621814 Z-0.125000 I72.420158 J-20.497584
G02 X43.897887 Y154.610755 Z-0.125000 I-2.693686 J0.694608
G02 X43.127609 Y153.874505 Z-0.125000 I-2.855337 J2.216242
G03 X41.986464 Y152.988198 Z-0.125000 I9.014161 J-12.783772
G03 X40.948818 Y152.004430 Z-0.125000 I8.897710 J-10.424125
G02 X38.738498 Y150.261461 Z-0.125000 I-7.118194 J6.753853
G02 X36.225159 Y149.018519 Z-0.125000 I-10.874444 J18.826528
G03 X35.338737 Y148.473451 Z-0.125000 I1.289218 J-3.089916
G03 X34.539552 Y147.486053 Z-0.125000 I2.267789 J-2.652634
G02 X33.888395 Y146.558486 Z-0.125000 I-4.307575 J2.331604
G03 X33.200090 Y145.579994 Z-0.125000 I3.891677 J-3.468871
G03 X32.580140 Y143.722418 Z-0.125000 I4.914846 J-2.672528
G03 X32.651909 Y141.757647 Z-0.125000 I5.352884 J-0.788166
G03 X32.929808 Y142.141471 Z-0.125000 I-0.530147 J0.676355
G03 X32.952052 Y142.691803 Z-0.125000 I-0.857007 J0.310256
G02 X32.959178 Y143.573711 Z-0.125000 I1.567434 J0.428319
G02 X33.588852 Y144.244730 Z-0.125000 I0.974168 J-0.283196
G03 X33.623377 Y144.267394 Z-0.125000 I-0.038669 J0.096535
G02 X33.656232 Y144.295883 Z-0.125000 I0.230424 J-0.232554
G02 X35.350506 Y144.809954 Z-0.125000 I1.610861 J-2.260044
G02 X37.006244 Y144.170294 Z-0.125000 I-0.080300 J-2.670599
G02 X38.210154 Y142.863135 Z-0.125000 I-4.815923 J-5.643512
G02 X39.001908 Y141.207667 Z-0.125000 I-4.201402 J-3.026456
G02 X39.100189 Y140.779571 Z-0.125000 I-4.859716 J-1.341006
G03 X39.395891 Y140.317608 Z-0.125000 I0.714127 J0.131491
G02 X39.543553 Y139.950343 Z-0.125000 I-0.208855 J-0.297289
G02 X39.371231 Y139.548553 Z-0.125000 I-1.022528 J0.200699
G02 X38.326730 Y138.135147 Z-0.125000 I-40.935045 J29.158203
G02 X36.995203 Y137.216691 Z-0.125000 I-2.084433 J1.597483
G03 X35.967394 Y136.485448 Z-0.125000 I0.560828 J-1.876226
G03 X35.505845 Y135.578391 Z-0.125000 I2.694583 J-1.942073
G02 X35.150224 Y134.990313 Z-0.125000 I-1.463785 J0.483611
G03 X34.875785 Y134.335203 Z-0.125000 I0.702416 J-0.679297
G03 X34.531469 Y133.777922 Z-0.125000 I19.859898 J-12.655443
G02 X34.169136 Y133.235594 Z-0.125000 I-5.658366 J3.388196
G03 X34.183387 Y132.929246 Z-0.125000 I0.194018 J-0.144480
G03 X34.382602 Y132.814025 Z-0.125000 I0.277390 J0.249770
G02 X33.541940 Y131.872544 Z-0.125000 I-1.669745 J0.644880
G02 X32.283962 Y131.539439 Z-0.125000 I-1.364341 J2.610517
G02 X30.480365 Y131.566887 Z-0.125000 I-0.639410 J17.255155
G02 X28.714874 Y131.932080 Z-0.125000 I0.446637 J6.609359
G03 X26.360555 Y132.224526 Z-0.125000 I-1.838872 J-5.180863
G02 X24.017003 Y132.225591 Z-0.125000 I-1.166146 J12.382809
G03 X21.906922 Y132.369607 Z-0.125000 I-3.835972 J-40.673574
G02 X19.800179 Y132.538505 Z-0.125000 I1.183136 J27.981355
G02 X17.703418 Y133.338121 Z-0.125000 I0.544378 J4.576357
G02 X16.364864 Y135.362139 Z-0.125000 I1.892486 J2.706193
G03 X15.970655 Y136.313994 Z-0.125000 I-2.747521 J-0.580323
G02 X15.455368 Y137.260789 Z-0.125000 I5.743889 J3.739694
G03 X15.149728 Y137.560585 Z-0.125000 I-0.530747 J-0.235396
G03 X14.844780 Y137.575114 Z-0.125000 I-0.172342 J-0.409743
G02 X13.513891 Y137.714284 Z-0.125000 I-0.504005 J1.613432
G03 X12.340732 Y138.100047 Z-0.125000 I-1.571060 J-2.801061
G02 X12.011721 Y138.307430 Z-0.125000 I0.056859 J0.454884
G02 X11.835131 Y138.627803 Z-0.125000 I2.315319 J1.485065
G02 X11.119942 Y140.973693 Z-0.125000 I8.234076 J3.792278
G02 X11.052404 Y143.471794 Z-0.125000 I9.287534 J1.501059
G02 X11.693843 Y146.031400 Z-0.125000 I9.398142 J-0.995008
G03 X12.595808 Y148.445255 Z-0.125000 I-42.623811 J17.302311
G03 X12.724456 Y149.068432 Z-0.125000 I-2.418386 J0.824119
G03 X12.646932 Y149.683858 Z-0.125000 I-1.525893 J0.120382
G02 X12.293850 Y152.529156 Z-0.125000 I6.538151 J2.255897
G03 X12.490938 Y155.318778 Z-0.125000 I-94.213135 J8.057960
G02 X12.919341 Y156.763726 Z-0.125000 I3.267208 J-0.182692
G02 X13.719045 Y158.067975 Z-0.125000 I22.545684 J-12.926660
G02 X15.040373 Y160.053669 Z-0.125000 I126.478575 J-82.729352
G03 X16.302740 Y162.102694 Z-0.125000 I-23.251260 J15.738055
G03 X17.057785 Y163.808639 Z-0.125000 I-8.786982 J4.909146
G03 X17.580184 Y165.520406 Z-0.125000 I-30.662590 J10.293247
G02 X18.342607 Y167.843584 Z-0.125000 I23.687616 J-6.487128
G02 X19.408949 Y170.052894 Z-0.125000 I13.848242 J-5.321973
G03 X20.636518 Y172.280611 Z-0.125000 I-39.883861 J23.429836
G02 X21.894938 Y174.465086 Z-0.125000 I24.104067 J-12.431027
G02 X24.599474 Y178.040800 Z-0.125000 I24.128893 J-15.439527
G02 X28.495481 Y180.597422 Z-0.125000 I6.673914 J-5.923448
G03 X30.000327 Y181.141325 Z-0.125000 I-7.979523 J24.431121
G02 X31.488695 Y181.687506 Z-0.125000 I11.145293 J-28.070406
G03 X32.653130 Y182.602114 Z-0.125000 I-0.718068 J2.112766
G03 X33.117540 Y183.860617 Z-0.125000 I-2.673142 J1.701376
G02 X33.844249 Y186.482882 Z-0.125000 I10.406931 J-1.472243
G02 X35.482280 Y188.678150 Z-0.125000 I5.287186 J-2.236357
G03 X36.074713 Y189.504649 Z-0.125000 I-1.263650 J1.531360
G03 X36.248443 Y190.431103 Z-0.125000 I-2.494404 J0.947268
G02 X36.467124 Y192.743862 Z-0.125000 I13.326646 J-0.093377
G02 X36.964899 Y195.010511 Z-0.125000 I32.958191 J-6.049901
G02 X37.423035 Y196.207009 Z-0.125000 I5.409854 J-1.385461
G02 X38.201138 Y197.282753 Z-0.125000 I4.058062 J-2.115982
G03 X41.866291 Y201.071366 Z-0.125000 I-625.004424 J608.304432
G02 X45.891976 Y204.505172 Z-0.125000 I19.340218 J-18.597158
G02 X47.210244 Y205.351805 Z-0.125000 I12.044923 J-17.305183
G02 X48.597076 Y206.066214 Z-0.125000 I6.840140 J-11.574994
G02 X50.070125 Y206.298137 Z-0.125000 I1.165473 J-2.608486
G03 X51.579106 Y206.306103 Z-0.125000 I0.719439 J6.643889
G03 X52.036057 Y206.428580 Z-0.125000 I-0.202613 J1.669594
G03 X52.380970 Y206.725203 Z-0.125000 I-0.294914 J0.691769
G02 X53.677190 Y208.506650 Z-0.125000 I12.654955 J-7.845721
G02 X55.352065 Y210.002156 Z-0.125000 I6.188481 J-5.245087
G03 X55.704032 Y210.290032 Z-0.125000 I-1.333132 J1.989033
G03 X55.811029 Y211.283797 Z-0.125000 I-0.557339 J0.562650
G02 X55.872850 Y211.777252 Z-0.125000 I0.324436 J0.209954
G03 X56.450615 Y212.503350 Z-0.125000 I-2.089035 J2.255184
G03 X56.622263 Y212.854085 Z-0.125000 I-2.750265 J1.563341
G03 X56.322204 Y213.440328 Z-0.125000 I-0.399111 J0.165633
G02 X56.284095 Y213.604992 Z-0.125000 I0.021376 J0.091689
G03 X56.434034 Y213.852372 Z-0.125000 I-0.272497 J0.334293
G01 X56.276695 Y214.052045 Z-0.125000
G03 X56.134052 Y214.068867 Z-0.125000 I-0.091932 J-0.166353
G02 X55.955668 Y214.224553 Z-0.125000 I-0.037840 J0.136682
G01 X55.974866 Y214.257021 Z-0.125000
G02 X56.016345 Y214.282409 Z-0.125000 I0.191462 J-0.266245
G03 X57.141812 Y215.317407 Z-0.125000 I-1.376233 J2.625949
G03 X57.892065 Y216.598747 Z-0.125000 I-17.060810 J10.849789
G02 X58.106955 Y216.850179 Z-0.125000 I0.678940 J-0.362722
G02 X58.685815 Y216.793128 Z-0.125000 I0.258520 J-0.342142
G03 X59.026828 Y216.754975 Z-0.125000 I0.191580 J0.169282
G03 X59.290476 Y217.057711 Z-0.125000 I-0.514581 J0.714311
G02 X61.440502 Y219.061939 Z-0.125000 I3.976637 J-2.110590
G03 X63.898812 Y220.356536 Z-0.125000 I-8.426487 J18.982393
G02 X64.386657 Y220.515242 Z-0.125000 I0.571647 J-0.928038
G02 X65.089437 Y220.224245 Z-0.125000 I0.064625 J-0.838057
G03 X65.446140 Y220.184953 Z-0.125000 I0.199176 J0.169411
G02 X65.829565 Y220.444731 Z-0.125000 I2.732289 J-3.619937
G02 X67.245479 Y221.253835 Z-0.125000 I18.020874 J-29.892658
G02 X68.807362 Y221.792695 Z-0.125000 I2.413411 J-4.462280
G03 X68.940019 Y221.836697 Z-0.125000 I-0.116854 J0.574253
G01 X68.983751 Y221.825503 Z-0.125000
G02 X68.970860 Y221.739561 Z-0.125000 I-0.050911 J-0.036302
G02 X68.899790 Y221.705911 Z-0.125000 I-0.113929 J0.148751
G02 X68.657656 Y221.255265 Z-0.125000 I-1.206817 J0.358054
G03 X68.661312 Y220.599248 Z-0.125000 I0.388704 J-0.325853
G02 X68.733181 Y220.512330 Z-0.125000 I-8.609392 J-7.191992
G03 X68.804540 Y220.427092 Z-0.125000 I3.870181 J3.167504
G02 X69.620454 Y220.612058 Z-0.125000 I1.070137 J-2.828490
G02 X70.440370 Y220.636289 Z-0.125000 I0.631552 J-7.486171
G03 X71.766909 Y220.713141 Z-0.125000 I0.211701 J7.832923
G03 X73.046340 Y221.182036 Z-0.125000 I-0.468244 J3.257635
G03 X73.620345 Y220.323240 Z-0.125000 I1.266391 J0.225209
G03 X74.615848 Y220.191436 Z-0.125000 I0.638914 J1.000289
G02 X75.390965 Y220.261596 Z-0.125000 I0.547305 J-1.729797
G02 X76.312004 Y220.094775 Z-0.125000 I-1.103392 J-8.717979
G03 X76.013626 Y219.092145 Z-0.125000 I0.359196 J-0.652608
G02 X76.159251 Y218.424725 Z-0.125000 I-1.113005 J-0.592445
G02 X76.820168 Y218.255869 Z-0.125000 I0.157182 J-0.762646
G03 X77.449007 Y218.157320 Z-0.125000 I0.395137 J0.465778
G02 X77.887358 Y218.133153 Z-0.125000 I0.193757 J-0.473147
G02 X78.084359 Y217.673661 Z-0.125000 I-0.193320 J-0.354861
G03 X78.052681 Y217.358657 Z-0.125000 I0.964736 J-0.256114
G03 X78.562373 Y216.886614 Z-0.125000 I0.500848 J0.029601
G02 X79.201111 Y216.447152 Z-0.125000 I0.012481 J-0.665778
G02 X79.316259 Y215.408122 Z-0.125000 I-2.098915 J-0.758505
G03 X79.540680 Y214.768509 Z-0.125000 I0.752870 J-0.095020
G03 X80.190090 Y214.559339 Z-0.125000 I0.536458 J0.552847
G03 X82.062336 Y214.872594 Z-0.125000 I-7.497915 J50.564686
G02 X83.953523 Y215.106497 Z-0.125000 I2.851281 J-15.291193
G02 X87.462947 Y214.823408 Z-0.125000 I0.764386 J-12.418502
G03 X90.893015 Y214.202328 Z-0.125000 I8.877683 J39.246942
G02 X96.180948 Y213.091110 Z-0.125000 I-5.132205 J-37.559917
G02 X101.192715 Y211.083772 Z-0.125000 I-7.251574 J-25.365350
G02 X104.491819 Y209.247894 Z-0.125000 I-36.753505 J-69.928844
G02 X107.509554 Y206.900181 Z-0.125000 I-7.507565 J-12.763522
G02 X107.962053 Y206.394002 Z-0.125000 I-4.912051 J-4.846484
G02 X108.322707 Y205.831970 Z-0.125000 I-2.370287 J-1.917732
G03 X109.137037 Y205.018380 Z-0.125000 I1.614156 J0.801294
G02 X110.021685 Y204.382406 Z-0.125000 I-1.486017 J-3.000334
G02 X110.122029 Y203.978944 Z-0.125000 I-0.285121 J-0.285121
G02 X109.710182 Y203.661681 Z-0.125000 I-0.429764 J0.131941
G03 X111.093054 Y203.752702 Z-0.125000 I0.472141 J3.377238
G02 X112.287224 Y203.988353 Z-0.125000 I2.154301 J-7.773418
G02 X114.014967 Y204.074540 Z-0.125000 I1.485271 J-12.413696
G02 X115.722574 Y203.877934 Z-0.125000 I-0.175287 J-9.036356
G02 X120.009842 Y202.927735 Z-0.125000 I-50.715028 J-238.971797
G02 X124.231926 Y201.680128 Z-0.125000 I-8.234462 J-35.634508
G02 X126.086603 Y200.832453 Z-0.125000 I-4.268878 J-11.792932
G02 X127.616476 Y199.433992 Z-0.125000 I-2.215134 J-3.959337
G03 X127.743738 Y199.263450 Z-0.125000 I2.001188 J1.360564
G03 X127.893407 Y199.115434 Z-0.125000 I0.771095 J0.630029
G02 X130.469813 Y196.205584 Z-0.125000 I-7.035589 J-8.824884
G03 X132.532082 Y192.970750 Z-0.125000 I102.751087 J63.231007
G03 X134.008144 Y191.283705 Z-0.125000 I6.960174 J4.600473
G03 X136.281757 Y190.360900 Z-0.125000 I2.476466 J2.839261
G03 X137.248936 Y189.645699 Z-0.125000 I1.307420 J0.756481
G02 X138.447813 Y189.273639 Z-0.125000 I-1.919601 J-8.303044
G03 X138.030496 Y189.703842 Z-0.125000 I-0.793132 J-0.351865
G02 X137.791999 Y190.000008 Z-0.125000 I0.191355 J0.398207
G02 X142.011523 Y187.656343 Z-0.125000 I-0.871136 J-6.538628
G02 X144.060507 Y183.863439 Z-0.125000 I-8.631389 J-7.112704
G02 X144.914888 Y179.891711 Z-0.125000 I-21.649833 J-6.734976
G02 X145.043346 Y175.683581 Z-0.125000 I-22.826621 J-2.802836
G03 X145.087741 Y174.962792 Z-0.125000 I2.917302 J-0.182079
G03 X145.331213 Y174.189567 Z-0.125000 I3.336453 J0.625632
G02 X146.131965 Y172.066990 Z-0.125000 I-16.647867 J-7.492819
G03 X146.882729 Y169.916369 Z-0.125000 I29.197165 J8.986146
G02 X147.500021 Y168.316245 Z-0.125000 I-133.029110 J-52.238704
G03 X148.346404 Y166.949508 Z-0.125000 I3.933206 J1.490290
G02 X149.134167 Y165.943354 Z-0.125000 I-5.685978 J-5.263264
G03 X149.925438 Y164.963722 Z-0.125000 I5.391317 J3.545312
G02 X150.758878 Y164.049910 Z-0.125000 I-11.292178 J-11.135975
G02 X151.219427 Y162.780733 Z-0.125000 I-1.495676 J-1.260887
G03 X151.321317 Y162.501228 Z-0.125000 I0.425389 J-0.003253
G03 X151.577849 Y162.229694 Z-0.125000 I2.829859 J2.416567
G02 X153.100698 Y160.644800 Z-0.125000 I-16.342356 J-17.226645
G03 X154.804002 Y159.176050 Z-0.125000 I6.060215 J5.305978
G02 X155.563946 Y158.345084 Z-0.125000 I-1.196345 J-1.857076
G02 X156.009443 Y157.191675 Z-0.125000 I-4.792924 J-2.513977
G02 X156.839569 Y153.115903 Z-0.125000 I-36.903362 J-9.638651
G02 X156.825418 Y148.921858 Z-0.125000 I-13.906184 J-2.050127
G03 X157.091021 Y147.362113 Z-0.125000 I2.475801 J-0.380892
G02 X157.577893 Y145.920425 Z-0.125000 I-4.104344 J-2.189132
G02 X158.070737 Y142.512029 Z-0.125000 I-97.757456 J-15.875273
G02 X158.196665 Y139.125572 Z-0.125000 I-18.902012 J-2.398456
G02 X157.904164 Y136.477849 Z-0.125000 I-22.773232 J1.175804
G02 X157.328479 Y133.813091 Z-0.125000 I-30.345457 J5.161162
G01 X157.328479 Y133.813091 Z-0.125000
G00 Z5.000000

(End cutting path id: path14)


(Start cutting path id: path14)
(Change tool to Default tool)

G00 Z5.000000
G00 X154.725332 Y128.956753

G01 Z-0.125000 F100.0(Penetrate)
G03 X155.354586 Y131.255815 Z-0.125000 I-3.122657 J2.090316 F400.000000
G02 X155.642907 Y133.453258 Z-0.125000 I5.981618 J0.332802
G03 X156.039763 Y136.399235 Z-0.125000 I-7.755206 J2.544430
G02 X156.292018 Y139.301961 Z-0.125000 I10.739735 J0.529008
G03 X156.348319 Y141.885485 Z-0.125000 I-6.314833 J1.429989
G02 X156.009443 Y144.356561 Z-0.125000 I28.660871 J5.189236
G02 X155.256720 Y142.991058 Z-0.125000 I-14.169668 J6.920706
G03 X154.904543 Y141.587961 Z-0.125000 I2.034259 J-1.256344
G02 X154.803064 Y140.220739 Z-0.125000 I-5.024096 J-0.314474
G02 X154.480152 Y138.971055 Z-0.125000 I-14.966813 J3.200794
G03 X154.308568 Y138.403414 Z-0.125000 I1125.506282 J-340.522569
G03 X154.172529 Y137.616389 Z-0.125000 I3.138001 J-0.947677
G03 X153.390544 Y137.805160 Z-0.125000 I-0.498248 J-0.349921
G02 X152.689804 Y137.937416 Z-0.125000 I-0.267130 J0.507164
G03 X152.539973 Y138.379403 Z-0.125000 I-1.802002 J-0.364483
G02 X152.575504 Y138.571358 Z-0.125000 I0.147448 J0.071973
G03 X153.029548 Y139.776118 Z-0.125000 I-0.972904 J1.054602
G02 X152.969557 Y140.900397 Z-0.125000 I10.868334 J1.143673
G02 X152.984034 Y141.195023 Z-0.125000 I2.620768 J0.018888
G02 X153.019299 Y141.488830 Z-0.125000 I10.473565 J-1.108069
G02 X153.074387 Y141.681732 Z-0.125000 I0.657264 J-0.083384
G02 X153.244018 Y141.805625 Z-0.125000 I0.195608 J-0.089747
G02 X153.431778 Y141.725658 Z-0.125000 I0.023027 J-0.206343
G02 X153.555168 Y141.564678 Z-0.125000 I-190.596360 J-146.218511
G02 X153.607838 Y141.411312 Z-0.125000 I-0.207093 J-0.156847
G03 X153.814460 Y141.229539 Z-0.125000 I0.185455 J0.002486
G02 X154.277375 Y143.724651 Z-0.125000 I17.174750 J-1.895914
G03 X154.794124 Y146.196297 Z-0.125000 I-24.028823 J6.313562
G02 X155.304483 Y149.101810 Z-0.125000 I80.876716 J-12.708573
G03 X155.324702 Y152.125786 Z-0.125000 I-8.059990 J1.565946
G03 X155.190436 Y152.690439 Z-0.125000 I-5.122934 J-0.919864
G02 X155.057296 Y153.252911 Z-0.125000 I4.878917 J1.451857
G03 X154.378633 Y156.195611 Z-0.125000 I-29.793637 J-5.321573
G03 X152.651352 Y158.863136 Z-0.125000 I-5.205200 J-1.477494
G02 X151.770332 Y159.639573 Z-0.125000 I16.109581 J19.167539
G02 X151.309032 Y160.367733 Z-0.125000 I1.136520 J1.230201
G03 X150.587179 Y161.736938 Z-0.125000 I-4.134687 J-1.304949
G02 X149.718710 Y162.900678 Z-0.125000 I24.297953 J19.038854
G03 X147.480636 Y165.558725 Z-0.125000 I-17.255115 J-12.257542
G03 X144.797813 Y167.780300 Z-0.125000 I-12.737798 J-12.651744
G02 X143.889540 Y168.831482 Z-0.125000 I1.496914 J2.211393
G02 X143.596251 Y170.309011 Z-0.125000 I2.704929 J1.304800
G03 X144.395008 Y169.439237 Z-0.125000 I5.190768 J3.965287
G03 X145.419407 Y168.818172 Z-0.125000 I2.106233 J2.318702
G03 X145.778672 Y168.838633 Z-0.125000 I0.155967 J0.425767
G03 X145.929171 Y169.096514 Z-0.125000 I-0.122588 J0.244398
G03 X145.880710 Y169.561283 Z-0.125000 I-4.716417 J-0.256862
G03 X145.755604 Y170.001742 Z-0.125000 I-1.838616 J-0.284236
G03 X144.919662 Y171.817026 Z-0.125000 I-31.700871 J-13.498202
G03 X143.808624 Y173.514350 Z-0.125000 I-7.651586 J-3.796298
G02 X143.338074 Y174.168784 Z-0.125000 I3.993303 J3.367640
G02 X143.174682 Y175.036939 Z-0.125000 I1.071119 J0.651044
G02 X143.523190 Y174.962120 Z-0.125000 I0.131042 J-0.238693
G03 X143.906343 Y174.882775 Z-0.125000 I0.236734 J0.178394
G02 X143.720064 Y175.593280 Z-0.125000 I0.806878 J0.591217
G02 X144.081321 Y176.244144 Z-0.125000 I0.978748 J-0.117557
G03 X144.191334 Y176.474839 Z-0.125000 I-0.183809 J0.229233
G02 X144.206557 Y176.712633 Z-0.125000 I1.730448 J0.008605
G03 X143.821476 Y180.445747 Z-0.125000 I-7.908657 J1.070618
G03 X142.441610 Y183.822164 Z-0.125000 I-35.958102 J-12.725106
G02 X142.389725 Y183.963667 Z-0.125000 I0.744908 J0.353398
G03 X142.321665 Y184.038417 Z-0.125000 I-0.106054 J-0.028204
G02 X141.111928 Y184.976569 Z-0.125000 I0.876210 J2.378911
G02 X140.477696 Y186.051720 Z-0.125000 I7.189156 J4.965533
G03 X138.608599 Y187.862982 Z-0.125000 I-3.499549 J-1.741270
G03 X136.503654 Y188.796683 Z-0.125000 I-37.587237 J-81.897477
G03 X135.844762 Y188.663011 Z-0.125000 I-0.233201 J-0.541243
G03 X135.726132 Y188.026570 Z-0.125000 I0.427058 J-0.408879
G02 X136.070071 Y186.753747 Z-0.125000 I-4.667459 J-1.944108
G02 X136.200265 Y185.464697 Z-0.125000 I-19.759476 J-2.646816
G03 X136.578578 Y181.916093 Z-0.125000 I45.982147 J3.107637
G02 X136.686746 Y178.305778 Z-0.125000 I-15.576058 J-2.273449
G02 X136.558713 Y177.369611 Z-0.125000 I-9.185094 J0.779341
G02 X136.163224 Y176.475919 Z-0.125000 I-2.111045 J0.399855
G02 X135.775550 Y175.974312 Z-0.125000 I-23.772663 J17.972361
G03 X135.859835 Y175.124075 Z-0.125000 I0.482831 J-0.381433
G02 X137.018456 Y173.079934 Z-0.125000 I-2.210221 J-2.603180
G03 X137.477674 Y170.967647 Z-0.125000 I21.494062 J3.566812
G02 X137.436827 Y170.529902 Z-0.125000 I-0.612041 J-0.163668
G02 X137.138654 Y170.281494 Z-0.125000 I-0.420758 J0.201894
G02 X136.784495 Y170.439176 Z-0.125000 I-0.080978 J0.294688
G02 X136.649704 Y170.801136 Z-0.125000 I1.595861 J0.800361
G03 X136.368479 Y171.847181 Z-0.125000 I-40.699408 J-10.381065
G03 X135.801979 Y172.810206 Z-0.125000 I-2.121355 J-0.599754
G02 X135.708866 Y173.513272 Z-0.125000 I20.789273 J3.111019
G03 X135.252351 Y174.178631 Z-0.125000 I-0.857191 J-0.098843
G03 X135.187765 Y173.600951 Z-0.125000 I0.369382 J-0.333749
G02 X134.991649 Y172.980950 Z-0.125000 I-0.388222 J-0.218217
G03 X134.489177 Y173.540978 Z-0.125000 I-2.156723 J-1.429639
G02 X134.290326 Y174.355019 Z-0.125000 I0.449990 J0.541230
G03 X134.716063 Y176.045334 Z-0.125000 I-5.302206 J2.234230
G02 X135.401224 Y177.687006 Z-0.125000 I2.989522 J-0.283880
G03 X135.467694 Y178.594932 Z-0.125000 I-0.595961 J0.500027
G02 X135.289393 Y179.359878 Z-0.125000 I1.053787 J0.648880
G03 X135.399172 Y181.063963 Z-0.125000 I-28.734851 J2.706708
G03 X135.234360 Y182.716911 Z-0.125000 I-6.207379 J0.215765
G03 X133.771563 Y187.583638 Z-0.125000 I-42.800343 J-10.211342
G03 X131.425418 Y192.134314 Z-0.125000 I-19.098378 J-6.966225
G02 X130.870758 Y193.394562 Z-0.125000 I3.057553 J2.097873
G03 X130.203043 Y194.512742 Z-0.125000 I-2.076485 J-0.481510
G02 X129.008755 Y195.828256 Z-0.125000 I5.263048 J5.977924
G03 X127.630235 Y197.135292 Z-0.125000 I-4.149818 J-2.996306
G02 X124.406532 Y199.281369 Z-0.125000 I71.736429 J111.252258
G03 X120.808924 Y200.876853 Z-0.125000 I-6.072225 J-8.838262
G02 X118.313489 Y201.539254 Z-0.125000 I11.416334 J48.039935
G03 X115.809357 Y202.092172 Z-0.125000 I-5.293912 J-18.028801
G03 X113.212757 Y202.125955 Z-0.125000 I-1.421340 J-9.440096
G02 X110.603415 Y201.920017 Z-0.125000 I-3.608670 J29.089820
G03 X110.121286 Y201.617748 Z-0.125000 I0.019610 J-0.566920
G03 X110.067193 Y201.109686 Z-0.125000 I0.610241 J-0.321882
G03 X110.430996 Y200.302310 Z-0.125000 I2.873911 J0.809330
G03 X110.943493 Y199.580042 Z-0.125000 I8.291075 J5.340103
G03 X111.312606 Y199.118211 Z-0.125000 I23.437752 J18.353924
G02 X111.616240 Y198.534056 Z-0.125000 I-1.253943 J-1.022769
G02 X110.719764 Y198.684211 Z-0.125000 I0.306134 J4.578928
G02 X109.973354 Y198.990197 Z-0.125000 I0.855298 J3.149751
G02 X108.848199 Y199.744143 Z-0.125000 I4.217609 J7.510719
G02 X108.183360 Y200.887789 Z-0.125000 I1.119626 J1.415945
G03 X107.214238 Y204.082808 Z-0.125000 I-11.606682 J-1.776080
G03 X105.190393 Y206.740372 Z-0.125000 I-7.135346 J-3.334459
G03 X101.290556 Y209.712005 Z-0.125000 I-28.953921 J-33.953023
G03 X96.773115 Y211.769925 Z-0.125000 I-8.299966 J-12.232472
G03 X91.810014 Y212.820459 Z-0.125000 I-12.851376 J-48.465511
G02 X86.808554 Y213.620950 Z-0.125000 I549.225817 J3447.583682
G03 X83.308511 Y213.761178 Z-0.125000 I-2.336295 J-14.563052
G02 X79.801329 Y213.594492 Z-0.125000 I-4.399137 J55.580514
G03 X79.329034 Y213.051791 Z-0.125000 I0.006756 J-0.482742
G02 X79.157862 Y212.543214 Z-0.125000 I-0.613111 J-0.076739
G03 X79.170205 Y212.315746 Z-0.125000 I0.110142 J-0.108093
G03 X79.412921 Y212.263461 Z-0.125000 I0.172292 J0.210304
G02 X79.850765 Y212.045899 Z-0.125000 I0.097453 J-0.353239
G02 X79.899048 Y211.702545 Z-0.125000 I-0.678655 J-0.270506
G02 X79.832566 Y211.055751 Z-0.125000 I-457.229641 J46.670968
G02 X79.644343 Y210.391975 Z-0.125000 I-1.991406 J0.206117
G03 X79.433703 Y209.657533 Z-0.125000 I2.037992 J-0.981928
G03 X79.567084 Y208.844692 Z-0.125000 I1.522375 J-0.167553
G03 X79.765782 Y206.904044 Z-0.125000 I57.426536 J4.899240
G02 X79.615415 Y204.922509 Z-0.125000 I-5.099545 J-0.609499
G03 X79.691091 Y204.629630 Z-0.125000 I0.289557 J-0.081398
G02 X79.838723 Y204.422270 Z-0.125000 I-0.564394 J-0.558060
G03 X80.547042 Y203.522594 Z-0.125000 I2.554153 J1.282226
G02 X81.321448 Y202.700009 Z-0.125000 I-3.224007 J-3.810995
G03 X84.553100 Y199.872243 Z-0.125000 I8.245844 J6.163093
G03 X88.396054 Y198.160464 Z-0.125000 I11.439136 J20.511308
G03 X89.707841 Y197.713109 Z-0.125000 I614.821877 J1800.706067
G02 X90.959337 Y197.175156 Z-0.125000 I-2.830128 J-8.308738
G03 X95.971522 Y195.240424 Z-0.125000 I10.945941 J20.897203
G03 X101.424137 Y195.041908 Z-0.125000 I3.174654 J12.215448
G02 X101.894039 Y195.032112 Z-0.125000 I0.211419 J-1.133568
G02 X102.384751 Y194.688072 Z-0.125000 I-0.178683 J-0.776838
G02 X100.130096 Y194.259936 Z-0.125000 I-2.185806 J5.360097
G03 X97.623662 Y194.013914 Z-0.125000 I-0.136757 J-11.497343
G02 X98.857819 Y193.851831 Z-0.125000 I-165.237257 J-1262.957840
G02 X99.904018 Y193.713700 Z-0.125000 I-344.346659 J-2612.089171
G02 X98.613212 Y193.380005 Z-0.125000 I-2.310541 J6.274272
G02 X97.357668 Y193.516497 Z-0.125000 I-0.372664 J2.414892
G03 X93.483800 Y194.658284 Z-0.125000 I-8.821651 J-22.787670
G02 X89.551048 Y195.543558 Z-0.125000 I23.295013 J112.664000
G03 X89.153402 Y195.369037 Z-0.125000 I-0.085319 J-0.345881
G03 X89.119601 Y195.047553 Z-0.125000 I0.366436 J-0.201046
G02 X89.459323 Y193.431382 Z-0.125000 I-9.494690 J-2.839592
G02 X89.534468 Y191.790003 Z-0.125000 I-10.460464 J-1.301304
G02 X89.307345 Y190.611817 Z-0.125000 I-3.830449 J0.127423
G02 X88.505062 Y189.284575 Z-0.125000 I-3.742057 J1.355875
G03 X88.548130 Y189.813212 Z-0.125000 I-11.334682 J1.189503
G02 X88.586201 Y190.016236 Z-0.125000 I0.811838 J-0.047155
G03 X88.896695 Y193.092584 Z-0.125000 I-7.156348 J2.276130
G03 X88.237657 Y196.064611 Z-0.125000 I-13.607220 J-1.458280
G03 X88.063039 Y196.483117 Z-0.125000 I-3.289807 J-1.126958
G03 X87.729304 Y196.792039 Z-0.125000 I-0.572959 J-0.284248
G02 X86.314203 Y197.558605 Z-0.125000 I2.707207 J6.687014
G02 X85.030907 Y198.507950 Z-0.125000 I15.895840 J22.829560
G03 X84.626769 Y198.560556 Z-0.125000 I-0.245991 J-0.311127
G03 X84.404021 Y198.200681 Z-0.125000 I0.148050 J-0.340511
G02 X83.906198 Y198.574568 Z-0.125000 I0.773208 J1.547872
G02 X83.705168 Y198.977850 Z-0.125000 I0.592118 J0.546909
G03 X82.968956 Y200.089594 Z-0.125000 I-1.668326 J-0.305152
G02 X82.101440 Y200.956581 Z-0.125000 I1.669974 J2.538508
G03 X81.945921 Y201.086476 Z-0.125000 I-0.298263 J-0.199054
G03 X81.591323 Y200.884967 Z-0.125000 I-0.101558 J-0.234037
G02 X82.892779 Y198.468569 Z-0.125000 I-16.762558 J-10.586879
G02 X83.599334 Y195.703720 Z-0.125000 I-7.484862 J-3.385456
G02 X83.303139 Y196.049494 Z-0.125000 I0.073987 J0.363128
G03 X83.035596 Y196.335897 Z-0.125000 I-0.302236 J-0.014168
G03 X82.805857 Y194.397264 Z-0.125000 I7.089510 J-1.823073
G02 X82.439048 Y192.451461 Z-0.125000 I-4.931315 J-0.077858
G03 X82.357852 Y196.350743 Z-0.125000 I-73.271350 J0.424733
G03 X81.665759 Y200.224920 Z-0.125000 I-15.239094 J-0.723444
G02 X81.612315 Y200.547033 Z-0.125000 I1.130651 J0.353087
G03 X81.589912 Y200.883556 Z-0.125000 I-4.182089 J-0.109396
G02 X81.085110 Y201.533299 Z-0.125000 I1.367667 J1.583545
G03 X80.529109 Y202.163786 Z-0.125000 I-1.462588 J-0.729394
G02 X80.354469 Y202.307219 Z-0.125000 I0.566220 J0.867449
G03 X80.107187 Y202.341586 Z-0.125000 I-0.145837 J-0.142521
G03 X79.990932 Y202.075152 Z-0.125000 I0.120298 J-0.211071
G03 X80.053565 Y201.823356 Z-0.125000 I9.091875 J2.127873
G03 X80.421332 Y200.434322 Z-0.125000 I287451.646970 J76106.276395
G02 X80.764765 Y199.037117 Z-0.125000 I-39.057975 J-10.341266
G02 X80.895595 Y197.342261 Z-0.125000 I-5.714300 J-1.293578
G02 X80.313915 Y195.638808 Z-0.125000 I-3.485966 J0.239317
G02 X79.655695 Y194.752025 Z-0.125000 I-9.238787 J6.169866
G03 X79.050265 Y193.848814 Z-0.125000 I4.303474 J-3.539173
G02 X77.736853 Y192.099767 Z-0.125000 I-6.393130 J3.433129
G02 X75.942998 Y190.877720 Z-0.125000 I-4.305256 J4.392093
G02 X73.363438 Y190.022680 Z-0.125000 I-5.545297 J12.410903
G02 X70.682729 Y189.965436 Z-0.125000 I-1.482578 J6.631671
G02 X68.568908 Y190.451111 Z-0.125000 I3.913850 J21.877277
G02 X66.496315 Y191.202981 Z-0.125000 I4.079907 J14.479184
G03 X66.039635 Y191.190832 Z-0.125000 I-0.215768 J-0.478650
G03 X65.794993 Y190.762008 Z-0.125000 I0.208065 J-0.402896
G03 X66.424673 Y188.557729 Z-0.125000 I5.253433 J0.308632
G03 X68.020668 Y186.911792 Z-0.125000 I3.746679 J2.036240
G02 X69.152556 Y185.859196 Z-0.125000 I-1.774955 J-3.043538
G02 X69.661790 Y184.205281 Z-0.125000 I-2.401342 J-1.644716
G03 X68.267428 Y185.846016 Z-0.125000 I-5.912375 J-3.611711
G03 X66.438459 Y186.739283 Z-0.125000 I-2.620543 J-3.046530
G02 X65.996692 Y186.996831 Z-0.125000 I0.156284 J0.775722
G02 X65.771709 Y187.449072 Z-0.125000 I0.764552 J0.662436
G03 X65.247017 Y189.353977 Z-0.125000 I-17.091699 J-3.683075
G02 X65.066154 Y191.372314 Z-0.125000 I4.107107 J1.385310
G03 X65.042925 Y191.532990 Z-0.125000 I-0.281455 J0.041328
G03 X64.951501 Y191.635486 Z-0.125000 I-0.214109 J-0.098957
G02 X64.158713 Y192.191421 Z-0.125000 I3.586975 J5.958430
G03 X63.360120 Y192.561528 Z-0.125000 I-1.132442 J-1.396882
G02 X61.059087 Y194.042324 Z-0.125000 I0.679436 J3.583993
G02 X59.916304 Y196.180322 Z-0.125000 I8.030508 J5.666805
G02 X59.636925 Y198.033395 Z-0.125000 I4.040384 J1.556747
G02 X60.056709 Y200.005845 Z-0.125000 I7.147759 J-0.490320
G03 X60.330462 Y198.380769 Z-0.125000 I2.274198 J-0.452494
G02 X60.801070 Y196.895403 Z-0.125000 I-3.034321 J-1.778598
G03 X60.855586 Y196.764542 Z-0.125000 I0.232067 J0.019891
G03 X60.942887 Y196.727481 Z-0.125000 I0.080552 J0.068394
G02 X61.316723 Y196.447181 Z-0.125000 I0.027316 J-0.353011
G02 X61.316479 Y196.115411 Z-0.125000 I-0.787790 J-0.165305
G03 X61.270425 Y195.789284 Z-0.125000 I2.216269 J-0.479285
G03 X61.378215 Y195.480411 Z-0.125000 I0.415776 J-0.028148
G03 X61.656803 Y195.561943 Z-0.125000 I0.119239 J0.109292
G02 X61.929607 Y195.653978 Z-0.125000 I0.161413 J-0.028119
G03 X62.282651 Y194.746914 Z-0.125000 I1.759725 J0.162677
G03 X62.711009 Y194.623161 Z-0.125000 I0.297393 J0.226159
G02 X62.726205 Y194.250213 Z-0.125000 I-0.165969 J-0.193546
G03 X62.717712 Y193.892911 Z-0.125000 I0.184947 J-0.183148
G03 X63.038885 Y194.074518 Z-0.125000 I0.011401 J0.354640
G02 X63.275807 Y194.266150 Z-0.125000 I0.357466 J-0.199674
G03 X63.497324 Y193.751764 Z-0.125000 I9.259318 J3.682583
G03 X63.963723 Y193.366214 Z-0.125000 I0.637145 J0.295877
G02 X64.653024 Y193.032373 Z-0.125000 I-0.458588 J-1.825410
G03 X65.280995 Y192.644431 Z-0.125000 I2.199110 J2.857529
G02 X66.284400 Y192.069875 Z-0.125000 I-3.643315 J-7.526132
G03 X67.560293 Y191.672881 Z-0.125000 I1.309055 J1.958370
G02 X68.521578 Y191.652166 Z-0.125000 I-1.190949 J-77.581806
G02 X69.679782 Y191.361378 Z-0.125000 I-0.076493 J-2.756615
G03 X70.881892 Y191.105639 Z-0.125000 I1.089221 J2.166776
G02 X72.248357 Y191.084447 Z-0.125000 I0.512752 J-11.003248
G03 X72.478114 Y191.172932 Z-0.125000 I0.021608 J0.286428
G03 X72.613482 Y191.375136 Z-0.125000 I-0.520107 J0.494604
G02 X72.764157 Y191.471358 Z-0.125000 I0.149163 J-0.067493
G02 X72.945446 Y191.423467 Z-0.125000 I-0.003515 J-0.380380
G03 X74.261206 Y191.190047 Z-0.125000 I1.000672 J1.815566
G03 X75.365501 Y191.791414 Z-0.125000 I-0.281703 J1.831890
G03 X75.502133 Y191.962110 Z-0.125000 I-1.455257 J1.304881
G02 X75.679473 Y192.032361 Z-0.125000 I0.142924 J-0.101830
G03 X76.637096 Y192.456318 Z-0.125000 I0.178347 J0.890658
G02 X77.266973 Y193.076936 Z-0.125000 I1.514196 J-0.906840
G03 X77.551315 Y193.347648 Z-0.125000 I-0.393884 J0.698399
G03 X77.431015 Y193.610336 Z-0.125000 I-0.145964 J0.092045
G02 X77.071026 Y193.925401 Z-0.125000 I0.068791 J0.441792
G03 X76.489804 Y194.114808 Z-0.125000 I-0.355735 J-0.105139
G02 X76.268151 Y194.094197 Z-0.125000 I-0.466063 J3.809877
G02 X75.882321 Y194.281320 Z-0.125000 I-0.027705 J0.434210
G03 X76.003405 Y194.348111 Z-0.125000 I-1.064490 J2.072954
G02 X76.160662 Y194.420667 Z-0.125000 I0.434931 J-0.735966
G02 X77.481381 Y194.796645 Z-0.125000 I3.930304 J-11.298535
G03 X78.835423 Y195.587656 Z-0.125000 I-0.562805 J2.517822
G03 X79.581645 Y196.447743 Z-0.125000 I-24.774081 J22.248035
G03 X80.002412 Y197.752653 Z-0.125000 I-1.396927 J1.170731
G03 X79.839297 Y199.431593 Z-0.125000 I-38.141913 J-2.858242
G03 X79.614004 Y201.106864 Z-0.125000 I-56.794683 J-6.785043
G03 X79.260730 Y202.858502 Z-0.125000 I-17.614964 J-2.641180
G02 X79.037918 Y204.594778 Z-0.125000 I6.994790 J1.780059
G03 X79.002980 Y206.194752 Z-0.125000 I-52.463756 J-0.345270
G03 X78.855884 Y207.784947 Z-0.125000 I-14.475085 J-0.537063
G03 X78.761174 Y208.121160 Z-0.125000 I-0.432877 J0.059506
G03 X78.551437 Y208.353978 Z-0.125000 I-2.552770 J-2.088818
G02 X78.178206 Y209.111439 Z-0.125000 I0.964398 J0.945882
G02 X78.293909 Y209.840936 Z-0.125000 I1.248624 J0.175883
G03 X78.272742 Y210.983428 Z-0.125000 I-1.130075 J0.550504
G03 X77.643387 Y211.742409 Z-0.125000 I-2.168266 J-1.157524
G01 X77.639154 Y212.019692 Z-0.125000
G03 X77.595871 Y212.128700 Z-0.125000 I-68.069896 J-26.964886
G02 X77.553782 Y212.237356 Z-0.125000 I5.879415 J2.339947
G03 X76.179380 Y214.023550 Z-0.125000 I-3.057965 J-0.931107
G02 X74.516718 Y215.350267 Z-0.125000 I4.726119 J7.628040
G03 X72.908925 Y215.715875 Z-0.125000 I-1.089966 J-1.075214
G02 X71.273984 Y215.912595 Z-0.125000 I-0.621300 J1.728730
G03 X71.223226 Y215.920160 Z-0.125000 I-0.032705 J-0.045364
G01 X71.199548 Y215.897425 Z-0.125000
G02 X70.748957 Y215.650287 Z-0.125000 I-0.345019 J0.094715
G03 X70.401918 Y215.727739 Z-0.125000 I-0.656875 J-2.127039
G03 X69.807148 Y215.791935 Z-0.125000 I-1.351588 J-9.734968
G02 X69.244101 Y215.919297 Z-0.125000 I0.153424 J1.986514
G03 X68.493382 Y215.760696 Z-0.125000 I-0.253320 J-0.656961
G02 X67.844279 Y215.561228 Z-0.125000 I-0.513212 J0.514202
G03 X66.492998 Y215.383245 Z-0.125000 I-0.404829 J-2.145049
G03 X65.344495 Y214.789350 Z-0.125000 I9.739461 J-20.242084
G03 X63.720185 Y213.730790 Z-0.125000 I5.287192 J-9.888446
G03 X62.319426 Y212.408100 Z-0.125000 I6.420124 J-8.202118
G03 X62.052183 Y211.949570 Z-0.125000 I1.051227 J-0.919824
G03 X62.074245 Y211.195603 Z-0.125000 I0.995185 J-0.348186
G02 X62.332812 Y209.763915 Z-0.125000 I-3.121436 J-1.302931
G02 X61.762743 Y208.393842 Z-0.125000 I-2.126061 J0.080989
G03 X60.710137 Y206.731791 Z-0.125000 I3.908940 J-3.639940
G03 X60.576351 Y204.743297 Z-0.125000 I3.014053 J-1.201533
G02 X60.607945 Y204.424707 Z-0.125000 I-1.036008 J-0.263600
G02 X60.508970 Y204.171445 Z-0.125000 I-0.430226 J0.022160
G03 X60.305149 Y203.601025 Z-0.125000 I0.665411 J-0.559388
G03 X60.371034 Y203.055256 Z-0.125000 I2.562872 J0.032528
G02 X60.428479 Y202.663224 Z-0.125000 I-2.193689 J-0.521670
G02 X60.151959 Y202.282320 Z-0.125000 I-0.371164 J-0.021375
G02 X59.725257 Y202.287917 Z-0.125000 I-0.203389 J0.762331
G02 X59.344451 Y202.717647 Z-0.125000 I0.153283 J0.519423
G03 X59.105921 Y202.910232 Z-0.125000 I-0.228652 J-0.039192
G03 X58.787768 Y202.781147 Z-0.125000 I0.021743 J-0.510208
G03 X58.529215 Y201.663198 Z-0.125000 I0.655871 J-0.740559
G02 X58.172876 Y200.547359 Z-0.125000 I-0.839852 J-0.346614
G03 X58.470899 Y200.219883 Z-0.125000 I1.523393 J1.087035
G03 X58.977915 Y200.165653 Z-0.125000 I0.292525 J0.337678
G03 X59.305370 Y200.394284 Z-0.125000 I-0.930362 J1.681315
G02 X59.615737 Y200.647900 Z-0.125000 I4.600495 J-5.313224
G02 X59.719018 Y200.416483 Z-0.125000 I-0.222295 J-0.237966
G02 X59.690173 Y200.242911 Z-0.125000 I-0.478705 J-0.009628
G03 X59.188343 Y197.599466 Z-0.125000 I7.563027 J-2.805117
G03 X59.143015 Y194.923728 Z-0.125000 I430.860953 J-8.637224
G03 X59.785393 Y190.997938 Z-0.125000 I11.356924 J-0.157114
G03 X61.520384 Y187.581364 Z-0.125000 I13.767256 J4.842419
G02 X63.442234 Y184.305230 Z-0.125000 I-22.212655 J-15.232176
G03 X65.336029 Y181.021814 Z-0.125000 I26.883144 J13.317695
G03 X65.833436 Y180.304300 Z-0.125000 I18.978361 J12.625321
G03 X66.486790 Y179.707364 Z-0.125000 I1.760959 J1.271373
G02 X67.079846 Y179.040310 Z-0.125000 I-0.750274 J-1.264204
G02 X67.309468 Y178.208058 Z-0.125000 I-2.655612 J-1.180498
G02 X67.266354 Y177.935490 Z-0.125000 I-0.508761 J-0.059221
G02 X67.024070 Y177.758619 Z-0.125000 I-0.279029 J0.127844
G02 X66.806675 Y177.889686 Z-0.125000 I-0.023850 J0.206268
G02 X66.747140 Y178.107517 Z-0.125000 I1.015687 J0.394645
G03 X66.549139 Y178.610542 Z-0.125000 I-1.297700 J-0.220321
G03 X66.105084 Y178.974292 Z-0.125000 I-0.804472 J-0.529155
G02 X65.473412 Y177.848268 Z-0.125000 I-2.317662 J0.559965
G02 X64.848137 Y177.717344 Z-0.125000 I-0.412773 J0.412773
G03 X64.725688 Y178.180333 Z-0.125000 I-153.002569 J-40.217804
G02 X64.602957 Y178.643386 Z-0.125000 I236.367630 J62.896475
G03 X64.672695 Y179.278500 Z-0.125000 I-0.984660 J0.429506
G03 X64.516173 Y179.868583 Z-0.125000 I-4.495204 J-0.876568
G03 X63.703150 Y181.837571 Z-0.125000 I-15.341677 J-5.182454
G03 X62.586832 Y183.598856 Z-0.125000 I-8.718884 J-4.291698
G03 X61.501264 Y184.809211 Z-0.125000 I-10.633101 J-8.444827
G03 X59.898312 Y185.624506 Z-0.125000 I-2.077267 J-2.100689
G02 X58.133805 Y185.974180 Z-0.125000 I4.175376 J25.696373
G03 X56.300332 Y186.128978 Z-0.125000 I-1.443232 J-6.158565
G02 X54.932900 Y186.090492 Z-0.125000 I-1.242102 J19.820618
G03 X53.560659 Y185.810772 Z-0.125000 I-0.021460 J-3.400532
G02 X52.807243 Y185.669404 Z-0.125000 I-0.688770 J1.592436
G03 X51.809118 Y185.688006 Z-0.125000 I-0.998125 J-26.769401
G02 X53.038510 Y186.320887 Z-0.125000 I4.452657 J-7.138919
G02 X54.070776 Y186.680017 Z-0.125000 I3.590519 J-8.657312
G03 X55.169276 Y187.469774 Z-0.125000 I-0.541866 J1.912550
G03 X55.505170 Y188.777633 Z-0.125000 I-1.629987 J1.115689
G03 X55.378326 Y189.745066 Z-0.125000 I-15.171779 J-1.497215
G03 X55.150982 Y190.686161 Z-0.125000 I-6.404850 J-1.049237
G03 X54.191638 Y192.358717 Z-0.125000 I-4.436571 J-1.433318
G03 X52.407429 Y193.330583 Z-0.125000 I-2.252906 J-2.012305
G02 X51.998666 Y193.428034 Z-0.125000 I0.439505 J2.749544
G02 X51.598509 Y193.566239 Z-0.125000 I2.805836 J8.772395
G03 X51.411361 Y193.621740 Z-0.125000 I-0.621383 J-1.752021
G02 X51.288418 Y193.841758 Z-0.125000 I0.040058 J0.166743
G02 X51.374175 Y193.929976 Z-0.125000 I0.136586 J-0.046985
G03 X51.759729 Y194.104931 Z-0.125000 I-1.122877 J2.986825
G02 X50.857593 Y194.232452 Z-0.125000 I-0.135546 J2.295887
G03 X50.037115 Y194.083058 Z-0.125000 I-0.279756 J-0.791315
G01 X46.857881 Y194.083058 Z-0.125000
G02 X47.573134 Y194.525881 Z-0.125000 I1.128258 J-1.023325
G03 X48.224895 Y194.795317 Z-0.125000 I-0.816135 J2.897233
G03 X48.338617 Y194.807121 Z-0.125000 I0.039399 J0.174120
G03 X48.412220 Y194.907147 Z-0.125000 I-0.053237 J0.116268
G01 X48.437268 Y194.942778 Z-0.125000
G02 X49.907682 Y194.904172 Z-0.125000 I0.463692 J-10.360736
G02 X51.357209 Y194.674314 Z-0.125000 I-1.187077 J-12.171354
G03 X51.819984 Y194.620542 Z-0.125000 I0.495819 J2.248892
G02 X52.106862 Y194.386095 Z-0.125000 I-0.004276 J-0.297972
G03 X52.709017 Y193.750901 Z-0.125000 I0.828192 J0.182101
G03 X53.376157 Y193.628328 Z-0.125000 I1.027263 J3.714329
G02 X53.977369 Y193.507570 Z-0.125000 I-0.272572 J-2.914045
G02 X54.470120 Y193.234275 Z-0.125000 I-0.416758 J-1.332278
G02 X55.730735 Y191.924240 Z-0.125000 I-6.144000 J-7.173765
G02 X56.484834 Y190.207795 Z-0.125000 I-2.904080 J-2.299747
G02 X56.610286 Y189.244453 Z-0.125000 I-16.737246 J-2.669459
G03 X56.735659 Y188.282686 Z-0.125000 I16.760024 J1.695729
G03 X57.258636 Y187.354077 Z-0.125000 I1.525439 J0.247530
G03 X58.233554 Y186.994342 Z-0.125000 I0.976629 J1.145831
G02 X58.563713 Y186.960241 Z-0.125000 I0.000000 J-1.615307
G03 X58.895012 Y186.906147 Z-0.125000 I0.779998 J3.735587
G02 X60.213751 Y186.491726 Z-0.125000 I-0.441827 J-3.711346
G02 X61.394795 Y185.752564 Z-0.125000 I-4.777892 J-8.947323
G03 X60.899703 Y186.744262 Z-0.125000 I-8.783894 J-3.765813
G02 X60.410898 Y187.661445 Z-0.125000 I14.352649 J8.237967
G02 X59.034672 Y190.688528 Z-0.125000 I47.827474 J23.570558
G02 X58.381015 Y194.020970 Z-0.125000 I7.816477 J3.263527
G02 X58.387543 Y194.697600 Z-0.125000 I99.985970 J-0.626380
G03 X58.390893 Y195.374225 Z-0.125000 I-41.856447 J0.545506
G03 X58.374257 Y195.612210 Z-0.125000 I-1.710641 J-0.000000
G03 X58.213093 Y195.808142 Z-0.125000 I-0.240810 J-0.033831
G03 X57.986444 Y195.736821 Z-0.125000 I-0.065217 J-0.188541
G03 X57.863137 Y195.549203 Z-0.125000 I1.949489 J-1.415578
G02 X57.022519 Y194.750940 Z-0.125000 I-1.819937 J1.074759
G02 X55.656865 Y194.227697 Z-0.125000 I-2.930556 J5.604911
G03 X57.005615 Y195.900586 Z-0.125000 I-3.689557 J4.354822
G02 X57.857493 Y197.445383 Z-0.125000 I52.624278 J-28.012348
G03 X58.215447 Y198.788336 Z-0.125000 I-2.368189 J1.350405
G03 X57.438393 Y200.197403 Z-0.125000 I-1.657871 J0.004532
G02 X57.212426 Y200.463980 Z-0.125000 I0.305792 J0.488268
G02 X57.138179 Y200.783014 Z-0.125000 I0.913022 J0.380639
G03 X56.692076 Y203.045587 Z-0.125000 I-8.829073 J-0.565528
G02 X56.329259 Y205.331731 Z-0.125000 I6.559176 J2.212821
G02 X56.305954 Y205.758905 Z-0.125000 I0.832382 J0.259634
G03 X55.823376 Y206.167109 Z-0.125000 I-0.355120 J0.069531
G02 X55.441311 Y207.552309 Z-0.125000 I1.860041 J1.258326
G02 X55.894990 Y209.129736 Z-0.125000 I3.696458 J-0.209172
G03 X54.660418 Y208.206767 Z-0.125000 I1.176369 J-2.860692
G03 X53.945187 Y207.306581 Z-0.125000 I79.946111 J-64.254361
G03 X51.844430 Y203.928674 Z-0.125000 I14.431519 J-11.317312
G03 X50.983970 Y199.932820 Z-0.125000 I7.891974 J-3.790015
G03 X50.876264 Y198.727486 Z-0.125000 I2.341521 J-0.816713
G02 X50.835098 Y197.442561 Z-0.125000 I-3.372279 J-0.535082
G02 X50.629286 Y198.001017 Z-0.125000 I0.354178 J0.447681
G03 X50.355320 Y198.481492 Z-0.125000 I-0.414505 J0.081995
G02 X50.243570 Y199.575192 Z-0.125000 I2.837124 J0.842446
G03 X50.184576 Y200.682472 Z-0.125000 I-4.009274 J0.341604
G03 X49.951467 Y200.376574 Z-0.125000 I0.083347 J-0.305283
G02 X49.720320 Y200.107797 Z-0.125000 I-0.271227 J-0.000527
G02 X49.840528 Y201.251262 Z-0.125000 I3.143531 J0.247584
G02 X50.514070 Y202.781147 Z-0.125000 I6.344645 J-1.880064
G02 X50.819887 Y203.239964 Z-0.125000 I5.628295 J-3.420125
G03 X51.107795 Y203.704367 Z-0.125000 I-2.953610 J2.152546
G03 X51.093676 Y204.648069 Z-0.125000 I-0.888611 J0.458662
G03 X50.297465 Y205.155342 Z-0.125000 I-0.865570 J-0.480092
G03 X48.953896 Y205.035398 Z-0.125000 I-0.301536 J-4.207370
G03 X47.706665 Y204.414156 Z-0.125000 I0.816026 J-3.200904
G03 X44.112372 Y201.455574 Z-0.125000 I99.563268 J-124.619057
G03 X40.671958 Y198.327328 Z-0.125000 I43.430164 J-51.220040
G03 X39.329860 Y196.741474 Z-0.125000 I7.604334 J-7.796333
G03 X38.556668 Y194.675372 Z-0.125000 I3.680884 J-2.555214
G02 X38.371482 Y193.552581 Z-0.125000 I-10.520110 J1.158450
G02 X38.067329 Y192.455342 Z-0.125000 I-10.462389 J2.309377
G03 X37.519542 Y189.602700 Z-0.125000 I10.334476 J-3.463425
G03 X37.785107 Y186.717411 Z-0.125000 I9.819060 J-0.551109
G03 X38.092193 Y185.670687 Z-0.125000 I99.816012 J28.715368
G02 X38.385923 Y184.621206 Z-0.125000 I-29.458618 J-8.810769
G03 X39.412947 Y182.190779 Z-0.125000 I8.762157 J2.270411
G03 X41.465708 Y180.381170 Z-0.125000 I3.928854 J2.387665
G03 X42.670741 Y179.924540 Z-0.125000 I4.525265 J10.123703
G02 X43.871618 Y179.373636 Z-0.125000 I-1.573617 J-5.014527
G03 X44.897458 Y179.323430 Z-0.125000 I0.558136 J0.898780
G03 X45.519760 Y180.170208 Z-0.125000 I-0.503859 J1.022345
G02 X45.776336 Y181.103528 Z-0.125000 I4.189359 J-0.649755
G02 X46.284618 Y181.927395 Z-0.125000 I2.652462 J-1.067703
G03 X46.465165 Y182.157375 Z-0.125000 I-1.920431 J1.693509
G02 X46.860704 Y182.354608 Z-0.125000 I0.378374 J-0.263573
G03 X46.529633 Y181.672774 Z-0.125000 I9.360678 J-4.966458
G03 X46.323423 Y181.045450 Z-0.125000 I3.065481 J-1.355218
G03 X46.067566 Y177.872254 Z-0.125000 I11.273861 J-2.505933
G03 X46.280737 Y174.736725 Z-0.125000 I155.751343 J9.013849
G03 X46.692723 Y171.766457 Z-0.125000 I25.101653 J1.967977
G02 X46.857881 Y168.729978 Z-0.125000 I-10.456799 J-2.091491
G03 X46.935176 Y167.993939 Z-0.125000 I1.912884 J-0.171197
G03 X47.216304 Y167.266303 Z-0.125000 I5.316935 J1.636111
G02 X47.436885 Y166.585704 Z-0.125000 I-2.565405 J-1.207489
G02 X47.514048 Y165.914458 Z-0.125000 I-4.585086 J-0.867139
G03 X49.091706 Y160.827227 Z-0.125000 I10.439323 J0.449206
G03 X52.807126 Y157.031514 Z-0.125000 I10.495453 J6.557166
G03 X52.366866 Y156.423592 Z-0.125000 I0.462837 J-0.798569
G03 X52.312179 Y155.712830 Z-0.125000 I2.664583 J-0.562504
G03 X52.664214 Y152.579124 Z-0.125000 I28.206169 J1.582002
G03 X53.527498 Y149.466194 Z-0.125000 I15.516905 J2.627014
G03 X56.322322 Y144.914392 Z-0.125000 I14.100330 J5.523741
G03 X60.824354 Y141.990480 Z-0.125000 I7.598676 J6.771991
G02 X61.455115 Y141.397761 Z-0.125000 I-0.303103 J-0.954540
G02 X61.385270 Y140.554322 Z-0.125000 I-0.902940 J-0.349839
G02 X61.232744 Y140.301108 Z-0.125000 I-20.037647 J11.897353
G02 X61.078001 Y140.048791 Z-0.125000 I-77.098647 J47.110212
G03 X60.826101 Y138.489488 Z-0.125000 I1.763296 J-1.084853
G03 X61.758862 Y137.211400 Z-0.125000 I1.981120 J0.466427
G02 X63.352429 Y136.092781 Z-0.125000 I-7.127742 J-11.848471
G02 X64.800159 Y134.802633 Z-0.125000 I-13.473963 J-16.577058
G02 X65.371586 Y134.224000 Z-0.125000 I-15.019813 J-15.404206
G03 X66.040173 Y133.803566 Z-0.125000 I1.160287 J1.103307
