%
(Header)
(Generated by gcodetools from Inkscape.)
(Using default header. To add your own header create file "header" in the output dir.)
M3
(Header end.)
G21 (All units in mm)

(Start cutting path id: path4181)
(Change tool to Default tool)

G00 Z5.000000
G00 X119.129147 Y76.986246

G01 Z-0.125000 F100.0(Penetrate)
G03 X119.092891 Y76.825346 Z-0.125000 I4.678905 J-1.138844 F400.000000
G03 X119.059947 Y76.649366 Z-0.125000 I4.509466 J-0.935282
G01 X119.456542 Y76.649366 Z-0.125000
G03 X119.501825 Y76.817550 Z-0.125000 I-74.588563 J20.173079
G02 X119.547175 Y76.986246 Z-0.125000 I115.524152 J-30.965157
G01 X119.129147 Y76.986246 Z-0.125000
G01 X119.129147 Y76.986246 Z-0.125000
G00 Z5.000000

(End cutting path id: path4181)


(Start cutting path id: path4177)
(Change tool to Default tool)

G00 Z5.000000
G00 X119.009011 Y76.285790

G01 Z-0.125000 F100.0(Penetrate)
G02 X119.006113 Y76.261235 Z-0.125000 I-0.363229 J0.030421 F400.000000
G03 X119.002689 Y76.236610 Z-0.125000 I0.926983 J-0.141432
G02 X118.980184 Y76.090540 Z-0.125000 I-1.459564 J0.150110
G03 X118.953862 Y75.948560 Z-0.125000 I3.545375 J-0.730710
G01 X119.266855 Y75.948560 Z-0.125000
G02 X119.312239 Y76.117106 Z-0.125000 I172.914114 J-46.469307
G02 X119.358188 Y76.285790 Z-0.125000 I34.707686 J-9.363707
G01 X119.009014 Y76.285790 Z-0.125000
G01 X119.009011 Y76.285790 Z-0.125000
G00 Z5.000000

(End cutting path id: path4177)


(Start cutting path id: path4179)
(Change tool to Default tool)

G00 Z5.000000
G00 X118.891683 Y75.590251

G01 Z-0.125000 F100.0(Penetrate)
G02 X118.845516 Y75.419846 Z-0.125000 I-2.826662 J0.674354 F400.000000
G03 X118.795781 Y75.253021 Z-0.125000 I15.965799 J-4.850667
G01 X119.079268 Y75.253021 Z-0.125000
G02 X119.124652 Y75.421571 Z-0.125000 I171.809447 J-46.171284
G02 X119.170600 Y75.590251 Z-0.125000 I34.661126 J-9.351145
G01 X118.891683 Y75.590251 Z-0.125000
G01 X118.891683 Y75.590251 Z-0.125000
G00 Z5.000000

(End cutting path id: path4179)


(Start cutting path id: path4175)
(Change tool to Default tool)

G00 Z5.000000
G00 X118.681616 Y74.889445

G01 Z-0.125000 F100.0(Penetrate)
G02 X118.621261 Y74.719780 Z-0.125000 I-7.907513 J2.717396 F400.000000
G02 X118.557964 Y74.552565 Z-0.125000 I-8.994999 J3.309365
G01 X118.889222 Y74.552565 Z-0.125000
G01 X118.980557 Y74.889445 Z-0.125000
G01 X118.681616 Y74.889445 Z-0.125000
G01 X118.681616 Y74.889445 Z-0.125000
G00 Z5.000000

(End cutting path id: path4175)


(Start cutting path id: path4053)
(Change tool to Default tool)

G00 Z5.000000
G00 X118.414643 Y74.192150

G01 Z-0.125000 F100.0(Penetrate)
G03 X118.353884 Y74.043925 Z-0.125000 I106.586278 J-43.777105 F400.000000
G02 X118.293098 Y73.897076 Z-0.125000 I-17.776750 J7.272398
G02 X118.284397 Y73.875513 Z-0.125000 I-0.940684 J0.367051
G03 X118.275882 Y73.854920 Z-0.125000 I3.438315 J-1.433693
G01 X118.701284 Y73.854920 Z-0.125000
G01 X118.791914 Y74.192150 Z-0.125000
G01 X118.414640 Y74.192150 Z-0.125000
G01 X118.414643 Y74.192150 Z-0.125000
G00 Z5.000000

(End cutting path id: path4053)


(Start cutting path id: path4171)
(Change tool to Default tool)

G00 Z5.000000
G00 X118.604685 Y73.490992

G01 Z-0.125000 F100.0(Penetrate)
G01 X118.125184 Y73.490992 Z-0.125000 F400.000000
G02 X118.122718 Y73.484459 Z-0.125000 I-0.054211 J0.016732
G03 X118.119568 Y73.477304 Z-0.125000 I0.458666 J-0.206214
G02 X118.064843 Y73.351840 Z-0.125000 I-2.903588 J1.191832
G02 X117.950952 Y73.154126 Z-0.125000 I-1.158521 J0.535693
G01 X118.610307 Y73.154126 Z-0.125000
G02 X118.592021 Y73.339902 Z-0.125000 I0.869797 J0.179406
G02 X118.604691 Y73.491003 Z-0.125000 I0.992189 J-0.007117
G01 X118.604685 Y73.490992 Z-0.125000
G00 Z5.000000

(End cutting path id: path4171)


(Start cutting path id: path445)
(Change tool to Default tool)

G00 Z5.000000
G00 X116.525097 Y73.490992

G01 Z-0.125000 F100.0(Penetrate)
G01 X115.487061 Y73.490992 Z-0.125000 F400.000000
G02 X115.669067 Y73.315260 Z-0.125000 I-1.139473 J-1.362268
G02 X115.789163 Y73.154114 Z-0.125000 I-0.821174 J-0.737320
G01 X116.672284 Y73.154114 Z-0.125000
G02 X116.583129 Y73.308631 Z-0.125000 I0.601568 J0.450083
G02 X116.525097 Y73.490992 Z-0.125000 I0.915498 J0.391748
G01 X116.525097 Y73.490992 Z-0.125000
G00 Z5.000000

(End cutting path id: path445)


(Start cutting path id: path1273)
(Change tool to Default tool)

G00 Z5.000000
G00 X115.918082 Y72.767001

G01 Z-0.125000 F100.0(Penetrate)
G02 X115.911520 Y72.612637 Z-0.125000 I-0.683591 J-0.048263 F400.000000
G02 X115.875227 Y72.458928 Z-0.125000 I-1.021899 J0.160149
G01 X118.939807 Y72.458928 Z-0.125000
G03 X119.008124 Y72.479952 Z-0.125000 I-0.301063 J1.099796
G02 X119.080320 Y72.498972 Z-0.125000 I0.167418 J-0.488943
G03 X119.007717 Y72.566586 Z-0.125000 I-6.155915 J-6.537377
G03 X118.922595 Y72.644404 Z-0.125000 I-10.540291 J-11.444180
G02 X118.843300 Y72.723271 Z-0.125000 I0.864173 J0.948161
G02 X118.781379 Y72.795805 Z-0.125000 I0.926021 J0.853219
G01 X115.912813 Y72.795805 Z-0.125000
G03 X115.915292 Y72.781402 Z-0.125000 I0.051679 J0.001481
G02 X115.918091 Y72.767001 Z-0.125000 I-0.058147 J-0.018772
G01 X115.918082 Y72.767001 Z-0.125000
G00 Z5.000000

(End cutting path id: path1273)


(Start cutting path id: path4173)
(Change tool to Default tool)

G00 Z5.000000
G00 X115.602631 Y72.007530

G01 Z-0.125000 F100.0(Penetrate)
G03 X115.498734 Y71.887741 Z-0.125000 I2.443452 J-2.224257 F400.000000
G03 X115.393267 Y71.758472 Z-0.125000 I10.473959 J-8.652961
G01 X118.025072 Y71.758472 Z-0.125000
G02 X118.145264 Y71.931683 Z-0.125000 I1.902531 J-1.191869
G02 X118.290640 Y72.095349 Z-0.125000 I1.196497 J-0.916389
G01 X115.671835 Y72.095349 Z-0.125000
G03 X115.638809 Y72.052037 Z-0.125000 I0.973164 J-0.776297
G02 X115.602631 Y72.007530 Z-0.125000 I-0.437989 J0.319065
G01 X115.602631 Y72.007530 Z-0.125000
G00 Z5.000000

(End cutting path id: path4173)


(Start cutting path id: path369)
(Change tool to Default tool)

G00 Z5.000000
G00 X116.945230 Y71.404379

G01 Z-0.125000 F100.0(Penetrate)
G02 X117.101333 Y71.260840 Z-0.125000 I-0.367938 J-0.556799 F400.000000
G02 X117.205179 Y71.067501 Z-0.125000 I-0.495293 J-0.390589
G01 X117.698380 Y71.067501 Z-0.125000
G02 X117.762208 Y71.229064 Z-0.125000 I7.348127 J-2.809640
G02 X117.837487 Y71.404379 Z-0.125000 I4.828791 J-1.969623
G01 X116.945230 Y71.404379 Z-0.125000
G01 X116.945230 Y71.404379 Z-0.125000
G00 Z5.000000

(End cutting path id: path369)


(Start cutting path id: path367)
(Change tool to Default tool)

G00 Z5.000000
G00 X117.219581 Y70.703923

G01 Z-0.125000 F100.0(Penetrate)
G02 X117.161559 Y70.543698 Z-0.125000 I-0.688478 J0.158701 F400.000000
G02 X117.042185 Y70.367046 Z-0.125000 I-0.757308 J0.383096
G01 X117.411732 Y70.367046 Z-0.125000
G03 X117.481942 Y70.520166 Z-0.125000 I-1.844374 J0.938357
G03 X117.555056 Y70.703923 Z-0.125000 I-8.685816 J3.562351
G01 X117.219581 Y70.703923 Z-0.125000
G01 X117.219581 Y70.703923 Z-0.125000
G00 Z5.000000

(End cutting path id: path367)


(Start cutting path id: path381)
(Change tool to Default tool)

G00 Z5.000000
G00 X116.702494 Y70.008386

G01 Z-0.125000 F100.0(Penetrate)
G01 X116.701323 Y70.002734 Z-0.125000 F400.000000
G01 X116.700800 Y70.001020 Z-0.125000
G03 X116.714960 Y69.880112 Z-0.125000 I0.264459 J-0.030311
G03 X116.758410 Y69.785335 Z-0.125000 I0.594355 J0.215129
G03 X116.889222 Y69.838981 Z-0.125000 I-0.026067 J0.249871
G03 X117.099857 Y70.008748 Z-0.125000 I-21.394193 J26.760038
G01 X116.702556 Y70.008748 Z-0.125000
G01 X116.702494 Y70.008386 Z-0.125000
G00 Z5.000000

(End cutting path id: path381)


(Start cutting path id: path399)
(Change tool to Default tool)

G00 Z5.000000
G00 X114.713188 Y74.192150

G01 Z-0.125000 F100.0(Penetrate)
G03 X114.889734 Y74.022788 Z-0.125000 I15.279663 J15.750995 F400.000000
G03 X115.071142 Y73.854920 Z-0.125000 I6.852702 J7.223507
G01 X116.006254 Y73.854920 Z-0.125000
G02 X115.690018 Y74.001351 Z-0.125000 I0.619649 J1.752900
G02 X115.407669 Y74.192150 Z-0.125000 I1.285649 J2.206846
G01 X114.713188 Y74.192150 Z-0.125000
G01 X114.713188 Y74.192150 Z-0.125000
G00 Z5.000000

(End cutting path id: path399)


(Start cutting path id: path1835)
(Change tool to Default tool)

G00 Z5.000000
G00 X114.353123 Y74.552565

G01 Z-0.125000 F100.0(Penetrate)
G01 X115.002994 Y74.552565 Z-0.125000 F400.000000
G02 X114.909511 Y74.645967 Z-0.125000 I8.930698 J9.031799
G02 X114.819975 Y74.736989 Z-0.125000 I13.148655 J13.023664
G01 X114.674546 Y74.884879 Z-0.125000
G01 X114.671739 Y74.886745 Z-0.125000
G01 X114.669636 Y74.889451 Z-0.125000
G01 X114.035223 Y74.889451 Z-0.125000
G03 X114.192246 Y74.720588 Z-0.125000 I9.484490 J8.662111
G03 X114.353132 Y74.552571 Z-0.125000 I14.939551 J14.144332
G01 X114.353123 Y74.552565 Z-0.125000
G00 Z5.000000

(End cutting path id: path1835)


(Start cutting path id: path443)
(Change tool to Default tool)

G00 Z5.000000
G00 X113.423280 Y75.590251

G01 Z-0.125000 F100.0(Penetrate)
G03 X113.564276 Y75.422083 Z-0.125000 I156.566692 J131.126078 F400.000000
G03 X113.708872 Y75.253021 Z-0.125000 I9.180623 J7.705659
G01 X114.307457 Y75.253021 Z-0.125000
G02 X114.140093 Y75.421570 Z-0.125000 I220.144865 J218.764152
G03 X113.972335 Y75.590251 Z-0.125000 I-72.349262 J-71.785568
G01 X113.423280 Y75.590251 Z-0.125000
G01 X113.423280 Y75.590251 Z-0.125000
G00 Z5.000000

(End cutting path id: path443)


(Start cutting path id: path433)
(Change tool to Default tool)

G00 Z5.000000
G00 X112.864743 Y76.285790

G01 Z-0.125000 F100.0(Penetrate)
G03 X112.995917 Y76.118304 Z-0.125000 I15.170663 J11.746508 F400.000000
G03 X113.131366 Y75.948560 Z-0.125000 I24.031981 J19.037675
G01 X113.616134 Y75.948560 Z-0.125000
G03 X113.448770 Y76.117108 Z-0.125000 I-71.534192 J-70.864282
G02 X113.281012 Y76.285790 Z-0.125000 I210.064847 J209.081702
G01 X112.864743 Y76.285790 Z-0.125000
G01 X112.864743 Y76.285790 Z-0.125000
G00 Z5.000000

(End cutting path id: path433)


(Start cutting path id: path137)
(Change tool to Default tool)

G00 Z5.000000
G00 X112.332201 Y76.986246

G01 Z-0.125000 F100.0(Penetrate)
G03 X112.456172 Y76.820236 Z-0.125000 I18.211561 J13.470554 F400.000000
G03 X112.585122 Y76.649366 Z-0.125000 I178.367391 J134.474435
G01 X112.919192 Y76.649366 Z-0.125000
G01 X112.584070 Y76.986246 Z-0.125000
G01 X112.332201 Y76.986246 Z-0.125000
G01 X112.332201 Y76.986246 Z-0.125000
G00 Z5.000000

(End cutting path id: path137)


(Start cutting path id: path95)
(Change tool to Default tool)

G00 Z5.000000
G00 X111.648957 Y77.674758

G01 Z-0.125000 F100.0(Penetrate)
G02 X111.875780 Y77.519086 Z-0.125000 I-0.528111 J-1.012566 F400.000000
G02 X112.056794 Y77.337878 Z-0.125000 I-1.329739 J-1.509331
G01 X112.235596 Y77.337878 Z-0.125000
G01 X111.901529 Y77.674758 Z-0.125000
G01 X111.648957 Y77.674758 Z-0.125000
G01 X111.648957 Y77.674758 Z-0.125000
G00 Z5.000000

(End cutting path id: path95)


(Start cutting path id: path97)
(Change tool to Default tool)

G00 Z5.000000
G00 X108.883668 Y78.375214

G01 Z-0.125000 F100.0(Penetrate)
G03 X109.215056 Y78.200120 Z-0.125000 I4.468646 J8.056321 F400.000000
G03 X109.552506 Y78.038334 Z-0.125000 I4.498926 J8.950982
G01 X109.808592 Y78.038334 Z-0.125000
G01 X109.310475 Y78.375214 Z-0.125000
G01 X108.883668 Y78.375214 Z-0.125000
G01 X108.883668 Y78.375214 Z-0.125000
G00 Z5.000000

(End cutting path id: path97)


(Start cutting path id: path93)
(Change tool to Default tool)

G00 Z5.000000
G00 X107.739192 Y79.070398

G01 Z-0.125000 F100.0(Penetrate)
G03 X108.006359 Y78.899019 Z-0.125000 I9.287550 J14.184684 F400.000000
G03 X108.271031 Y78.733521 Z-0.125000 I38.095596 J60.629656
G01 X108.780039 Y78.733521 Z-0.125000
G01 X108.281922 Y79.070398 Z-0.125000
G01 X107.739192 Y79.070398 Z-0.125000
G01 X107.739192 Y79.070398 Z-0.125000
G00 Z5.000000

(End cutting path id: path93)


(Start cutting path id: path103)
(Change tool to Default tool)

G00 Z5.000000
G00 X106.689210 Y79.771207

G01 Z-0.125000 F100.0(Penetrate)
G02 X106.918029 Y79.614956 Z-0.125000 I-13.230002 J-19.620129 F400.000000
G03 X107.146932 Y79.459619 Z-0.125000 I8.985165 J12.994166
G01 X107.185571 Y79.433965 Z-0.125000
G01 X107.743758 Y79.433965 Z-0.125000
G01 X107.244939 Y79.771195 Z-0.125000
G01 X106.689210 Y79.771195 Z-0.125000
G01 X106.689210 Y79.771207 Z-0.125000
G00 Z5.000000

(End cutting path id: path103)


(Start cutting path id: path513)
(Change tool to Default tool)

G00 Z5.000000
G00 X106.213225 Y80.468851

G01 Z-0.125000 F100.0(Penetrate)
G01 X105.664170 Y80.468851 Z-0.125000 F400.000000
G03 X105.911886 Y80.300239 Z-0.125000 I21.147131 J30.801823
G02 X106.159478 Y80.131971 Z-0.125000 I-25.467462 J-37.739737
G01 X106.711694 Y80.131971 Z-0.125000
G01 X106.213225 Y80.468851 Z-0.125000
G01 X106.213225 Y80.468851 Z-0.125000
G00 Z5.000000

(End cutting path id: path513)


(Start cutting path id: path505)
(Change tool to Default tool)

G00 Z5.000000
G00 X104.639483 Y81.169660

G01 Z-0.125000 F100.0(Penetrate)
G03 X104.885540 Y81.001156 Z-0.125000 I294.121140 J429.222506 F400.000000
G02 X105.131278 Y80.832427 Z-0.125000 I-55.736036 J-81.437911
G01 X105.675411 Y80.832427 Z-0.125000
G01 X105.176944 Y81.169660 Z-0.125000
G01 X104.639483 Y81.169660 Z-0.125000
G01 X104.639483 Y81.169660 Z-0.125000
G00 Z5.000000

(End cutting path id: path505)


(Start cutting path id: path471)
(Change tool to Default tool)

G00 Z5.000000
G00 X101.945855 Y81.169660

G01 Z-0.125000 F100.0(Penetrate)
G03 X101.961678 Y81.001632 Z-0.125000 I26.112568 J2.374109 F400.000000
G03 X101.978875 Y80.832427 Z-0.125000 I20.222798 J1.969944
G01 X102.654741 Y80.832427 Z-0.125000
G02 X102.653006 Y80.846296 Z-0.125000 I0.240968 J0.037186
G03 X102.651213 Y80.859125 Z-0.125000 I-0.149761 J-0.014388
G02 X102.632114 Y81.034187 Z-0.125000 I1.205571 J0.220102
G02 X102.636115 Y81.169660 Z-0.125000 I1.022449 J0.037603
G01 X101.945847 Y81.169660 Z-0.125000
G01 X101.945855 Y81.169660 Z-0.125000
G00 Z5.000000

(End cutting path id: path471)


(Start cutting path id: path327)
(Change tool to Default tool)

G00 Z5.000000
G00 X101.917402 Y81.527614

G01 Z-0.125000 F100.0(Penetrate)
G01 X102.766098 Y81.527614 Z-0.125000 F400.000000
G02 X102.885372 Y81.654212 Z-0.125000 I0.556894 J-0.405191
G02 X103.003915 Y81.734872 Z-0.125000 I0.500800 J-0.608566
G02 X103.200150 Y81.813806 Z-0.125000 I0.417983 J-0.755745
G02 X103.397350 Y81.839554 Z-0.125000 I0.197200 J-0.742276
G02 X103.793584 Y81.736654 Z-0.125000 I-0.000000 J-0.814333
G02 X104.011392 Y81.599978 Z-0.125000 I-1.198212 J-2.151376
G01 X104.062327 Y81.564850 Z-0.125000
G02 X104.089318 Y81.546406 Z-0.125000 I-0.767186 J-1.151685
G03 X104.116424 Y81.527614 Z-0.125000 I1.879178 J2.681472
G01 X104.646860 Y81.527614 Z-0.125000
G01 X104.367590 Y81.716254 Z-0.125000
G02 X104.262723 Y81.789445 Z-0.125000 I2.476676 J3.660296
G03 X104.157874 Y81.864844 Z-0.125000 I-103.813160 J-144.250398
G01 X101.936017 Y81.864844 Z-0.125000
G03 X101.919723 Y81.711509 Z-0.125000 I1.389450 J-0.225185
G03 X101.917391 Y81.527614 Z-0.125000 I2.393050 J-0.122313
G01 X101.917402 Y81.527614 Z-0.125000
G00 Z5.000000

(End cutting path id: path327)


(Start cutting path id: path323)
(Change tool to Default tool)

G00 Z5.000000
G00 X102.062481 Y82.228772

G01 Z-0.125000 F100.0(Penetrate)
G01 X103.632006 Y82.228772 Z-0.125000 F400.000000
G02 X103.584869 Y82.261543 Z-0.125000 I0.479815 J0.740445
G03 X103.537513 Y82.293760 Z-0.125000 I-0.400914 J-0.538410
G01 X103.425453 Y82.363313 Z-0.125000
G03 X103.243573 Y82.474719 Z-0.125000 I-6.449193 J-10.324742
G03 X103.078738 Y82.565653 Z-0.125000 I-1.320838 J-2.199422
G01 X102.405330 Y82.565653 Z-0.125000
G03 X102.202382 Y82.407072 Z-0.125000 I0.601749 J-0.979258
G03 X102.062481 Y82.228772 Z-0.125000 I0.612358 J-0.624519
G01 X102.062481 Y82.228772 Z-0.125000
G00 Z5.000000

(End cutting path id: path323)


(Start cutting path id: path499)
(Change tool to Default tool)

G00 Z5.000000
G00 X102.015409 Y80.468851

G01 Z-0.125000 F100.0(Penetrate)
G01 X102.023848 Y80.389110 Z-0.125000 F400.000000
G02 X102.015980 Y80.254982 Z-0.125000 I-0.420741 J-0.042616
G02 X101.969751 Y80.131971 Z-0.125000 I-0.455296 J0.100915
G01 X102.739408 Y80.131971 Z-0.125000
G03 X102.725739 Y80.299947 Z-0.125000 I-9.048510 J-0.651759
G03 X102.707793 Y80.468851 Z-0.125000 I-5.503539 J-0.499339
G01 X102.015418 Y80.468851 Z-0.125000
G01 X102.015409 Y80.468851 Z-0.125000
G00 Z5.000000

(End cutting path id: path499)


(Start cutting path id: path5)
(Change tool to Default tool)

G00 Z5.000000
G00 X101.011093 Y80.374005

G01 Z-0.125000 F100.0(Penetrate)
G02 X101.257739 Y80.269120 Z-0.125000 I-0.795372 J-2.212834 F400.000000
G03 X101.600545 Y80.326583 Z-0.125000 I0.131596 J0.266212
G03 X101.545591 Y80.849163 Z-0.125000 I-89.405209 J-9.137654
G02 X101.498672 Y81.354434 Z-0.125000 I16.701871 J1.805747
G02 X101.627627 Y82.243591 Z-0.125000 I2.022322 J0.160629
G02 X102.233906 Y82.953115 Z-0.125000 I1.306755 J-0.502812
G02 X103.099512 Y83.006750 Z-0.125000 I0.486793 J-0.844530
G02 X103.786571 Y82.653122 Z-0.125000 I-1.972057 J-4.675733
G02 X104.212662 Y82.364278 Z-0.125000 I-2.997651 J-4.880727
G03 X104.633159 Y82.065778 Z-0.125000 I6.598279 J8.849535
G03 X107.881248 Y79.869298 Z-0.125000 I3582.162545 J5293.675252
G02 X111.212665 Y77.617851 Z-0.125000 I-51527.716149 J-76244.005683
G03 X110.911687 Y78.344026 Z-0.125000 I-1.310731 J-0.117798
G02 X110.829768 Y79.161381 Z-0.125000 I0.561153 J0.469024
G02 X111.228634 Y78.972064 Z-0.125000 I-0.087361 J-0.698897
G02 X111.510903 Y78.695582 Z-0.125000 I-10.417421 J-10.917769
G02 X113.255544 Y76.937065 Z-0.125000 I-565.171956 J-562.457346
G03 X115.003346 Y75.180656 Z-0.125000 I288.072667 J284.913185
G03 X115.657093 Y74.547914 Z-0.125000 I21.325698 J21.379500
G03 X116.436925 Y74.190395 Z-0.125000 I0.921945 J0.981720
G02 X116.821176 Y74.014057 Z-0.125000 I-0.069600 J-0.658485
G02 X116.961037 Y73.685251 Z-0.125000 I-0.304792 J-0.323795
G03 X117.033622 Y73.427845 Z-0.125000 I0.475736 J-0.004786
G03 X117.263842 Y73.264415 Z-0.125000 I0.311826 J0.195394
G03 X117.578754 Y73.374961 Z-0.125000 I0.068995 J0.307273
G03 X117.725778 Y73.626235 Z-0.125000 I-0.784921 J0.627917
G03 X118.240996 Y74.902356 Z-0.125000 I-556.169791 J225.288942
G03 X118.578690 Y76.265064 Z-0.125000 I-4.678031 J1.882463
G02 X118.905390 Y77.629249 Z-0.125000 I5.333361 J-0.556042
G02 X119.785695 Y78.809396 Z-0.125000 I2.534249 J-0.971972
G03 X120.045424 Y79.249486 Z-0.125000 I-0.413721 J0.540853
G03 X120.000328 Y79.846029 Z-0.125000 I-1.331943 J0.199288
G03 X119.236874 Y82.050570 Z-0.125000 I-33.142304 J-10.243042
G02 X118.892386 Y84.435874 Z-0.125000 I5.072726 J1.950136
G03 X118.877560 Y85.316343 Z-0.125000 I-4.546367 J0.363808
G02 X118.793676 Y86.207742 Z-0.125000 I22.584172 J2.574922
G03 X118.271797 Y87.376497 Z-0.125000 I-1.883804 J-0.140273
G03 X117.104361 Y87.971876 Z-0.125000 I-1.442740 J-1.386704
G03 X116.790696 Y87.974581 Z-0.125000 I-0.167318 J-1.214456
G02 X116.423226 Y88.157003 Z-0.125000 I-0.044653 J0.371378
G02 X116.753792 Y88.433649 Z-0.125000 I0.376688 J-0.114285
G03 X116.997924 Y88.899964 Z-0.125000 I-0.037355 J0.316620
G03 X116.543966 Y89.025809 Z-0.125000 I-0.286896 J-0.153213
G02 X116.166088 Y88.888026 Z-0.125000 I-0.547554 J0.914627
G03 X113.966191 Y88.256216 Z-0.125000 I1.526243 J-9.460035
G03 X111.900474 Y87.288289 Z-0.125000 I11.434381 J-27.091113
G02 X111.507093 Y87.092879 Z-0.125000 I-5.816362 J11.215299
G02 X110.735624 Y87.068034 Z-0.125000 I-0.414202 J0.871539
G02 X113.404128 Y88.616572 Z-0.125000 I6.746001 J-8.551473
G03 X115.965857 Y89.971378 Z-0.125000 I-5.287447 J13.097070
G03 X115.281574 Y89.945612 Z-0.125000 I-0.310488 J-0.853534
G02 X114.760960 Y89.734264 Z-0.125000 I-3.002029 J6.647987
G02 X114.292906 Y89.798066 Z-0.125000 I-0.172960 J0.479887
G02 X114.089660 Y90.248187 Z-0.125000 I0.282686 J0.398589
G03 X114.385176 Y90.261957 Z-0.125000 I0.099866 J1.034737
G03 X114.650659 Y90.436475 Z-0.125000 I-0.078221 J0.408182
G03 X114.848669 Y90.475245 Z-0.125000 I-0.035872 J0.708236
G03 X115.007560 Y90.614927 Z-0.125000 I-0.092883 J0.265868
G02 X115.015981 Y90.619307 Z-0.125000 I0.032382 J-0.051967
G03 X115.023731 Y90.622998 Z-0.125000 I-0.039606 J0.093141
G02 X115.029468 Y90.627913 Z-0.125000 I0.093136 J-0.102900
G02 X115.034964 Y90.632142 Z-0.125000 I0.086200 J-0.106336
G02 X115.105349 Y90.639785 Z-0.125000 I0.367926 J-3.060629
G03 X115.174071 Y90.646536 Z-0.125000 I-2.664111 J27.472572
G03 X115.159046 Y90.684449 Z-0.125000 I-3.230027 J-1.258124
G03 X115.143509 Y90.722061 Z-0.125000 I-2.210903 J-0.891263
G02 X115.089732 Y90.676921 Z-0.125000 I-2.885092 J3.382503
G02 X115.034964 Y90.632134 Z-0.125000 I-4.563995 J5.525257
G01 X115.018454 Y90.632134 Z-0.125000
G01 X115.012713 Y90.623619 Z-0.125000
G01 X115.007560 Y90.615962 Z-0.125000
G02 X114.828047 Y90.527897 Z-0.125000 I-92.024850 J187.356838
G03 X114.648904 Y90.439619 Z-0.125000 I19.522346 J-39.842682
G03 X114.353804 Y90.416998 Z-0.125000 I-0.053526 J-1.237881
G03 X114.086852 Y90.253090 Z-0.125000 I0.087992 J-0.442651
G03 X112.634732 Y89.700667 Z-0.125000 I2.716009 J-9.324176
G02 X111.122034 Y89.278985 Z-0.125000 I-1.971983 J4.150003
G03 X111.053316 Y89.252494 Z-0.125000 I13.658178 J-35.531026
G02 X110.984683 Y89.226292 Z-0.125000 I-3.129167 J8.093572
G03 X111.012734 Y89.294007 Z-0.125000 I-5.266129 J2.221214
G03 X111.040184 Y89.361535 Z-0.125000 I-145.487350 J59.179490
G01 X111.039620 Y89.361535 Z-0.125000
G02 X112.245402 Y90.072636 Z-0.125000 I1.710337 J-1.522299
G03 X113.490161 Y90.629312 Z-0.125000 I-0.762417 J3.374822
G02 X113.882963 Y90.839108 Z-0.125000 I1.004950 J-1.408950
G03 X114.112983 Y91.224733 Z-0.125000 I-0.127652 J0.337557
G03 X113.875244 Y91.431072 Z-0.125000 I-0.235776 J-0.031527
G02 X113.483137 Y91.506814 Z-0.125000 I-0.008335 J1.009670
G03 X113.240341 Y91.573125 Z-0.125000 I-0.405679 J-1.007731
G02 X113.051060 Y91.776948 Z-0.125000 I0.033502 J0.220911
G02 X113.207599 Y92.073056 Z-0.125000 I0.311675 J0.024663
G02 X113.479623 Y92.190760 Z-0.125000 I0.664775 J-1.163170
G03 X114.251019 Y92.493038 Z-0.125000 I-1.519046 J5.011924
G02 X115.071983 Y92.714519 Z-0.125000 I0.988965 J-2.033526
G03 X115.503013 Y92.865226 Z-0.125000 I-0.066749 J0.882646
G03 X115.761198 Y93.333830 Z-0.125000 I-0.332188 J0.488452
G03 X115.732010 Y93.792766 Z-0.125000 I-2.373091 J0.079471
G03 X115.347389 Y94.226437 Z-0.125000 I-0.534337 J-0.086506
G02 X115.074440 Y94.400694 Z-0.125000 I0.157667 J0.547860
G02 X114.926904 Y94.936375 Z-0.125000 I0.486605 J0.422178
G03 X115.661617 Y95.022098 Z-0.125000 I0.307873 J0.552687
G03 X115.995152 Y95.522664 Z-0.125000 I-0.845015 J0.924447
G02 X116.219361 Y96.097722 Z-0.125000 I10.789077 J-3.875315
G03 X116.363646 Y96.675220 Z-0.125000 I-1.789844 J0.753959
G02 X116.778351 Y98.927766 Z-0.125000 I12.764148 J-1.185495
G03 X116.813286 Y101.424549 Z-0.125000 I-4.722443 J1.314711
G02 X116.797374 Y103.188849 Z-0.125000 I3.694630 J0.915543
G03 X117.146302 Y105.116168 Z-0.125000 I-20.865249 J4.772762
G03 X117.416729 Y107.266892 Z-0.125000 I-131.677053 J17.649094
G03 X117.319485 Y109.480492 Z-0.125000 I-6.871210 J0.807083
G02 X116.980604 Y111.819491 Z-0.125000 I18.821238 J3.920925
G02 X117.019841 Y114.186612 Z-0.125000 I11.941632 J0.985942
G03 X116.950907 Y114.641590 Z-0.125000 I-0.868762 J0.101084
G03 X116.536126 Y114.967510 Z-0.125000 I-0.514217 J-0.227522
G02 X114.194290 Y115.417724 Z-0.125000 I17.658150 J98.166461
G02 X111.864431 Y115.925104 Z-0.125000 I19.065917 J93.152556
G03 X111.025583 Y115.951451 Z-0.125000 I-0.486162 J-2.111637
G03 X110.280854 Y115.634596 Z-0.125000 I0.278482 J-1.688159
G02 X107.051649 Y113.244968 Z-0.125000 I-543.641227 J731.268663
G03 X103.932138 Y110.714895 Z-0.125000 I25.583588 J-34.732040
G03 X101.373598 Y108.384922 Z-0.125000 I104.290863 J-117.091417
G03 X98.850499 Y106.016855 Z-0.125000 I294.629299 J-316.446165
G03 X96.121145 Y103.235352 Z-0.125000 I36.373036 J-38.420935
G03 X93.824008 Y100.021179 Z-0.125000 I12.340396 J-11.247515
G02 X92.479123 Y97.911718 Z-0.125000 I-16.895368 J9.288183
G02 X90.867973 Y95.948419 Z-0.125000 I-18.733565 J13.730667
G03 X89.805580 Y94.675361 Z-0.125000 I13.348817 J-12.219677
G03 X88.997751 Y93.180671 Z-0.125000 I4.406847 J-3.347399
G03 X88.842939 Y90.923153 Z-0.125000 I3.953134 J-1.405158
G03 X89.570340 Y88.878523 Z-0.125000 I7.767552 J1.611694
G02 X89.954104 Y87.826550 Z-0.125000 I-3.837218 J-1.995815
G03 X90.597488 Y86.814745 Z-0.125000 I1.723284 J0.385339
G02 X91.229141 Y86.137313 Z-0.125000 I-1.757973 J-2.272372
G02 X91.670302 Y85.305638 Z-0.125000 I-3.889554 J-2.596057
G03 X91.946296 Y84.809836 Z-0.125000 I2.217096 J0.909451
G03 X92.348976 Y84.579187 Z-0.125000 I0.456827 J0.330718
G02 X93.172839 Y84.171282 Z-0.125000 I-0.120569 J-1.279466
G02 X93.686306 Y83.548175 Z-0.125000 I-5.294791 J-4.886254
G03 X94.022603 Y83.364808 Z-0.125000 I0.364237 J0.267944
G03 X94.381143 Y83.542898 Z-0.125000 I0.024769 J0.400094
G02 X94.623204 Y83.788490 Z-0.125000 I0.752269 J-0.499368
G02 X95.004668 Y83.800386 Z-0.125000 I0.200025 J-0.292059
G02 X95.184382 Y83.462908 Z-0.125000 I-0.187710 J-0.316549
G02 X95.121996 Y83.119604 Z-0.125000 I-1.421276 J0.080957
G03 X94.784345 Y81.328295 Z-0.125000 I7.466850 J-2.334931
G02 X94.516034 Y79.530209 Z-0.125000 I-11.550990 J0.804584
G03 X94.756617 Y78.257278 Z-0.125000 I1.568067 J-0.362836
G03 X95.851608 Y77.444296 Z-0.125000 I1.729771 J1.185893
G02 X96.553339 Y77.149858 Z-0.125000 I-1.288690 J-4.054766
G02 X97.129570 Y76.566796 Z-0.125000 I-0.639640 J-1.208415
G03 X97.896729 Y75.696475 Z-0.125000 I2.104474 J1.081752
G02 X98.809751 Y74.966356 Z-0.125000 I-4.474199 J-6.530970
G03 X98.838963 Y75.673154 Z-0.125000 I-0.918055 J0.391946
G03 X98.528373 Y76.113290 Z-0.125000 I-0.883110 J-0.293528
G02 X98.309024 Y76.565512 Z-0.125000 I0.350928 J0.449525
G02 X98.435285 Y77.042781 Z-0.125000 I0.982736 J-0.004647
G03 X99.105844 Y78.328076 Z-0.125000 I-19.718378 J11.104965
G03 X99.678821 Y79.657722 Z-0.125000 I-15.549958 J7.489133
G02 X100.198416 Y80.287300 Z-0.125000 I1.196134 J-0.457976
G02 X101.011231 Y80.374688 Z-0.125000 I0.497002 J-0.798943
G01 X101.011093 Y80.374005 Z-0.125000
G00 Z5.000000

(End cutting path id: path5)


(Start cutting path id: path325)
(Change tool to Default tool)

G00 Z5.000000
G00 X100.074578 Y79.515824

G01 Z-0.125000 F100.0(Penetrate)
G02 X100.058264 Y79.475366 Z-0.125000 I-1.087148 J0.414863 F400.000000
G03 X100.041555 Y79.434326 Z-0.125000 I1.324113 J-0.563015
G01 X102.762937 Y79.434326 Z-0.125000
G03 X102.762111 Y79.603191 Z-0.125000 I-5.655400 J0.056794
G03 X102.758026 Y79.771557 Z-0.125000 I-18.948683 J-0.375554
G01 X100.190157 Y79.771557 Z-0.125000
G03 X100.140254 Y79.670542 Z-0.125000 I1.978245 J-1.040121
G03 X100.074587 Y79.515824 Z-0.125000 I2.364749 J-1.094965
G01 X100.074578 Y79.515824 Z-0.125000
G00 Z5.000000

(End cutting path id: path325)


(Start cutting path id: path503)
(Change tool to Default tool)

G00 Z5.000000
G00 X99.894018 Y79.070398

G01 Z-0.125000 F100.0(Penetrate)
G02 X99.824039 Y78.903119 Z-0.125000 I-30.362795 J12.603540 F400.000000
G02 X99.751047 Y78.733521 Z-0.125000 I-11.415771 J4.812651
G01 X100.940487 Y78.733521 Z-0.125000
G02 X101.111396 Y78.857167 Z-0.125000 I1.621038 J-2.060729
G02 X101.285444 Y78.956583 Z-0.125000 I0.826885 J-1.245563
G02 X101.518746 Y79.042827 Z-0.125000 I0.557102 J-1.148363
G02 X101.708038 Y79.067237 Z-0.125000 I0.189292 J-0.721746
G02 X102.030457 Y78.976509 Z-0.125000 I0.000000 J-0.618251
G02 X102.259198 Y78.733521 Z-0.125000 I-0.329833 J-0.539654
G01 X102.732725 Y78.733521 Z-0.125000
G02 X102.743899 Y78.902531 Z-0.125000 I145.306260 J-9.521700
G03 X102.753440 Y79.070398 Z-0.125000 I-8.541959 J0.569721
G01 X99.894007 Y79.070398 Z-0.125000
G01 X99.894018 Y79.070398 Z-0.125000
G00 Z5.000000

(End cutting path id: path503)


(Start cutting path id: path525)
(Change tool to Default tool)

G00 Z5.000000
G00 X100.572342 Y78.375214

G01 Z-0.125000 F100.0(Penetrate)
G01 X99.588402 Y78.375214 Z-0.125000 F400.000000
G02 X99.510217 Y78.207951 Z-0.125000 I-19.661312 J9.088551
G02 X99.428921 Y78.038334 Z-0.125000 I-15.688940 J7.415257
G01 X100.320826 Y78.038334 Z-0.125000
G02 X100.443670 Y78.214279 Z-0.125000 I2.428916 J-1.565002
G02 X100.572342 Y78.375214 Z-0.125000 I2.958283 J-2.233328
G01 X100.572342 Y78.375214 Z-0.125000
G00 Z5.000000

(End cutting path id: path525)


(Start cutting path id: path521)
(Change tool to Default tool)

G00 Z5.000000
G00 X99.967788 Y77.337878

G01 Z-0.125000 F100.0(Penetrate)
G02 X100.039332 Y77.508727 Z-0.125000 I4.135445 J-1.631338 F400.000000
G02 X100.117081 Y77.674758 Z-0.125000 I4.078892 J-1.808834
G01 X99.248011 Y77.674758 Z-0.125000
G02 X99.161526 Y77.506984 Z-0.125000 I-13.871285 J7.044290
G02 X99.072370 Y77.337878 Z-0.125000 I-26.830132 J14.037248
G01 X99.967788 Y77.337878 Z-0.125000
G01 X99.967788 Y77.337878 Z-0.125000
G00 Z5.000000

(End cutting path id: path521)


(Start cutting path id: path309)
(Change tool to Default tool)

G00 Z5.000000
G00 X99.705731 Y76.285790

G01 Z-0.125000 F100.0(Penetrate)
G01 X98.990520 Y76.285790 Z-0.125000 F400.000000
G02 X99.122796 Y76.119120 Z-0.125000 I-1.134648 J-1.036319
G02 X99.220610 Y75.948560 Z-0.125000 I-1.003511 J-0.688835
G01 X99.686410 Y75.948560 Z-0.125000
G02 X99.691802 Y76.114819 Z-0.125000 I4.211427 J-0.053367
G02 X99.705742 Y76.285790 Z-0.125000 I2.935184 J-0.153266
G01 X99.705731 Y76.285790 Z-0.125000
G00 Z5.000000

(End cutting path id: path309)


(Start cutting path id: path331)
(Change tool to Default tool)

G00 Z5.000000
G00 X99.321429 Y75.590251

G01 Z-0.125000 F100.0(Penetrate)
G02 X99.332813 Y75.426606 Z-0.125000 I-1.322166 J-0.174194 F400.000000
G02 X99.322558 Y75.253021 Z-0.125000 I-1.300170 J-0.010285
G01 X99.760603 Y75.253021 Z-0.125000
G02 X99.726866 Y75.417632 Z-0.125000 I2.132568 J0.522835
G02 X99.703696 Y75.590251 Z-0.125000 I2.822074 J0.466662
G01 X99.321502 Y75.590251 Z-0.125000
G01 X99.321429 Y75.590251 Z-0.125000
G00 Z5.000000

(End cutting path id: path331)


(Start cutting path id: path435)
(Change tool to Default tool)

G00 Z5.000000
G00 X98.727060 Y74.552565

G01 Z-0.125000 F100.0(Penetrate)
G02 X98.602411 Y74.587139 Z-0.125000 I0.079684 J0.529268 F400.000000
G02 X98.490998 Y74.658652 Z-0.125000 I0.141983 J0.343744
G03 X98.358471 Y74.775817 Z-0.125000 I-2.541747 J-2.741491
G03 X98.220161 Y74.889445 Z-0.125000 I-4.597677 J-5.455366
G01 X89.792915 Y74.889445 Z-0.125000
G02 X89.794944 Y74.720215 Z-0.125000 I-173.770382 J-2.167843
G02 X89.796415 Y74.552565 Z-0.125000 I-30.724063 J-0.353369
G01 X98.727049 Y74.552565 Z-0.125000
G01 X98.727060 Y74.552565 Z-0.125000
G00 Z5.000000

(End cutting path id: path435)


(Start cutting path id: path329)
(Change tool to Default tool)

G00 Z5.000000
G00 X100.016265 Y74.552565

G01 Z-0.125000 F100.0(Penetrate)
G03 X99.950645 Y74.717509 Z-0.125000 I-19.669372 J-7.729615 F400.000000
G03 X99.880319 Y74.889445 Z-0.125000 I-15.882968 J-6.396175
G01 X99.227285 Y74.889445 Z-0.125000
G03 X99.213869 Y74.849893 Z-0.125000 I0.519852 J-0.198379
G02 X99.199176 Y74.809000 Z-0.125000 I-0.375453 J0.111824
G02 X99.076097 Y74.643743 Z-0.125000 I-0.404308 J0.172657
G02 X98.891452 Y74.552565 Z-0.125000 I-0.282383 J0.339300
G01 X100.016257 Y74.552565 Z-0.125000
G01 X100.016265 Y74.552565 Z-0.125000
G00 Z5.000000

(End cutting path id: path329)


(Start cutting path id: path437)
(Change tool to Default tool)

G00 Z5.000000
G00 X100.258649 Y73.854920

G01 Z-0.125000 F100.0(Penetrate)
G03 X100.207883 Y74.020725 Z-0.125000 I-6.023481 J-1.753614 F400.000000
G03 X100.150454 Y74.192150 Z-0.125000 I-6.987229 J-2.245447
G01 X89.799587 Y74.192150 Z-0.125000
G02 X89.801514 Y74.022740 Z-0.125000 I-72.041958 J-0.904367
G02 X89.803114 Y73.854920 Z-0.125000 I-126.085376 J-1.286267
G01 X100.258663 Y73.854920 Z-0.125000
G01 X100.258649 Y73.854920 Z-0.125000
G00 Z5.000000

(End cutting path id: path437)


(Start cutting path id: path389)
(Change tool to Default tool)

G00 Z5.000000
G00 X99.998700 Y71.067501

G01 Z-0.125000 F100.0(Penetrate)
G02 X100.047681 Y71.227226 Z-0.125000 I28.790850 J-8.741688 F400.000000
G03 X100.096004 Y71.384355 Z-0.125000 I-39.731888 J12.305044
G02 X100.099107 Y71.394345 Z-0.125000 I0.391288 J-0.116060
G03 X100.102326 Y71.404365 Z-0.125000 I-1.595854 J0.518200
G01 X94.092246 Y71.404365 Z-0.125000
G02 X94.066594 Y71.229228 Z-0.125000 I-1.487003 J0.128355
G02 X94.025153 Y71.067487 Z-0.125000 I-1.775600 J0.368755
G01 X99.998697 Y71.067487 Z-0.125000
G01 X99.998700 Y71.067501 Z-0.125000
G00 Z5.000000

(End cutting path id: path389)


(Start cutting path id: path391)
(Change tool to Default tool)

G00 Z5.000000
G00 X99.894721 Y70.703923

G01 Z-0.125000 F100.0(Penetrate)
G01 X93.876913 Y70.703923 Z-0.125000 F400.000000
G02 X93.774253 Y70.517502 Z-0.125000 I-3.074385 J1.571552
G02 X93.681601 Y70.367046 Z-0.125000 I-4.280414 J2.532149
G01 X99.809360 Y70.367046 Z-0.125000
G02 X99.850693 Y70.536667 Z-0.125000 I10.730949 J-2.525055
G02 X99.894721 Y70.703923 Z-0.125000 I8.017988 J-2.021203
G01 X99.894721 Y70.703923 Z-0.125000
G00 Z5.000000

(End cutting path id: path391)


(Start cutting path id: path349)
(Change tool to Default tool)

G00 Z5.000000
G00 X99.663225 Y69.307581

G01 Z-0.125000 F100.0(Penetrate)
G01 X93.106904 Y69.307581 Z-0.125000 F400.000000
G02 X93.027794 Y69.140240 Z-0.125000 I-13.909273 J6.473213
G03 X92.950234 Y68.970700 Z-0.125000 I4.520751 J-2.170639
G01 X99.663225 Y68.970700 Z-0.125000
G02 X99.659941 Y69.142300 Z-0.125000 I4.129360 J0.164861
G02 X99.663225 Y69.307581 Z-0.125000 I4.532607 J-0.007391
G01 X99.663225 Y69.307581 Z-0.125000
G00 Z5.000000

(End cutting path id: path349)


(Start cutting path id: path1255)
(Change tool to Default tool)

G00 Z5.000000
G00 X101.271392 Y68.273405

G01 Z-0.125000 F100.0(Penetrate)
G01 X101.595276 Y68.273405 Z-0.125000 F400.000000
G02 X101.489979 Y68.413357 Z-0.125000 I1.497053 J1.235944
G02 X101.392234 Y68.580427 Z-0.125000 I1.133340 J0.775194
G02 X101.368877 Y68.595356 Z-0.125000 I0.252116 J0.420193
G03 X101.345515 Y68.610286 Z-0.125000 I-0.275127 J-0.404753
G01 X101.053951 Y68.610286 Z-0.125000
G03 X101.090720 Y68.552650 Z-0.125000 I3.973987 J2.494647
G02 X101.271392 Y68.273405 Z-0.125000 I-159.654411 J-103.495174
G01 X101.271392 Y68.273405 Z-0.125000
G00 Z5.000000

(End cutting path id: path1255)


(Start cutting path id: path1261)
(Change tool to Default tool)

G00 Z5.000000
G00 X101.512723 Y67.572600

G01 Z-0.125000 F100.0(Penetrate)
G01 X102.251118 Y67.572600 Z-0.125000 F400.000000
G03 X102.174294 Y67.656222 Z-0.125000 I-4.419806 J-3.983392
G02 X102.097959 Y67.744377 Z-0.125000 I1.093397 J1.023919
G03 X102.021732 Y67.829295 Z-0.125000 I-0.740580 J-0.588117
G03 X101.940234 Y67.909477 Z-0.125000 I-24.373325 J-24.691858
G01 X101.491647 Y67.909477 Z-0.125000
G02 X101.533484 Y67.730390 Z-0.125000 I-0.487513 J-0.208320
G02 X101.512729 Y67.572600 Z-0.125000 I-0.429751 J-0.023733
G01 X101.512723 Y67.572600 Z-0.125000
G00 Z5.000000

(End cutting path id: path1261)


(Start cutting path id: path4151)
(Change tool to Default tool)

G00 Z5.000000
G00 X101.119991 Y67.214290

G01 Z-0.125000 F100.0(Penetrate)
G02 X101.064567 Y67.203257 Z-0.125000 I-0.208618 J0.903195 F400.000000
G02 X101.007229 Y67.198486 Z-0.125000 I-0.057338 J0.342181
G02 X100.961534 Y67.204603 Z-0.125000 I0.000000 J0.173728
G03 X100.919410 Y67.214290 Z-0.125000 I-0.141722 J-0.519834
G01 X99.610884 Y67.214290 Z-0.125000
G02 X99.967382 Y67.078297 Z-0.125000 I-1.795280 J-5.241479
G02 X100.327850 Y66.903408 Z-0.125000 I-1.473035 J-3.495047
G02 X100.351373 Y66.889954 Z-0.125000 I-0.521656 J-0.939317
G03 X100.373869 Y66.877049 Z-0.125000 I0.579902 J0.984832
G01 X103.064686 Y66.877049 Z-0.125000
G02 X102.837465 Y67.036106 Z-0.125000 I2.625451 J3.992399
G02 X102.615047 Y67.214279 Z-0.125000 I2.388002 J3.208932
G01 X101.119991 Y67.214279 Z-0.125000
G01 X101.119991 Y67.214290 Z-0.125000
G00 Z5.000000

(End cutting path id: path4151)


(Start cutting path id: path339)
(Change tool to Default tool)

G00 Z5.000000
G00 X101.012499 Y66.513485

G01 Z-0.125000 F100.0(Penetrate)
G03 X101.223273 Y66.393661 Z-0.125000 I19.883548 J34.730637 F400.000000
G02 X101.434387 Y66.272856 Z-0.125000 I-10.227226 J-18.117606
G02 X101.517994 Y66.224623 Z-0.125000 I-33.394839 J-57.983251
G03 X101.601951 Y66.176604 Z-0.125000 I5.444134 J9.421167
G01 X104.441710 Y66.176604 Z-0.125000
G02 X104.070410 Y66.338374 Z-0.125000 I8.254092 J19.452079
G02 X103.700154 Y66.513485 Z-0.125000 I3.924840 J8.777732
G01 X101.012499 Y66.513485 Z-0.125000
G01 X101.012499 Y66.513485 Z-0.125000
G00 Z5.000000

(End cutting path id: path339)


(Start cutting path id: path361)
(Change tool to Default tool)

G00 Z5.000000
G00 X102.842326 Y65.480718

G01 Z-0.125000 F100.0(Penetrate)
G01 X105.956087 Y65.480718 Z-0.125000 F400.000000
G02 X105.874418 Y65.518553 Z-0.125000 I0.919755 J2.092417
G02 X105.787823 Y65.563268 Z-0.125000 I0.922920 J1.893519
G03 X105.535914 Y65.694451 Z-0.125000 I-2.589383 J-4.664875
G03 X105.275302 Y65.817595 Z-0.125000 I-5.229133 J-10.729202
G01 X102.231095 Y65.817595 Z-0.125000
G03 X102.535460 Y65.647816 Z-0.125000 I17.567879 J31.136385
G03 X102.842326 Y65.480718 Z-0.125000 I15.873036 J28.784632
G01 X102.842326 Y65.480718 Z-0.125000
G00 Z5.000000

(End cutting path id: path361)


(Start cutting path id: path507)
(Change tool to Default tool)

G00 Z5.000000
G00 X104.286796 Y64.779909

G01 Z-0.125000 F100.0(Penetrate)
G01 X108.938820 Y64.779909 Z-0.125000 F400.000000
G02 X108.776061 Y64.836535 Z-0.125000 I0.951131 J2.996058
G02 X108.591401 Y64.913747 Z-0.125000 I1.048916 J2.767975
G02 X108.469677 Y64.999061 Z-0.125000 I0.179372 J0.385422
G02 X108.384146 Y65.117139 Z-0.125000 I0.330501 J0.329417
G01 X103.545240 Y65.117139 Z-0.125000
G03 X103.914112 Y64.943297 Z-0.125000 I5.711621 J11.641108
G03 X104.286796 Y64.779909 Z-0.125000 I7.283527 J16.106784
G01 X104.286796 Y64.779909 Z-0.125000
G00 Z5.000000

(End cutting path id: path507)


(Start cutting path id: path1277)
(Change tool to Default tool)

G00 Z5.000000
G00 X105.231743 Y64.421603

G01 Z-0.125000 F100.0(Penetrate)
G03 X105.513640 Y64.334785 Z-0.125000 I2.916275 J8.968090 F400.000000
G03 X105.798711 Y64.256853 Z-0.125000 I2.538889 J8.726689
G02 X106.104179 Y64.174086 Z-0.125000 I-2.809447 J-10.973900
G02 X106.406429 Y64.084373 Z-0.125000 I-4.349284 J-15.207037
G01 X114.372794 Y64.084373 Z-0.125000
G02 X114.379502 Y64.178268 Z-0.125000 I3.281497 J-0.187240
G02 X114.394215 Y64.264930 Z-0.125000 I0.531190 J-0.045602
G02 X114.420803 Y64.350946 Z-0.125000 I0.819404 J-0.206162
G02 X114.449717 Y64.421603 Z-0.125000 I1.013675 J-0.373572
G01 X105.231735 Y64.421603 Z-0.125000
G01 X105.231743 Y64.421603 Z-0.125000
G00 Z5.000000

(End cutting path id: path1277)


(Start cutting path id: path357)
(Change tool to Default tool)

G00 Z5.000000
G00 X107.466949 Y63.720794

G01 Z-0.125000 F100.0(Penetrate)
G02 X107.771035 Y63.606207 Z-0.125000 I-15.377036 J-41.267642 F400.000000
G02 X108.064831 Y63.493165 Z-0.125000 I-17.276650 J-45.340309
G03 X108.316515 Y63.419596 Z-0.125000 I0.547029 J1.404117
G03 X108.545735 Y63.396913 Z-0.125000 I0.229220 J1.146847
G03 X108.761974 Y63.415316 Z-0.125000 I0.000000 J1.279623
G03 X109.035422 Y63.480871 Z-0.125000 I-0.363028 J2.117371
G01 X109.174529 Y63.524430 Z-0.125000
G02 X109.507139 Y63.625632 Z-0.125000 I7.240286 J-23.198535
G02 X109.846178 Y63.721147 Z-0.125000 I3.677989 J-12.405934
G01 X107.466949 Y63.721147 Z-0.125000
G01 X107.466949 Y63.720794 Z-0.125000
G00 Z5.000000

(End cutting path id: path357)


(Start cutting path id: path337)
(Change tool to Default tool)

G00 Z5.000000
G00 X108.152650 Y65.480718

G01 Z-0.125000 F100.0(Penetrate)
G01 X108.373608 Y65.480718 Z-0.125000 F400.000000
G03 X108.385162 Y65.514573 Z-0.125000 I-0.341232 J0.135361
G02 X108.399600 Y65.546758 Z-0.125000 I0.120166 J-0.034575
G02 X108.285336 Y65.508772 Z-0.125000 I-0.371272 J0.925970
G02 X108.152650 Y65.480718 Z-0.125000 I-0.334864 J1.255970
G01 X108.152650 Y65.480718 Z-0.125000
G00 Z5.000000

(End cutting path id: path337)


(Start cutting path id: path351)
(Change tool to Default tool)

G00 Z5.000000
G00 X107.426902 Y65.761391

G01 Z-0.125000 F100.0(Penetrate)
G02 X107.262679 Y65.627707 Z-0.125000 I-1.465907 J1.633069 F400.000000
G02 X107.021873 Y65.480718 Z-0.125000 I-0.963594 J1.307870
G01 X108.017057 Y65.480718 Z-0.125000
G02 X107.839276 Y65.544575 Z-0.125000 I0.061813 J0.451492
G02 X107.701606 Y65.682704 Z-0.125000 I0.221618 J0.358553
G02 X107.640692 Y65.745041 Z-0.125000 I0.215704 J0.271709
G02 X107.594113 Y65.817595 Z-0.125000 I0.445821 J0.337444
G01 X107.490134 Y65.817595 Z-0.125000
G02 X107.458998 Y65.789810 Z-0.125000 I-3.714196 J4.130636
G02 X107.426902 Y65.761391 Z-0.125000 I-95.723954 J108.078751
G01 X107.426902 Y65.761391 Z-0.125000
G00 Z5.000000

(End cutting path id: path351)


(Start cutting path id: path341)
(Change tool to Default tool)

G00 Z5.000000
G00 X111.098850 Y65.634577

G01 Z-0.125000 F100.0(Penetrate)
G02 X110.940862 Y65.550197 Z-0.125000 I-0.868522 J1.436078 F400.000000
G02 X110.760564 Y65.480718 Z-0.125000 I-0.590361 J1.263302
G01 X111.163484 Y65.480718 Z-0.125000
G02 X111.124835 Y65.557779 Z-0.125000 I1.314347 J0.707424
G02 X111.098850 Y65.634577 Z-0.125000 I0.335528 J0.156323
G01 X111.098850 Y65.634577 Z-0.125000
G00 Z5.000000

(End cutting path id: path341)


(Start cutting path id: path1259)
(Change tool to Default tool)

G00 Z5.000000
G00 X112.300233 Y65.117139

G01 Z-0.125000 F100.0(Penetrate)
G02 X112.122390 Y65.047983 Z-0.125000 I-0.441895 J0.873140 F400.000000
G02 X111.909959 Y65.018782 Z-0.125000 I-0.212430 J0.758080
G02 X111.763303 Y65.034606 Z-0.125000 I0.000000 J0.687530
G02 X111.537248 Y65.117139 Z-0.125000 I0.190551 J0.872751
G01 X110.315141 Y65.117139 Z-0.125000
G02 X110.101413 Y64.897974 Z-0.125000 I-0.897415 J0.661354
G02 X109.903086 Y64.779909 Z-0.125000 I-0.575648 J0.741377
G01 X114.863886 Y64.779909 Z-0.125000
G02 X114.970066 Y64.799519 Z-0.125000 I0.184355 J-0.700934
G02 X115.023367 Y64.802402 Z-0.125000 I0.053302 J-0.491281
G02 X115.112413 Y64.795759 Z-0.125000 I0.000000 J-0.600098
G02 X115.193739 Y64.779909 Z-0.125000 I-0.141221 J-0.941184
G01 X115.664458 Y64.779909 Z-0.125000
G03 X115.665719 Y64.796227 Z-0.125000 I-0.119532 J0.017450
G02 X115.667619 Y64.813632 Z-0.125000 I0.088284 J-0.000827
G02 X115.722442 Y64.991700 Z-0.125000 I0.850805 J-0.164471
G02 X115.789866 Y65.117139 Z-0.125000 I0.754322 J-0.324611
G01 X112.300233 Y65.117139 Z-0.125000
G01 X112.300233 Y65.117139 Z-0.125000
G00 Z5.000000

(End cutting path id: path1259)


(Start cutting path id: path4131)
(Change tool to Default tool)

G00 Z5.000000
G00 X113.140499 Y65.817595

G01 Z-0.125000 F100.0(Penetrate)
G02 X112.976687 Y65.658544 Z-0.125000 I-7.004734 J7.050527 F400.000000
G02 X112.804322 Y65.502847 Z-0.125000 I-3.258864 J3.434484
G01 X112.779373 Y65.480721 Z-0.125000
G01 X115.453680 Y65.480721 Z-0.125000
G03 X115.230122 Y65.668831 Z-0.125000 I-5.200804 J-5.953937
G03 X115.023712 Y65.817598 Z-0.125000 I-1.417888 J-1.749709
G01 X113.140491 Y65.817598 Z-0.125000
G01 X113.140499 Y65.817595 Z-0.125000
G00 Z5.000000

(End cutting path id: path4131)


(Start cutting path id: path1263)
(Change tool to Default tool)

G00 Z5.000000
G00 X113.714494 Y66.414775

G01 Z-0.125000 F100.0(Penetrate)
G02 X113.621802 Y66.316904 Z-0.125000 I-114.288399 J108.147213 F400.000000
G03 X113.529367 Y66.218760 Z-0.125000 I15.288735 J-14.492053
G02 X113.509174 Y66.197679 Z-0.125000 I-0.590236 J0.545198
G03 X113.488970 Y66.176604 Z-0.125000 I0.581836 J-0.577995
G01 X114.286731 Y66.176604 Z-0.125000
G02 X114.261729 Y66.207463 Z-0.125000 I8.128619 J6.611424
G02 X114.239309 Y66.240186 Z-0.125000 I0.197174 J0.159134
G02 X114.184122 Y66.377205 Z-0.125000 I0.439328 J0.256569
G02 X114.166591 Y66.513485 Z-0.125000 I0.612379 J0.148043
G01 X113.960039 Y66.513485 Z-0.125000
G02 X113.844288 Y66.459793 Z-0.125000 I-0.641741 J1.231880
G02 X113.714494 Y66.414775 Z-0.125000 I-0.477455 J1.166945
G01 X113.714494 Y66.414775 Z-0.125000
G00 Z5.000000

(End cutting path id: path1263)


(Start cutting path id: path4127)
(Change tool to Default tool)

G00 Z5.000000
G00 X111.971786 Y63.720794

G01 Z-0.125000 F100.0(Penetrate)
G02 X112.491616 Y63.550970 Z-0.125000 I-8.375144 J-26.516739 F400.000000
G02 X112.971533 Y63.383917 Z-0.125000 I-8.668327 J-25.675587
G01 X114.540355 Y63.383917 Z-0.125000
G02 X114.462992 Y63.548703 Z-0.125000 I1.372348 J0.744837
G02 X114.408275 Y63.720794 Z-0.125000 I1.153133 J0.461386
G01 X111.971786 Y63.720794 Z-0.125000
G01 X111.971786 Y63.720794 Z-0.125000
G00 Z5.000000

(End cutting path id: path4127)


(Start cutting path id: path1297)
(Change tool to Default tool)

G00 Z5.000000
G00 X114.681221 Y62.686272

G01 Z-0.125000 F100.0(Penetrate)
G01 X115.986230 Y62.686272 Z-0.125000 F400.000000
G03 X115.586022 Y62.805857 Z-0.125000 I-1.660650 J-4.828130
G03 X115.171610 Y62.887203 Z-0.125000 I-0.937735 J-3.680970
G02 X115.003166 Y62.933587 Z-0.125000 I0.095268 J0.675001
G02 X114.841754 Y63.023502 Z-0.125000 I0.322548 J0.768866
G01 X113.913320 Y63.023502 Z-0.125000
G02 X114.308455 Y62.855377 Z-0.125000 I-7.727878 J-18.710809
G02 X114.681221 Y62.686272 Z-0.125000 I-6.319827 J-14.426488
G01 X114.681221 Y62.686272 Z-0.125000
G00 Z5.000000

(End cutting path id: path1297)


(Start cutting path id: path1303)
(Change tool to Default tool)

G00 Z5.000000
G00 X116.000282 Y61.985816

G01 Z-0.125000 F100.0(Penetrate)
G01 X117.533979 Y61.985816 Z-0.125000 F400.000000
G02 X117.461203 Y62.021870 Z-0.125000 I7.740342 J15.715823
G03 X117.388900 Y62.057828 Z-0.125000 I-23.288134 J-46.735827
G03 X117.118079 Y62.193255 Z-0.125000 I-45.293248 J-90.236708
G03 X116.853195 Y62.322693 Z-0.125000 I-8.576083 J-17.214509
G01 X115.403806 Y62.322693 Z-0.125000
G02 X115.707912 Y62.155674 Z-0.125000 I-7.605469 J-14.208337
G02 X116.000282 Y61.985816 Z-0.125000 I-6.235564 J-11.069561
G01 X116.000282 Y61.985816 Z-0.125000
G00 Z5.000000

(End cutting path id: path1303)


(Start cutting path id: path4129)
(Change tool to Default tool)

G00 Z5.000000
G00 X116.569358 Y61.627157

G01 Z-0.125000 F100.0(Penetrate)
G02 X116.762040 Y61.498835 Z-0.125000 I-45.097004 J-67.924325 F400.000000
G02 X116.951905 Y61.367208 Z-0.125000 I-3.720050 J-5.568697
G02 X117.004446 Y61.328838 Z-0.125000 I-0.731572 J-1.056942
G03 X117.055534 Y61.290277 Z-0.125000 I2.057048 J2.672130
G01 X119.206431 Y61.290277 Z-0.125000
G02 X118.733548 Y61.444351 Z-0.125000 I1.653611 J5.877961
G02 X118.283613 Y61.627157 Z-0.125000 I2.799666 J7.535862
G01 X116.569358 Y61.627157 Z-0.125000
G01 X116.569358 Y61.627157 Z-0.125000
G00 Z5.000000

(End cutting path id: path4129)


(Start cutting path id: path4121)
(Change tool to Default tool)

G00 Z5.000000
G00 X117.523441 Y60.926701

G01 Z-0.125000 F100.0(Penetrate)
G02 X117.717995 Y60.758116 Z-0.125000 I-4.162213 J-4.999912 F400.000000
G02 X117.897905 Y60.589821 Z-0.125000 I-4.517882 J-5.009992
G01 X120.627364 Y60.589821 Z-0.125000
G03 X120.364398 Y60.767027 Z-0.125000 I-3.822595 J-5.388856
G03 X120.096930 Y60.926701 Z-0.125000 I-2.727126 J-4.264308
G01 X117.523441 Y60.926701 Z-0.125000
G01 X117.523441 Y60.926701 Z-0.125000
G00 Z5.000000

(End cutting path id: path4121)


(Start cutting path id: path1305)
(Change tool to Default tool)

G00 Z5.000000
G00 X118.477169 Y59.898850

G01 Z-0.125000 F100.0(Penetrate)
G01 X121.508380 Y59.898850 Z-0.125000 F400.000000
G03 X121.499346 Y59.906247 Z-0.125000 I-0.118597 J-0.135637
G02 X121.490458 Y59.913244 Z-0.125000 I0.258860 J0.337939
G03 X121.290417 Y60.077317 Z-0.125000 I-24.311296 J-29.436886
G03 X121.093860 Y60.235722 Z-0.125000 I-15.278621 J-18.757291
G01 X118.225294 Y60.235722 Z-0.125000
G02 X118.356270 Y60.070341 Z-0.125000 I-2.776870 J-2.333728
G02 X118.477163 Y59.898842 Z-0.125000 I-3.148811 J-2.348032
G01 X118.477169 Y59.898850 Z-0.125000
G00 Z5.000000

(End cutting path id: path1305)


(Start cutting path id: path4047)
(Change tool to Default tool)

G00 Z5.000000
G00 X119.432305 Y59.535275

G01 Z-0.125000 F100.0(Penetrate)
G01 X118.692155 Y59.535275 Z-0.125000 F400.000000
G02 X118.772603 Y59.371537 Z-0.125000 I-5.082253 J-2.598673
G02 X118.847069 Y59.198045 Z-0.125000 I-2.421559 J-1.142104
G01 X119.304788 Y59.198045 Z-0.125000
G02 X119.355398 Y59.407870 Z-0.125000 I0.597407 J-0.033077
G02 X119.432305 Y59.535275 Z-0.125000 I0.545202 J-0.242193
G01 X119.432305 Y59.535275 Z-0.125000
G00 Z5.000000

(End cutting path id: path4047)


(Start cutting path id: path1299)
(Change tool to Default tool)

G00 Z5.000000
G00 X119.047300 Y58.502858

G01 Z-0.125000 F100.0(Penetrate)
G01 X119.560521 Y58.502858 Z-0.125000 F400.000000
G02 X119.499664 Y58.620611 Z-0.125000 I13.545007 J7.074923
G03 X119.434413 Y58.738217 Z-0.125000 I-1.768265 J-0.904178
G02 X119.407326 Y58.791419 Z-0.125000 I0.404057 J0.239220
G03 X119.385583 Y58.839735 Z-0.125000 I-1.565529 J-0.675450
G01 X118.969667 Y58.839735 Z-0.125000
G02 X119.010632 Y58.676899 Z-0.125000 I-2.228439 J-0.647189
G02 X119.047300 Y58.502858 Z-0.125000 I-33.170322 J-7.079450
G01 X119.047300 Y58.502858 Z-0.125000
G00 Z5.000000

(End cutting path id: path1299)


(Start cutting path id: path4125)
(Change tool to Default tool)

G00 Z5.000000
G00 X119.115448 Y58.139282

G01 Z-0.125000 F100.0(Penetrate)
G02 X119.141131 Y57.968991 Z-0.125000 I-13.118625 J-2.065592 F400.000000
G02 X119.164978 Y57.802049 Z-0.125000 I-63.360108 J-9.136007
G01 X119.854546 Y57.802049 Z-0.125000
G03 X119.796357 Y57.971519 Z-0.125000 I-3.318053 J-1.044558
G03 X119.730893 Y58.139282 Z-0.125000 I-5.430271 J-2.022324
G01 X119.115448 Y58.139282 Z-0.125000
G01 X119.115448 Y58.139282 Z-0.125000
G00 Z5.000000

(End cutting path id: path4125)


(Start cutting path id: path3139)
(Change tool to Default tool)

G00 Z5.000000
G00 X119.214158 Y57.441635

G01 Z-0.125000 F100.0(Penetrate)
G02 X119.234081 Y57.271772 Z-0.125000 I-8.996888 J-1.141311 F400.000000
G02 X119.251745 Y57.104757 Z-0.125000 I-42.742806 J-4.605003
G01 X120.003839 Y57.104757 Z-0.125000
G03 X119.981046 Y57.275262 Z-0.125000 I-12.715517 J-1.613042
G03 X119.951851 Y57.441635 Z-0.125000 I-2.452597 J-0.344632
G01 X119.214158 Y57.441635 Z-0.125000
G01 X119.214158 Y57.441635 Z-0.125000
G00 Z5.000000

(End cutting path id: path3139)


(Start cutting path id: path1309)
(Change tool to Default tool)

G00 Z5.000000
G00 X119.311463 Y56.403949

G01 Z-0.125000 F100.0(Penetrate)
G01 X120.040023 Y56.403949 Z-0.125000 F400.000000
G03 X120.039396 Y56.575769 Z-0.125000 I-4.121443 J0.070881
G03 X120.033701 Y56.740829 Z-0.125000 I-8.255531 J-0.202219
G01 X119.289337 Y56.740829 Z-0.125000
G02 X119.301626 Y56.571255 Z-0.125000 I-5.944381 J-0.516016
G03 X119.311463 Y56.403949 Z-0.125000 I131.521539 J7.649336
G01 X119.311463 Y56.403949 Z-0.125000
G00 Z5.000000

(End cutting path id: path1309)


(Start cutting path id: path4149)
(Change tool to Default tool)

G00 Z5.000000
G00 X119.331487 Y56.045642

G01 Z-0.125000 F100.0(Penetrate)
G02 X119.334466 Y55.875688 Z-0.125000 I-4.377530 J-0.161737 F400.000000
G03 X119.334309 Y55.708412 Z-0.125000 I89.169997 J-0.167276
G01 X119.979963 Y55.708412 Z-0.125000
G03 X120.003486 Y55.880195 Z-0.125000 I-37.150082 J5.174621
G03 X120.021766 Y56.045642 Z-0.125000 I-3.475385 J0.467719
G01 X119.331498 Y56.045642 Z-0.125000
G01 X119.331487 Y56.045642 Z-0.125000
G00 Z5.000000

(End cutting path id: path4149)


(Start cutting path id: path4145)
(Change tool to Default tool)

G00 Z5.000000
G00 X119.331487 Y55.344836

G01 Z-0.125000 F100.0(Penetrate)
G02 X119.323017 Y55.175421 Z-0.125000 I-4.514903 J0.140809 F400.000000
G02 X119.311477 Y55.007956 Z-0.125000 I-1274.441440 J87.733130
G01 X119.849994 Y55.007956 Z-0.125000
G03 X119.888234 Y55.179615 Z-0.125000 I-16.066805 J3.669294
G03 X119.922006 Y55.344836 Z-0.125000 I-6.736400 J1.462987
G01 X119.331501 Y55.344836 Z-0.125000
G01 X119.331487 Y55.344836 Z-0.125000
G00 Z5.000000

(End cutting path id: path4145)


(Start cutting path id: path4143)
(Change tool to Default tool)

G00 Z5.000000
G00 X119.279146 Y54.642622

G01 Z-0.125000 F100.0(Penetrate)
G02 X119.257892 Y54.473939 Z-0.125000 I-5.076509 J0.553963 F400.000000
G02 X119.232427 Y54.305745 Z-0.125000 I-10.177777 J1.454907
G01 X119.704548 Y54.305745 Z-0.125000
G02 X119.735706 Y54.474357 Z-0.125000 I6.804445 J-1.170235
G02 X119.770588 Y54.642622 Z-0.125000 I9.107230 J-1.800187
G01 X119.279146 Y54.642622 Z-0.125000
G01 X119.279146 Y54.642622 Z-0.125000
G00 Z5.000000

(End cutting path id: path4143)


(Start cutting path id: path4147)
(Change tool to Default tool)

G00 Z5.000000
G00 X119.166737 Y53.942167

G01 Z-0.125000 F100.0(Penetrate)
G02 X119.130101 Y53.773758 Z-0.125000 I-7.901111 J1.630608 F400.000000
G02 X119.089103 Y53.604936 Z-0.125000 I-6.340731 J1.450457
G01 X119.610404 Y53.604936 Z-0.125000
G02 X119.628225 Y53.773668 Z-0.125000 I9.797141 J-0.949435
G02 X119.648693 Y53.942167 Z-0.125000 I11.983637 J-1.370208
G01 X119.166737 Y53.942167 Z-0.125000
G01 X119.166737 Y53.942167 Z-0.125000
G00 Z5.000000

(End cutting path id: path4147)


(Start cutting path id: path4139)
(Change tool to Default tool)

G00 Z5.000000
G00 X118.986177 Y53.246980

G01 Z-0.125000 F100.0(Penetrate)
G02 X118.933799 Y53.079261 Z-0.125000 I-18.128668 J5.569412 F400.000000
G02 X118.876226 Y52.910102 Z-0.125000 I-4.108967 J1.304122
G01 X119.565090 Y52.910102 Z-0.125000
G02 X119.572975 Y53.077954 Z-0.125000 I27.943374 J-1.228404
G02 X119.583012 Y53.246980 Z-0.125000 I9.022208 J-0.450943
G01 X118.986185 Y53.246980 Z-0.125000
G01 X118.986177 Y53.246980 Z-0.125000
G00 Z5.000000

(End cutting path id: path4139)


(Start cutting path id: path4137)
(Change tool to Default tool)

G00 Z5.000000
G00 X118.752925 Y52.545824

G01 Z-0.125000 F100.0(Penetrate)
G03 X118.699454 Y52.374976 Z-0.125000 I5.129956 J-1.699352 F400.000000
G03 X118.653513 Y52.208944 Z-0.125000 I4.915335 J-1.449448
G01 X119.548930 Y52.208944 Z-0.125000
G02 X119.550813 Y52.377377 Z-0.125000 I13.718815 J-0.069102
G02 X119.553841 Y52.545824 Z-0.125000 I127.649958 J-2.210507
G01 X118.752920 Y52.545824 Z-0.125000
G01 X118.752925 Y52.545824 Z-0.125000
G00 Z5.000000

(End cutting path id: path4137)


(Start cutting path id: path4141)
(Change tool to Default tool)

G00 Z5.000000
G00 X119.548228 Y51.848529

G01 Z-0.125000 F100.0(Penetrate)
G01 X118.572718 Y51.848529 Z-0.125000 F400.000000
G03 X118.544830 Y51.678054 Z-0.125000 I4.476582 J-0.819834
G03 X118.523891 Y51.511649 Z-0.125000 I4.612609 J-0.664948
G01 X119.550336 Y51.511649 Z-0.125000
G01 X119.548360 Y51.848529 Z-0.125000
G01 X119.548228 Y51.848529 Z-0.125000
G00 Z5.000000

(End cutting path id: path4141)


(Start cutting path id: path1311)
(Change tool to Default tool)

G00 Z5.000000
G00 X118.506678 Y50.810843

G01 Z-0.125000 F100.0(Penetrate)
G01 X119.553497 Y50.810843 Z-0.125000 F400.000000
G03 X119.553107 Y50.980073 Z-0.125000 I-36.743755 J0.000000
G03 X119.552086 Y51.147721 Z-0.125000 I-56.379883 J-0.259670
G01 X118.499645 Y51.147721 Z-0.125000
G03 X118.499690 Y50.978031 Z-0.125000 I3.734321 J-0.083857
G03 X118.506672 Y50.810843 Z-0.125000 I4.459262 J0.102497
G01 X118.506678 Y50.810843 Z-0.125000
G00 Z5.000000

(End cutting path id: path1311)


(Start cutting path id: path4167)
(Change tool to Default tool)

G00 Z5.000000
G00 X118.544967 Y50.452537

G01 Z-0.125000 F100.0(Penetrate)
G03 X118.575246 Y50.283836 Z-0.125000 I4.236488 J0.673300 F400.000000
G03 X118.612765 Y50.115304 Z-0.125000 I3.940230 J0.788757
G01 X119.542256 Y50.115304 Z-0.125000
G03 X119.546871 Y50.283939 Z-0.125000 I-21.004754 J0.659184
G03 X119.549622 Y50.452537 Z-0.125000 I-11.993302 J0.280032
G01 X118.544956 Y50.452537 Z-0.125000
G01 X118.544967 Y50.452537 Z-0.125000
G00 Z5.000000

(End cutting path id: path4167)


(Start cutting path id: path3961)
(Change tool to Default tool)

G00 Z5.000000
G00 X118.701640 Y49.751728

G01 Z-0.125000 F100.0(Penetrate)
G02 X118.743969 Y49.583420 Z-0.125000 I-16.137028 J-4.147849 F400.000000
G02 X118.785243 Y49.414851 Z-0.125000 I-80.165865 J-19.717927
G01 X119.503614 Y49.414851 Z-0.125000
G02 X119.517290 Y49.582568 Z-0.125000 I28.452283 J-2.235583
G03 X119.528901 Y49.751728 Z-0.125000 I-5.355792 J0.452609
G01 X118.701634 Y49.751728 Z-0.125000
G01 X118.701640 Y49.751728 Z-0.125000
G00 Z5.000000

(End cutting path id: path3961)


(Start cutting path id: path3957)
(Change tool to Default tool)

G00 Z5.000000
G00 X119.476216 Y49.061461

G01 Z-0.125000 F100.0(Penetrate)
G01 X118.873767 Y49.061461 Z-0.125000 F400.000000
G02 X118.913130 Y48.892306 Z-0.125000 I-34.307578 J-8.072568
G03 X118.952104 Y48.724230 Z-0.125000 I49.806400 J11.460716
G01 X119.474810 Y48.724230 Z-0.125000
G02 X119.469187 Y48.893594 Z-0.125000 I2.396531 J0.164347
G02 X119.476222 Y49.061461 Z-0.125000 I2.111677 J-0.004410
G01 X119.476216 Y49.061461 Z-0.125000
G00 Z5.000000

(End cutting path id: path3957)


(Start cutting path id: path2349)
(Change tool to Default tool)

G00 Z5.000000
G00 X119.525393 Y48.360302

G01 Z-0.125000 F100.0(Penetrate)
G01 X119.034304 Y48.360302 Z-0.125000 F400.000000
G03 X119.072993 Y48.191058 Z-0.125000 I30.267163 J6.830049
G02 X119.111232 Y48.023422 Z-0.125000 I-25.633692 J-5.935387
G01 X119.624456 Y48.023422 Z-0.125000
G02 X119.568754 Y48.193900 Z-0.125000 I2.723409 J0.984190
G02 X119.525393 Y48.360302 Z-0.125000 I2.757733 J0.807453
G01 X119.525393 Y48.360302 Z-0.125000
G00 Z5.000000

(End cutting path id: path2349)


(Start cutting path id: path2343)
(Change tool to Default tool)

G00 Z5.000000
G00 X119.978549 Y47.328235

G01 Z-0.125000 F100.0(Penetrate)
G02 X119.873524 Y47.498342 Z-0.125000 I2.802336 J1.847651 F400.000000
G02 X119.782884 Y47.665115 Z-0.125000 I3.223657 J1.860047
G01 X119.192029 Y47.665115 Z-0.125000
G03 X119.230084 Y47.497189 Z-0.125000 I92.285316 J20.825015
G02 X119.268255 Y47.328235 Z-0.125000 I-53.877978 J-12.261137
G01 X119.978549 Y47.328235 Z-0.125000
G01 X119.978549 Y47.328235 Z-0.125000
G00 Z5.000000

(End cutting path id: path2343)


(Start cutting path id: path2981)
(Change tool to Default tool)

G00 Z5.000000
G00 X120.571862 Y46.627429

G01 Z-0.125000 F100.0(Penetrate)
G02 X120.416654 Y46.772328 Z-0.125000 I1.379931 J1.633685 F400.000000
G02 X120.244467 Y46.964660 Z-0.125000 I2.323981 J2.253811
G01 X119.353266 Y46.964660 Z-0.125000
G02 X119.392722 Y46.796135 Z-0.125000 I-26.261481 J-6.237349
G03 X119.433008 Y46.627429 Z-0.125000 I11.076625 J2.555882
G01 X120.571862 Y46.627429 Z-0.125000
G01 X120.571862 Y46.627429 Z-0.125000
G00 Z5.000000

(End cutting path id: path2981)


(Start cutting path id: path2979)
(Change tool to Default tool)

G00 Z5.000000
G00 X120.992348 Y45.929785

G01 Z-0.125000 F100.0(Penetrate)
G03 X120.980706 Y46.095027 Z-0.125000 I-24.024108 J-1.609459 F400.000000
G03 X120.967766 Y46.266662 Z-0.125000 I-58.051438 J-4.290437
G01 X119.523646 Y46.266662 Z-0.125000
G02 X119.565975 Y46.098099 Z-0.125000 I-17.405364 J-4.460370
G03 X119.609360 Y45.929785 Z-0.125000 I7.619453 J1.874244
G01 X120.992356 Y45.929785 Z-0.125000
G01 X120.992348 Y45.929785 Z-0.125000
G00 Z5.000000

(End cutting path id: path2979)


(Start cutting path id: path2987)
(Change tool to Default tool)

G00 Z5.000000
G00 X121.049255 Y45.228976

G01 Z-0.125000 F100.0(Penetrate)
G02 X121.032410 Y45.395888 Z-0.125000 I8.490443 J0.941152 F400.000000
G02 X121.018340 Y45.566206 Z-0.125000 I10.208832 J0.929096
G01 X119.710520 Y45.566206 Z-0.125000
G02 X119.757795 Y45.397515 Z-0.125000 I-91.418123 J-25.710917
G03 X119.806419 Y45.228976 Z-0.125000 I9.875185 J2.757701
G01 X121.049255 Y45.228976 Z-0.125000
G01 X121.049255 Y45.228976 Z-0.125000
G00 Z5.000000

(End cutting path id: path2987)


(Start cutting path id: path2985)
(Change tool to Default tool)

G00 Z5.000000
G00 X121.178527 Y44.533792

G01 Z-0.125000 F100.0(Penetrate)
G02 X121.136651 Y44.700348 Z-0.125000 I4.097702 J1.118800 F400.000000
G02 X121.101596 Y44.871022 Z-0.125000 I3.608998 J0.830192
G01 X119.920236 Y44.871022 Z-0.125000
G02 X119.974801 Y44.702184 Z-0.125000 I-51.950933 J-16.882651
G03 X120.031240 Y44.533792 Z-0.125000 I6.797495 J2.184616
G01 X121.178527 Y44.533792 Z-0.125000
G01 X121.178527 Y44.533792 Z-0.125000
G00 Z5.000000

(End cutting path id: path2985)


(Start cutting path id: path2879)
(Change tool to Default tool)

G00 Z5.000000
G00 X121.489761 Y43.833336

G01 Z-0.125000 F100.0(Penetrate)
G02 X121.391158 Y44.000428 Z-0.125000 I1.932927 J1.253284 F400.000000
G02 X121.308501 Y44.170214 Z-0.125000 I2.195309 J1.173759
G01 X120.163323 Y44.170214 Z-0.125000
G03 X120.227076 Y44.001388 Z-0.125000 I13.960601 J5.175433
G03 X120.292944 Y43.833336 Z-0.125000 I13.117005 J5.044357
G01 X121.489761 Y43.833336 Z-0.125000
G01 X121.489761 Y43.833336 Z-0.125000
G00 Z5.000000

(End cutting path id: path2879)


(Start cutting path id: path2955)
(Change tool to Default tool)

G00 Z5.000000
G00 X122.074997 Y43.137094

G01 Z-0.125000 F100.0(Penetrate)
G03 X121.927475 Y43.307340 Z-0.125000 I-27.539372 J-23.714535 F400.000000
G03 X121.774651 Y43.473974 Z-0.125000 I-3.397049 J-2.962114
G01 X120.445754 Y43.473974 Z-0.125000
G03 X120.522107 Y43.304880 Z-0.125000 I7.451186 J3.262764
G03 X120.601371 Y43.137094 Z-0.125000 I14.531325 J6.762113
G01 X122.074997 Y43.137094 Z-0.125000
G01 X122.074997 Y43.137094 Z-0.125000
G00 Z5.000000

(End cutting path id: path2955)


(Start cutting path id: path1513)
(Change tool to Default tool)

G00 Z5.000000
G00 X122.373585 Y42.773518

G01 Z-0.125000 F100.0(Penetrate)
G01 X120.781928 Y42.773518 Z-0.125000 F400.000000
G02 X120.802161 Y42.732180 Z-0.125000 I-0.715811 J-0.375967
G03 X120.823028 Y42.690616 Z-0.125000 I0.548724 J0.249467
G02 X120.885404 Y42.563677 Z-0.125000 I-1.969277 J-1.046468
G03 X120.945276 Y42.436288 Z-0.125000 I4.471865 J2.023974
G01 X122.629671 Y42.436288 Z-0.125000
G03 X122.501915 Y42.607687 Z-0.125000 I-4.544059 J-3.253713
G02 X122.373585 Y42.773518 Z-0.125000 I77.682724 J60.247684
G01 X122.373585 Y42.773518 Z-0.125000
G00 Z5.000000

(End cutting path id: path1513)


(Start cutting path id: path2923)
(Change tool to Default tool)

G00 Z5.000000
G00 X123.091957 Y41.741451

G01 Z-0.125000 F100.0(Penetrate)
G03 X122.980890 Y41.912982 Z-0.125000 I-5.068435 J-3.160106 F400.000000
G02 X122.870299 Y42.078332 Z-0.125000 I37.065412 J24.910093
G01 X121.111781 Y42.078332 Z-0.125000
G02 X121.177785 Y41.909922 Z-0.125000 I-4.553301 J-1.881697
G02 X121.239298 Y41.741451 Z-0.125000 I-16.530386 J-6.131073
G01 X123.091957 Y41.741451 Z-0.125000
G01 X123.091957 Y41.741451 Z-0.125000
G00 Z5.000000

(End cutting path id: path2923)


(Start cutting path id: path2901)
(Change tool to Default tool)

G00 Z5.000000
G00 X123.315022 Y41.040646

G01 Z-0.125000 F100.0(Penetrate)
G02 X123.394492 Y41.075305 Z-0.125000 I6.837496 J-15.569037 F400.000000
G02 X123.472045 Y41.106686 Z-0.125000 I0.686422 J-1.584888
G03 X123.390491 Y41.244353 Z-0.125000 I-5.237245 J-3.009555
G02 X123.310103 Y41.377526 Z-0.125000 I13.356645 J8.153384
G01 X121.359437 Y41.377526 Z-0.125000
G02 X121.410212 Y41.210122 Z-0.125000 I-15.662302 J-4.841948
G02 X121.457444 Y41.040646 Z-0.125000 I-4.857271 J-1.445009
G01 X123.315022 Y41.040646 Z-0.125000
G01 X123.315022 Y41.040646 Z-0.125000
G00 Z5.000000

(End cutting path id: path2901)


(Start cutting path id: path2899)
(Change tool to Default tool)

G00 Z5.000000
G00 X122.640559 Y40.343001

G01 Z-0.125000 F100.0(Penetrate)
G02 X122.651950 Y40.391982 Z-0.125000 I3.640066 J-0.820713 F400.000000
G02 X122.666552 Y40.440305 Z-0.125000 I0.421933 J-0.101126
G02 X122.728539 Y40.571249 Z-0.125000 I0.818496 J-0.307323
G02 X122.802498 Y40.679878 Z-0.125000 I0.783078 J-0.453660
G01 X121.537883 Y40.679878 Z-0.125000
G03 X121.573264 Y40.512703 Z-0.125000 I22.027168 J4.574501
G02 X121.605681 Y40.343001 Z-0.125000 I-3.577005 J-0.771242
G01 X122.640556 Y40.343001 Z-0.125000
G01 X122.640559 Y40.343001 Z-0.125000
G00 Z5.000000

(End cutting path id: path2899)


(Start cutting path id: path2903)
(Change tool to Default tool)

G00 Z5.000000
G00 X122.552740 Y39.642192

G01 Z-0.125000 F100.0(Penetrate)
G02 X122.604518 Y39.709364 Z-0.125000 I0.835368 J-0.590384 F400.000000
G02 X122.670068 Y39.777086 Z-0.125000 I0.509302 J-0.427385
G02 X122.642151 Y39.882192 Z-0.125000 I1.071447 J0.340846
G02 X122.624752 Y39.979072 Z-0.125000 I1.435356 J0.307788
G01 X121.659431 Y39.979072 Z-0.125000
G02 X121.682253 Y39.812302 Z-0.125000 I-15.371159 J-2.188510
G02 X121.702639 Y39.642192 Z-0.125000 I-7.504918 J-0.985645
G01 X122.552740 Y39.642192 Z-0.125000
G01 X122.552740 Y39.642192 Z-0.125000
G00 Z5.000000

(End cutting path id: path2903)


(Start cutting path id: path2911)
(Change tool to Default tool)

G00 Z5.000000
G00 X122.407308 Y38.947006

G01 Z-0.125000 F100.0(Penetrate)
G02 X122.396154 Y39.106973 Z-0.125000 I1.345709 J0.174203 F400.000000
G02 X122.408719 Y39.284239 Z-0.125000 I1.094683 J0.011485
G01 X121.736367 Y39.284239 Z-0.125000
G02 X121.749664 Y39.117123 Z-0.125000 I-15.040556 J-1.280794
G02 X121.760949 Y38.947006 Z-0.125000 I-11.177454 J-0.826904
G01 X122.407305 Y38.947006 Z-0.125000
G01 X122.407308 Y38.947006 Z-0.125000
G00 Z5.000000

(End cutting path id: path2911)


(Start cutting path id: path2909)
(Change tool to Default tool)

G00 Z5.000000
G00 X122.549929 Y38.246200

G01 Z-0.125000 F100.0(Penetrate)
G01 X122.532008 Y38.393387 Z-0.125000 F400.000000
G03 X122.515329 Y38.481553 Z-0.125000 I-0.560808 J-0.060435
G03 X122.486694 Y38.583080 Z-0.125000 I-6.133867 J-1.675154
G01 X121.780617 Y38.583080 Z-0.125000
G02 X121.786909 Y38.416469 Z-0.125000 I-12.612282 J-0.559717
G03 X121.792216 Y38.246200 Z-0.125000 I4809.283915 J149.822587
G01 X122.549929 Y38.246200 Z-0.125000
G01 X122.549929 Y38.246200 Z-0.125000
G00 Z5.000000

(End cutting path id: path2909)


(Start cutting path id: path2907)
(Change tool to Default tool)

G00 Z5.000000
G00 X121.804160 Y37.555579

G01 Z-0.125000 F100.0(Penetrate)
G01 X122.555551 Y37.555579 Z-0.125000 F400.000000
G03 X122.580874 Y37.712803 Z-0.125000 I-0.915725 J0.228139
G03 X122.582955 Y37.892810 Z-0.125000 I-1.410990 J0.106329
G01 X121.800652 Y37.892810 Z-0.125000
G03 X121.802359 Y37.824218 Z-0.125000 I2.679460 J0.032372
G02 X121.804180 Y37.755108 Z-0.125000 I-3.043616 J-0.114758
G01 X121.804180 Y37.555579 Z-0.125000
G01 X121.804160 Y37.555579 Z-0.125000
G00 Z5.000000

(End cutting path id: path2907)


(Start cutting path id: path1517)
(Change tool to Default tool)

G00 Z5.000000
G00 X122.392906 Y36.855124

G01 Z-0.125000 F100.0(Penetrate)
G02 X122.419200 Y37.020393 Z-0.125000 I3.741759 J-0.510570 F400.000000
G02 X122.455436 Y37.192004 Z-0.125000 I3.064205 J-0.557375
G01 X121.803807 Y37.192004 Z-0.125000
G03 X121.804019 Y37.084952 Z-0.125000 I26.982859 J-0.000000
G02 X121.803807 Y36.978424 Z-0.125000 I-8.935622 J-0.035451
G01 X121.803807 Y36.855124 Z-0.125000
G01 X122.392906 Y36.855124 Z-0.125000
G01 X122.392906 Y36.855124 Z-0.125000
G00 Z5.000000

(End cutting path id: path1517)


(Start cutting path id: path1515)
(Change tool to Default tool)

G00 Z5.000000
G00 X122.363400 Y36.496467

G01 Z-0.125000 F100.0(Penetrate)
G01 X121.802052 Y36.496467 Z-0.125000 F400.000000
G03 X121.803855 Y36.326973 Z-0.125000 I15.040822 J0.075289
G02 X121.806257 Y36.159587 Z-0.125000 I-43.395587 J-0.706328
G01 X122.373577 Y36.159587 Z-0.125000
G02 X122.364557 Y36.325502 Z-0.125000 I3.758179 J0.287508
G02 X122.363389 Y36.496467 Z-0.125000 I3.360150 J0.108455
G01 X122.363400 Y36.496467 Z-0.125000
G00 Z5.000000

(End cutting path id: path1515)


(Start cutting path id: path2897)
(Change tool to Default tool)

G00 Z5.000000
G00 X122.496886 Y35.458781

G01 Z-0.125000 F100.0(Penetrate)
G02 X122.455327 Y35.625593 Z-0.125000 I3.710652 J1.013028 F400.000000
G02 X122.420657 Y35.796011 Z-0.125000 I4.017944 J0.906146
G01 X121.812940 Y35.796011 Z-0.125000
G03 X121.821998 Y35.626937 Z-0.125000 I5.206533 J0.194162
G02 X121.833655 Y35.458781 Z-0.125000 I-149.529968 J-10.450202
G01 X122.496874 Y35.458781 Z-0.125000
G01 X122.496886 Y35.458781 Z-0.125000
G00 Z5.000000

(End cutting path id: path2897)


(Start cutting path id: path2895)
(Change tool to Default tool)

G00 Z5.000000
G00 X122.738567 Y34.761486

G01 Z-0.125000 F100.0(Penetrate)
G02 X122.671511 Y34.927920 Z-0.125000 I6.768347 J2.823680 F400.000000
G02 X122.608242 Y35.098364 Z-0.125000 I5.525867 J2.148168
G01 X121.863875 Y35.098364 Z-0.125000
G03 X121.883355 Y34.929931 Z-0.125000 I6.847066 J0.706539
G03 X121.907083 Y34.761486 Z-0.125000 I6.754780 J0.865642
G01 X122.738567 Y34.761486 Z-0.125000
G01 X122.738567 Y34.761486 Z-0.125000
G00 Z5.000000

(End cutting path id: path2895)


(Start cutting path id: path2887)
(Change tool to Default tool)

G00 Z5.000000
G00 X123.062450 Y34.060328

G01 Z-0.125000 F100.0(Penetrate)
G02 X122.980708 Y34.226860 Z-0.125000 I23.469430 J11.623378 F400.000000
G02 X122.899806 Y34.397558 Z-0.125000 I8.348894 J4.061453
G01 X121.982609 Y34.397558 Z-0.125000
G03 X122.051096 Y34.222812 Z-0.125000 I1.394536 J0.445756
G03 X122.135065 Y34.060328 Z-0.125000 I2.107110 J0.985986
G01 X123.062450 Y34.060328 Z-0.125000
G01 X123.062450 Y34.060328 Z-0.125000
G00 Z5.000000

(End cutting path id: path2887)


(Start cutting path id: path1539)
(Change tool to Default tool)

G00 Z5.000000
G00 X123.238794 Y33.702371

G01 Z-0.125000 F100.0(Penetrate)
G01 X122.387287 Y33.702371 Z-0.125000 F400.000000
G03 X122.535868 Y33.534930 Z-0.125000 I2.996330 J2.509187
G03 X122.702036 Y33.365141 Z-0.125000 I4.288138 J4.030465
G01 X123.401789 Y33.365141 Z-0.125000
G03 X123.321180 Y33.533683 Z-0.125000 I-31.842790 J-15.125925
G03 X123.238794 Y33.702371 Z-0.125000 I-15.225183 J-7.331394
G01 X123.238794 Y33.702371 Z-0.125000
G00 Z5.000000

(End cutting path id: path1539)


(Start cutting path id: path5)
(Change tool to Default tool)

G00 Z5.000000
G00 X124.325657 Y33.182476

G01 Z-0.125000 F100.0(Penetrate)
G02 X124.271621 Y33.232331 Z-0.125000 I2.414746 J2.671494 F400.000000
G03 X124.218517 Y33.281536 Z-0.125000 I-3.076088 J-3.266545
G01 X124.218517 Y33.281536 Z-0.125000
G01 X124.218517 Y33.281536 Z-0.125000
G02 X124.206179 Y33.221958 Z-0.125000 I-16.086136 J3.300312
G02 X124.193230 Y33.161749 Z-0.125000 I-5.218080 J1.090730
G03 X124.206096 Y33.221181 Z-0.125000 I-6.698341 J1.481112
G03 X124.218517 Y33.281536 Z-0.125000 I-5.222285 J1.106272
G02 X124.271352 Y33.232591 Z-0.125000 I-2.877133 J-3.158792
G03 X124.325657 Y33.182476 Z-0.125000 I2.452459 J2.603022
G01 X124.325657 Y33.182476 Z-0.125000
G00 Z5.000000

(End cutting path id: path5)


(Start cutting path id: path1537)
(Change tool to Default tool)

G00 Z5.000000
G00 X124.823074 Y33.001565

G01 Z-0.125000 F100.0(Penetrate)
G01 X124.696260 Y33.001565 Z-0.125000 F400.000000
G02 X124.669448 Y32.950412 Z-0.125000 I-1.118745 J0.553789
G02 X124.634434 Y32.901800 Z-0.125000 I-0.222028 J0.123006
G02 X124.481343 Y32.793138 Z-0.125000 I-0.323617 J0.293761
G02 X124.309850 Y32.757776 Z-0.125000 I-0.174119 J0.410900
G02 X124.245099 Y32.742382 Z-0.125000 I-0.130704 J0.405885
G02 X124.176715 Y32.737061 Z-0.125000 I-0.068385 J0.436807
G02 X124.131436 Y32.739513 Z-0.125000 I-0.000000 J0.419313
G02 X124.084679 Y32.746544 Z-0.125000 I0.062194 J0.572596
G02 X123.976330 Y32.784652 Z-0.125000 I0.094308 J0.441218
G02 X123.887609 Y32.843496 Z-0.125000 I0.200062 J0.397949
G02 X123.743361 Y32.906009 Z-0.125000 I0.162473 J0.572578
G02 X123.620635 Y33.001221 Z-0.125000 I0.338790 J0.563395
G01 X123.085635 Y33.001221 Z-0.125000
G02 X123.258810 Y32.835978 Z-0.125000 I-7.541407 J-8.076742
G02 X123.431295 Y32.664344 Z-0.125000 I-8.387645 J-8.601743
G01 X124.650594 Y32.664344 Z-0.125000
G02 X124.704329 Y32.843070 Z-0.125000 I0.505615 J-0.054575
G02 X124.823074 Y33.001574 Z-0.125000 I0.531333 J-0.274322
G01 X124.823074 Y33.001565 Z-0.125000
G00 Z5.000000

(End cutting path id: path1537)


(Start cutting path id: path2335)
(Change tool to Default tool)

G00 Z5.000000
G00 X124.983608 Y33.702371

G01 Z-0.125000 F100.0(Penetrate)
G01 X124.633731 Y33.702371 Z-0.125000 F400.000000
G01 X124.633731 Y33.605067 Z-0.125000
G02 X124.633659 Y33.552727 Z-0.125000 I-19.031883 J-0.000000
G02 X124.633167 Y33.500385 Z-0.125000 I-3.930800 J0.010810
G02 X124.682743 Y33.435552 Z-0.125000 I-0.295457 J-0.277301
G02 X124.718175 Y33.365141 Z-0.125000 I-0.391927 J-0.241344
G01 X125.033626 Y33.365141 Z-0.125000
G03 X125.023560 Y33.489080 Z-0.125000 I-0.836755 J-0.005579
G03 X124.983743 Y33.702371 Z-0.125000 I-3.677681 J-0.576185
G01 X124.983608 Y33.702371 Z-0.125000
G00 Z5.000000

(End cutting path id: path2335)


(Start cutting path id: path2969)
(Change tool to Default tool)

G00 Z5.000000
G00 X124.914054 Y34.060328

G01 Z-0.125000 F100.0(Penetrate)
G02 X124.895525 Y34.224130 Z-0.125000 I2.155068 J0.326729 F400.000000
G02 X124.891928 Y34.397558 Z-0.125000 I1.600100 J0.119938
G01 X124.605280 Y34.397558 Z-0.125000
G02 X124.621028 Y34.228707 Z-0.125000 I-5.148614 J-0.565354
G02 X124.629862 Y34.060328 Z-0.125000 I-3.471898 J-0.266561
G01 X124.914048 Y34.060328 Z-0.125000
G01 X124.914054 Y34.060328 Z-0.125000
G00 Z5.000000

(End cutting path id: path2969)


(Start cutting path id: path2971)
(Change tool to Default tool)

G00 Z5.000000
G00 X124.877170 Y34.761486

G01 Z-0.125000 F100.0(Penetrate)
G02 X124.859767 Y34.919175 Z-0.125000 I3.913809 J0.511754 F400.000000
G02 X124.849061 Y35.098364 Z-0.125000 I2.965671 J0.267103
G01 X124.427875 Y35.098364 Z-0.125000
G02 X124.493746 Y34.932138 Z-0.125000 I-2.174054 J-0.957684
G02 X124.544501 Y34.761486 Z-0.125000 I-1.660679 J-0.586787
G01 X124.877165 Y34.761486 Z-0.125000
G01 X124.877170 Y34.761486 Z-0.125000
G00 Z5.000000

(End cutting path id: path2971)


(Start cutting path id: path2961)
(Change tool to Default tool)

G00 Z5.000000
G00 X124.859958 Y35.458781

G01 Z-0.125000 F100.0(Penetrate)
G02 X124.885143 Y35.625443 Z-0.125000 I2.080885 J-0.229218 F400.000000
G02 X124.925998 Y35.796011 Z-0.125000 I1.920847 J-0.369909
G01 X124.027772 Y35.796011 Z-0.125000
G03 X124.080379 Y35.681052 Z-0.125000 I0.687550 J0.245115
G03 X124.218517 Y35.458781 Z-0.125000 I2.832411 J1.606251
G01 X124.859958 Y35.458781 Z-0.125000
G01 X124.859958 Y35.458781 Z-0.125000
G00 Z5.000000

(End cutting path id: path2961)


(Start cutting path id: path2973)
(Change tool to Default tool)

G00 Z5.000000
G00 X125.083020 Y36.159587

G01 Z-0.125000 F100.0(Penetrate)
G02 X125.196815 Y36.327269 Z-0.125000 I1.268595 J-0.738454 F400.000000
G02 X125.349294 Y36.496467 Z-0.125000 I1.315697 J-1.032387
G01 X124.495679 Y36.496467 Z-0.125000
G02 X124.352017 Y36.328530 Z-0.125000 I-3.930213 J3.216706
G02 X124.186903 Y36.159587 Z-0.125000 I-1.978546 J1.768541
G01 X125.083020 Y36.159587 Z-0.125000
G01 X125.083020 Y36.159587 Z-0.125000
G00 Z5.000000

(End cutting path id: path2973)


(Start cutting path id: path2331)
(Change tool to Default tool)

G00 Z5.000000
G00 X125.872001 Y36.855124

G01 Z-0.125000 F100.0(Penetrate)
G02 X125.955187 Y36.894975 Z-0.125000 I2.928540 J-6.006372 F400.000000
G02 X126.046236 Y36.934516 Z-0.125000 I0.701106 J-1.489814
G02 X126.455007 Y37.083131 Z-0.125000 I2.717020 J-6.836775
G02 X126.813435 Y37.192004 Z-0.125000 I2.423717 J-7.334827
G01 X126.470936 Y37.192004 Z-0.125000
G03 X125.753590 Y37.102024 Z-0.125000 I2.469539 J-22.592355
G03 X125.115340 Y37.006877 Z-0.125000 I6.201207 J-43.786301
G03 X124.963292 Y36.955918 Z-0.125000 I0.074651 J-0.475052
G03 X124.818155 Y36.855124 Z-0.125000 I0.359547 J-0.672614
G01 X125.872001 Y36.855124 Z-0.125000
G01 X125.872001 Y36.855124 Z-0.125000
G00 Z5.000000

(End cutting path id: path2331)


(Start cutting path id: path5)
(Change tool to Default tool)

G00 Z5.000000
G00 X127.752411 Y39.862097

G01 Z-0.125000 F100.0(Penetrate)
G02 X127.758198 Y39.852083 Z-0.125000 I-0.325727 J-0.194913 F400.000000
G03 X127.764010 Y39.842059 Z-0.125000 I0.302767 J0.168865
G01 X127.774198 Y39.842059 Z-0.125000
G01 X127.774198 Y39.854364 Z-0.125000
G03 X127.763488 Y39.859060 Z-0.125000 I-0.037836 J-0.071737
G02 X127.752411 Y39.863508 Z-0.125000 I0.048909 J0.137812
G01 X127.752411 Y39.862097 Z-0.125000
G00 Z5.000000

(End cutting path id: path5)


(Start cutting path id: path5)
(Change tool to Default tool)

G00 Z5.000000
G00 X128.384366 Y39.740200

G01 Z-0.125000 F100.0(Penetrate)
G03 X128.078892 Y39.790747 Z-0.125000 I-7.555616 J-44.713098 F400.000000
G02 X127.774543 Y39.840668 Z-0.125000 I12.276033 J75.794378
G02 X127.786402 Y39.559370 Z-0.125000 I-161.871451 J-6.965144
G02 X127.797741 Y39.278617 Z-0.125000 I-156.542142 J-6.463323
G03 X127.829524 Y39.244015 Z-0.125000 I0.081691 J0.043139
G03 X127.873970 Y39.230492 Z-0.125000 I0.046154 J0.071892
G02 X128.169436 Y39.320743 Z-0.125000 I0.288728 J-0.416469
G02 X128.435318 Y39.208366 Z-0.125000 I-0.005090 J-0.382766
G02 X128.469588 Y38.947465 Z-0.125000 I-0.152768 J-0.152768
G03 X128.361195 Y38.733081 Z-0.125000 I1.855565 J-1.072771
G03 X128.701269 Y38.644419 Z-0.125000 I36.747936 J140.253680
G02 X129.041277 Y38.556037 Z-0.125000 I-91.283024 J-351.871367
G03 X128.999605 Y39.317171 Z-0.125000 I-0.757071 J0.340258
G03 X128.384380 Y39.740205 Z-0.125000 I-0.760828 J-0.447602
G01 X128.384366 Y39.740200 Z-0.125000
G00 Z5.000000

(End cutting path id: path5)


(Start cutting path id: path5)
(Change tool to Default tool)

G00 Z5.000000
G00 X128.199242 Y40.825660

G01 Z-0.125000 F100.0(Penetrate)
G02 X127.660622 Y40.757383 Z-0.125000 I-0.355148 J0.643018 F400.000000
G03 X127.120103 Y40.468056 Z-0.125000 I-0.113064 J-0.438336
G03 X127.314908 Y40.046309 Z-0.125000 I0.315442 J-0.110161
G02 X127.752764 Y39.861744 Z-0.125000 I-2.906145 J-7.506100
G02 X127.935293 Y40.361353 Z-0.125000 I0.270013 J0.184499
G03 X128.199242 Y40.825660 Z-0.125000 I-0.101265 J0.364746
G01 X128.199242 Y40.825660 Z-0.125000
G00 Z5.000000

(End cutting path id: path5)


(Start cutting path id: path5)
(Change tool to Default tool)

G00 Z5.000000
G00 X128.824172 Y40.830579

G01 Z-0.125000 F100.0(Penetrate)
G03 X129.486902 Y40.898471 Z-0.125000 I0.056503 J2.717027 F400.000000
G03 X130.170282 Y41.287949 Z-0.125000 I-0.303705 J1.327152
G03 X129.406331 Y41.314848 Z-0.125000 I-0.443109 J-1.722774
G03 X128.824172 Y40.830579 Z-0.125000 I0.139266 J-0.759469
G01 X128.824172 Y40.830579 Z-0.125000
G00 Z5.000000

(End cutting path id: path5)


(Start cutting path id: path2989)
(Change tool to Default tool)

G00 Z5.000000
G00 X131.870487 Y41.040646

G01 Z-0.125000 F100.0(Penetrate)
G01 X134.522312 Y41.040646 Z-0.125000 F400.000000
G01 X134.219155 Y41.260198 Z-0.125000
G02 X134.140728 Y41.318730 Z-0.125000 I2.257469 J3.106578
G03 X134.061429 Y41.377526 Z-0.125000 I-1.890665 J-2.467077
G01 X131.852922 Y41.377526 Z-0.125000
G02 X131.870209 Y41.204382 Z-0.125000 I-1.491333 J-0.236337
G02 X131.870476 Y41.040646 Z-0.125000 I-2.033538 J-0.085181
G01 X131.870487 Y41.040646 Z-0.125000
G00 Z5.000000

(End cutting path id: path2989)


(Start cutting path id: path2261)
(Change tool to Default tool)

G00 Z5.000000
G00 X133.323034 Y41.926578

G01 Z-0.125000 F100.0(Penetrate)
G02 X133.230041 Y42.006034 Z-0.125000 I0.909152 J1.158190 F400.000000
G02 X133.156879 Y42.078332 Z-0.125000 I1.135071 J1.221818
G01 X132.084418 Y42.078332 Z-0.125000
G02 X131.903695 Y41.923976 Z-0.125000 I-3.182762 J3.543477
G02 X131.729622 Y41.788523 Z-0.125000 I-3.366504 J4.146770
G02 X131.739011 Y41.764847 Z-0.125000 I-0.197151 J-0.091886
G03 X131.747543 Y41.741451 Z-0.125000 I0.385128 J0.127189
G01 X133.571748 Y41.741451 Z-0.125000
G03 X133.446923 Y41.833184 Z-0.125000 I-3.373427 J-4.459623
G02 X133.323040 Y41.926578 Z-0.125000 I1.728060 J2.421046
G01 X133.323034 Y41.926578 Z-0.125000
G00 Z5.000000

(End cutting path id: path2261)


(Start cutting path id: path2151)
(Change tool to Default tool)

G00 Z5.000000
G00 X132.929953 Y42.436288

G01 Z-0.125000 F100.0(Penetrate)
G02 X132.891057 Y42.628247 Z-0.125000 I0.753620 J0.252622 F400.000000
G02 X132.895527 Y42.765791 Z-0.125000 I0.631340 J0.048326
G01 X132.896555 Y42.770415 Z-0.125000
G01 X132.896938 Y42.773157 Z-0.125000
G01 X132.681600 Y42.773157 Z-0.125000
G02 X132.560862 Y42.596375 Z-0.125000 I-1.989599 J1.229220
G02 X132.432541 Y42.435927 Z-0.125000 I-2.772950 J2.086176
G01 X132.929958 Y42.435927 Z-0.125000
G01 X132.929953 Y42.436288 Z-0.125000
G00 Z5.000000

(End cutting path id: path2151)


(Start cutting path id: path2271)
(Change tool to Default tool)

G00 Z5.000000
G00 X133.072571 Y43.137094

G01 Z-0.125000 F100.0(Penetrate)
G02 X133.197436 Y43.254024 Z-0.125000 I0.664381 J-0.584337 F400.000000
G02 X133.406640 Y43.385100 Z-0.125000 I0.784792 J-1.020080
G03 X133.361691 Y43.433296 Z-0.125000 I-0.312468 J-0.246354
G02 X133.319524 Y43.473974 Z-0.125000 I0.654945 J0.721123
G01 X132.981238 Y43.473974 Z-0.125000
G02 X132.928018 Y43.298567 Z-0.125000 I-3.234880 J0.885721
G02 X132.866721 Y43.137094 Z-0.125000 I-2.003862 J0.668316
G01 X133.072571 Y43.137094 Z-0.125000
G01 X133.072571 Y43.137094 Z-0.125000
G00 Z5.000000

(End cutting path id: path2271)


(Start cutting path id: path2967)
(Change tool to Default tool)

G00 Z5.000000
G00 X133.985904 Y40.343001

G01 Z-0.125000 F100.0(Penetrate)
G02 X134.247655 Y40.440740 Z-0.125000 I0.596317 J-1.197605 F400.000000
G02 X134.551116 Y40.479297 Z-0.125000 I0.303461 J-1.174914
G02 X134.616399 Y40.477139 Z-0.125000 I0.000000 J-0.988228
G02 X134.682846 Y40.472270 Z-0.125000 I-0.312960 J-4.727120
G02 X134.897319 Y40.421258 Z-0.125000 I-0.088988 J-0.850505
G02 X135.055557 Y40.342998 Z-0.125000 I-0.325006 J-0.856255
G01 X135.342905 Y40.342998 Z-0.125000
G03 X135.173727 Y40.508930 Z-0.125000 I-1.958012 J-1.827096
G03 X134.971602 Y40.679875 Z-0.125000 I-3.003149 J-3.345954
G01 X131.825874 Y40.679875 Z-0.125000
G02 X131.787037 Y40.505428 Z-0.125000 I-3.861222 J0.768058
G02 X131.743674 Y40.342998 Z-0.125000 I-4.266314 J1.051968
G01 X133.985904 Y40.342998 Z-0.125000
G01 X133.985904 Y40.343001 Z-0.125000
G00 Z5.000000

(End cutting path id: path2967)


(Start cutting path id: path2251)
(Change tool to Default tool)

G00 Z5.000000
G00 X133.519052 Y39.979072

G01 Z-0.125000 F100.0(Penetrate)
G01 X131.639695 Y39.979072 Z-0.125000 F400.000000
G03 X131.612595 Y39.868763 Z-0.125000 I3.092060 J-0.818100
G03 X131.592270 Y39.765845 Z-0.125000 I1.816890 J-0.412283
G02 X131.758785 Y39.729815 Z-0.125000 I-0.019427 J-0.492578
G02 X131.900344 Y39.642192 Z-0.125000 I-0.188336 J-0.462425
G01 X133.266480 Y39.642192 Z-0.125000
G02 X133.384189 Y39.815931 Z-0.125000 I1.927932 J-1.179446
G02 X133.519052 Y39.979072 Z-0.125000 I1.735161 J-1.297074
G01 X133.519052 Y39.979072 Z-0.125000
G00 Z5.000000

(End cutting path id: path2251)


(Start cutting path id: path2963)
(Change tool to Default tool)

G00 Z5.000000
G00 X132.062638 Y38.947006

G01 Z-0.125000 F100.0(Penetrate)
G01 X132.962973 Y38.947006 Z-0.125000 F400.000000
G02 X132.998166 Y39.044998 Z-0.125000 I3.712460 J-1.278002
G03 X133.032173 Y39.142670 Z-0.125000 I-2.104992 J0.787666
G02 X133.059019 Y39.212855 Z-0.125000 I1.381050 J-0.488018
G03 X133.088381 Y39.284239 Z-0.125000 I-47.839061 J19.719277
G01 X132.072824 Y39.284239 Z-0.125000
G02 X132.080942 Y39.112833 Z-0.125000 I-1.075231 J-0.136818
G02 X132.062636 Y38.947006 Z-0.125000 I-1.069562 J0.034147
G01 X132.062638 Y38.947006 Z-0.125000
G00 Z5.000000

(End cutting path id: path2963)


(Start cutting path id: path2965)
(Change tool to Default tool)

G00 Z5.000000
G00 X132.713561 Y38.246200

G01 Z-0.125000 F100.0(Penetrate)
G02 X132.771931 Y38.417888 Z-0.125000 I7.516558 J-2.459659 F400.000000
G02 X132.830890 Y38.583080 Z-0.125000 I22.720764 J-8.016186
G01 X131.969897 Y38.583080 Z-0.125000
G03 X131.926756 Y38.410135 Z-0.125000 I7.211974 J-1.890877
G03 X131.890861 Y38.246200 Z-0.125000 I4.817830 J-1.140810
G01 X132.713561 Y38.246200 Z-0.125000
G01 X132.713561 Y38.246200 Z-0.125000
G00 Z5.000000

(End cutting path id: path2965)


(Start cutting path id: path2249)
(Change tool to Default tool)

G00 Z5.000000
G00 X132.610285 Y37.892810

G01 Z-0.125000 F100.0(Penetrate)
G01 X131.832898 Y37.892810 Z-0.125000 F400.000000
G03 X131.817556 Y37.721024 Z-0.125000 I3.547903 J-0.403450
G03 X131.812183 Y37.555579 Z-0.125000 I2.544713 J-0.165444
G01 X132.540037 Y37.555579 Z-0.125000
G02 X132.571367 Y37.726483 Z-0.125000 I4.273820 J-0.695153
G02 X132.610294 Y37.892810 Z-0.125000 I2.934011 J-0.598945
G01 X132.610285 Y37.892810 Z-0.125000
G00 Z5.000000

(End cutting path id: path2249)


(Start cutting path id: path2239)
(Change tool to Default tool)

G00 Z5.000000
G00 X132.502442 Y37.191651

G01 Z-0.125000 F100.0(Penetrate)
G01 X131.838870 Y37.191651 Z-0.125000 F400.000000
G03 X131.861313 Y37.064705 Z-0.125000 I2.685195 J0.409269
G03 X131.892267 Y36.935568 Z-0.125000 I1.781942 J0.358841
G02 X131.897759 Y36.895612 Z-0.125000 I-0.139486 J-0.039529
G03 X131.899294 Y36.854774 Z-0.125000 I0.504382 J-0.001488
G01 X132.507011 Y36.854774 Z-0.125000
G02 X132.499307 Y37.026707 Z-0.125000 I2.705725 J0.207379
G02 X132.502439 Y37.191651 Z-0.125000 I2.574028 J0.033624
G01 X132.502442 Y37.191651 Z-0.125000
G00 Z5.000000

(End cutting path id: path2239)


(Start cutting path id: path2243)
(Change tool to Default tool)

G00 Z5.000000
G00 X132.619771 Y36.159587

G01 Z-0.125000 F100.0(Penetrate)
G03 X132.603157 Y36.270964 Z-0.125000 I-1.786579 J-0.209575 F400.000000
G03 X132.578671 Y36.383705 Z-0.125000 I-1.646359 J-0.298538
G02 X132.567293 Y36.440227 Z-0.125000 I0.604459 J0.151081
G03 X132.557250 Y36.496467 Z-0.125000 I-1.159287 J-0.178003
G01 X131.878573 Y36.496467 Z-0.125000
G01 X131.844148 Y36.159587 Z-0.125000
G01 X132.619779 Y36.159587 Z-0.125000
G01 X132.619771 Y36.159587 Z-0.125000
G00 Z5.000000

(End cutting path id: path2243)


(Start cutting path id: path2241)
(Change tool to Default tool)

G00 Z5.000000
G00 X132.590261 Y35.458781

G01 Z-0.125000 F100.0(Penetrate)
G03 X132.613909 Y35.628692 Z-0.125000 I-3.328750 J0.549876 F400.000000
G03 X132.627851 Y35.796011 Z-0.125000 I-2.806562 J0.318099
G01 X131.808661 Y35.796011 Z-0.125000
G01 X131.794945 Y35.662523 Z-0.125000
G01 X131.773524 Y35.458781 Z-0.125000
G01 X132.590253 Y35.458781 Z-0.125000
G01 X132.590261 Y35.458781 Z-0.125000
G00 Z5.000000

(End cutting path id: path2241)


(Start cutting path id: path2279)
(Change tool to Default tool)

G00 Z5.000000
G00 X132.418837 Y34.761486

G01 Z-0.125000 F100.0(Penetrate)
G03 X132.466755 Y34.931853 Z-0.125000 I-20.665793 J5.904439 F400.000000
G03 X132.510872 Y35.098364 Z-0.125000 I-7.505773 J2.077785
G01 X131.736296 Y35.098364 Z-0.125000
G02 X131.719477 Y34.929962 Z-0.125000 I-9.202308 J0.834053
G03 X131.701871 Y34.761486 Z-0.125000 I18.383429 J-2.006269
G01 X132.418837 Y34.761486 Z-0.125000
G01 X132.418837 Y34.761486 Z-0.125000
G00 Z5.000000

(End cutting path id: path2279)


(Start cutting path id: path2233)
(Change tool to Default tool)

G00 Z5.000000
G00 X131.663229 Y34.397558

G01 Z-0.125000 F100.0(Penetrate)
G02 X131.646325 Y34.229010 Z-0.125000 I-25.175268 J2.439782 F400.000000
G02 X131.628101 Y34.060328 Z-0.125000 I-19.565213 J2.028452
G01 X132.219661 Y34.060328 Z-0.125000
G02 X132.264751 Y34.230198 Z-0.125000 I16.886443 J-4.391298
G02 X132.311697 Y34.397558 Z-0.125000 I9.325044 J-2.525516
G01 X131.663229 Y34.397558 Z-0.125000
G01 X131.663229 Y34.397558 Z-0.125000
G00 Z5.000000

(End cutting path id: path2233)


(Start cutting path id: path2231)
(Change tool to Default tool)

G00 Z5.000000
G00 X131.591920 Y33.702371

G01 Z-0.125000 F100.0(Penetrate)
G03 X131.574481 Y33.533770 Z-0.125000 I13.363326 J-1.467388 F400.000000
G02 X131.556792 Y33.365141 Z-0.125000 I-10.874620 J1.055531
G01 X132.087226 Y33.365141 Z-0.125000
G02 X132.109649 Y33.535079 Z-0.125000 I4.900604 J-0.560201
G02 X132.138514 Y33.702371 Z-0.125000 I3.767246 J-0.563861
G01 X131.591920 Y33.702371 Z-0.125000
G01 X131.591920 Y33.702371 Z-0.125000
G00 Z5.000000

(End cutting path id: path2231)


(Start cutting path id: path2953)
(Change tool to Default tool)

G00 Z5.000000
G00 X132.018728 Y32.664685

G01 Z-0.125000 F100.0(Penetrate)
G03 X132.040798 Y32.824617 Z-0.125000 I-2.587886 J0.438613 F400.000000
G03 X132.056314 Y33.001565 Z-0.125000 I-4.670342 J0.498681
G01 X131.500587 Y33.001565 Z-0.125000
G02 X131.450515 Y32.818188 Z-0.125000 I-1.538554 J0.321587
G02 X131.387473 Y32.664685 Z-0.125000 I-1.255492 J0.425923
G01 X132.018728 Y32.664685 Z-0.125000
G01 X132.018728 Y32.664685 Z-0.125000
G00 Z5.000000

(End cutting path id: path2953)


(Start cutting path id: path2883)
(Change tool to Default tool)

G00 Z5.000000
G00 X131.152819 Y32.320781

G01 Z-0.125000 F100.0(Penetrate)
G02 X130.923427 Y32.127053 Z-0.125000 I-1.116013 J1.088787 F400.000000
G02 X130.677884 Y31.983550 Z-0.125000 I-1.065258 J1.540916
G01 X131.787935 Y31.983550 Z-0.125000
G03 X131.866728 Y32.141517 Z-0.125000 I-1.455803 J0.824782
G03 X131.934069 Y32.320781 Z-0.125000 I-1.737553 J0.755005
G01 X131.152819 Y32.320781 Z-0.125000
G01 X131.152819 Y32.320781 Z-0.125000
G00 Z5.000000

(End cutting path id: path2883)


(Start cutting path id: path1533)
(Change tool to Default tool)

G00 Z5.000000
G00 X129.451911 Y31.619975

G01 Z-0.125000 F100.0(Penetrate)
G02 X128.928787 Y31.548781 Z-0.125000 I-1.072147 J5.920521 F400.000000
G02 X128.357670 Y31.522670 Z-0.125000 I-0.571117 J6.232827
G02 X127.753443 Y31.550488 Z-0.125000 I-0.000000 J6.576058
G02 X127.156287 Y31.619975 Z-0.125000 I1.159174 J12.562407
G01 X124.752818 Y31.619975 Z-0.125000
G03 X125.450572 Y31.445864 Z-0.125000 I16.379132 J64.154562
G03 X126.157943 Y31.283095 Z-0.125000 I6.643294 J27.252342
G01 X130.973664 Y31.283095 Z-0.125000
G03 X131.272009 Y31.441134 Z-0.125000 I-0.853932 J1.972662
G03 X131.503395 Y31.619975 Z-0.125000 I-0.850914 J1.340031
G01 X129.451911 Y31.619975 Z-0.125000
G01 X129.451911 Y31.619975 Z-0.125000
G00 Z5.000000

(End cutting path id: path1533)


(Start cutting path id: path2881)
(Change tool to Default tool)

G00 Z5.000000
G00 X125.281143 Y31.983550

G01 Z-0.125000 F100.0(Penetrate)
G01 X125.226344 Y31.995855 Z-0.125000 F400.000000
G02 X124.859812 Y32.170135 Z-0.125000 I0.201576 J0.896510
G02 X124.726822 Y32.320792 Z-0.125000 I0.344934 J0.438511
G01 X123.738666 Y32.320792 Z-0.125000
G02 X123.862800 Y32.157764 Z-0.125000 I-2.422861 J-1.973610
G02 X123.979647 Y31.983562 Z-0.125000 I-3.148135 J-2.237914
G01 X125.281143 Y31.983562 Z-0.125000
G01 X125.281143 Y31.983550 Z-0.125000
G00 Z5.000000

(End cutting path id: path2881)


(Start cutting path id: path2237)
(Change tool to Default tool)

G00 Z5.000000
G00 X129.730478 Y36.892360

G01 Z-0.125000 F100.0(Penetrate)
G02 X129.725768 Y36.956686 Z-0.125000 I3.311219 J0.274817 F400.000000
G02 X129.722407 Y37.020929 Z-0.125000 I2.885393 J0.183161
G01 X129.550982 Y37.189193 Z-0.125000
G02 X129.539360 Y37.189545 Z-0.125000 I-0.000000 J0.192090
G01 X129.527106 Y37.192721 Z-0.125000
G01 X129.116106 Y37.192721 Z-0.125000
G02 X129.294809 Y37.128025 Z-0.125000 I-1.318493 J-3.921122
G02 X129.470199 Y37.052911 Z-0.125000 I-1.006318 J-2.592039
G02 X129.617360 Y36.972977 Z-0.125000 I-0.636107 J-1.346523
G02 X129.730498 Y36.893077 Z-0.125000 I-0.597111 J-0.965563
G01 X129.730478 Y36.892360 Z-0.125000
G00 Z5.000000

(End cutting path id: path2237)


(Start cutting path id: path2235)
(Change tool to Default tool)

G00 Z5.000000
G00 X135.847699 Y37.555579

G01 Z-0.125000 F100.0(Penetrate)
G01 X135.968538 Y37.555579 Z-0.125000 F400.000000
G02 X135.969275 Y37.725229 Z-0.125000 I19.510646 J-0.000000
G02 X135.972743 Y37.892810 Z-0.125000 I6.987745 J-0.060762
G01 X135.807287 Y37.892810 Z-0.125000
G02 X135.828357 Y37.722798 Z-0.125000 I-9.886409 J-1.311553
G03 X135.847687 Y37.555579 Z-0.125000 I223.762891 J25.781987
G01 X135.847699 Y37.555579 Z-0.125000
G00 Z5.000000

(End cutting path id: path2235)


(Start cutting path id: path2227)
(Change tool to Default tool)

G00 Z5.000000
G00 X135.887743 Y37.191651

G01 Z-0.125000 F100.0(Penetrate)
G02 X135.901671 Y37.021860 Z-0.125000 I-11.011342 J-0.988756 F400.000000
G03 X135.914441 Y36.854774 Z-0.125000 I39.159796 J2.908815
G01 X135.989967 Y36.854774 Z-0.125000
G02 X135.981119 Y37.024576 Z-0.125000 I6.645032 J0.431388
G03 X135.974162 Y37.191651 Z-0.125000 I-36.018289 J-1.416000
G01 X135.887746 Y37.191651 Z-0.125000
G01 X135.887743 Y37.191651 Z-0.125000
G00 Z5.000000

(End cutting path id: path2227)


(Start cutting path id: path2283)
(Change tool to Default tool)

G00 Z5.000000
G00 X135.938329 Y36.496467

G01 Z-0.125000 F100.0(Penetrate)
G02 X135.948132 Y36.325876 Z-0.125000 I-19.157089 J-1.186478 F400.000000
G02 X135.956250 Y36.159587 Z-0.125000 I-19.914351 J-1.055503
G01 X136.059876 Y36.159587 Z-0.125000
G02 X136.039222 Y36.329719 Z-0.125000 I14.760418 J1.878244
G02 X136.020884 Y36.496467 Z-0.125000 I15.099551 J1.744915
G01 X135.938334 Y36.496467 Z-0.125000
G01 X135.938329 Y36.496467 Z-0.125000
G00 Z5.000000

(End cutting path id: path2283)


(Start cutting path id: path2281)
(Change tool to Default tool)

G00 Z5.000000
G00 X136.168066 Y35.458781

G01 Z-0.125000 F100.0(Penetrate)
G02 X136.137716 Y35.628872 Z-0.125000 I18.650272 J3.415579 F400.000000
G02 X136.109753 Y35.796011 Z-0.125000 I13.355440 J2.320315
G01 X135.968538 Y35.796011 Z-0.125000
G03 X135.973282 Y35.624994 Z-0.125000 I30.628815 J0.764192
G02 X135.976609 Y35.458781 Z-0.125000 I-7.900872 J-0.241280
G01 X136.168057 Y35.458781 Z-0.125000
G01 X136.168066 Y35.458781 Z-0.125000
G00 Z5.000000

(End cutting path id: path2281)


(Start cutting path id: path2287)
(Change tool to Default tool)

G00 Z5.000000
G00 X135.979429 Y35.098364

G01 Z-0.125000 F100.0(Penetrate)
G02 X135.979563 Y34.926509 Z-0.125000 I-20.793219 J-0.102175 F400.000000
G02 X135.978864 Y34.761486 Z-0.125000 I-93.431198 J0.313091
G01 X136.361761 Y34.761486 Z-0.125000
G02 X136.302110 Y34.923298 Z-0.125000 I2.555193 J1.033854
G02 X136.250054 Y35.098364 Z-0.125000 I2.635646 J0.878979
G01 X135.979567 Y35.098364 Z-0.125000
G01 X135.979429 Y35.098364 Z-0.125000
G00 Z5.000000

(End cutting path id: path2287)


(Start cutting path id: path2277)
(Change tool to Default tool)

G00 Z5.000000
G00 X136.541480 Y34.397558

G01 Z-0.125000 F100.0(Penetrate)
G01 X135.977670 Y34.397558 Z-0.125000 F400.000000
G03 X135.979245 Y34.213975 Z-0.125000 I10.700308 J0.000000
G03 X135.985036 Y34.060328 Z-0.125000 I3.747106 J0.064298
G01 X136.789121 Y34.060328 Z-0.125000
G02 X136.659119 Y34.221004 Z-0.125000 I1.562174 J1.396875
G02 X136.541468 Y34.397558 Z-0.125000 I1.986669 J1.451339
G01 X136.541480 Y34.397558 Z-0.125000
G00 Z5.000000

(End cutting path id: path2277)


(Start cutting path id: path2949)
(Change tool to Default tool)

G00 Z5.000000
G00 X137.205752 Y33.702371

G01 Z-0.125000 F100.0(Penetrate)
G01 X136.028959 Y33.702371 Z-0.125000 F400.000000
G03 X136.082200 Y33.513360 Z-0.125000 I1.327721 J0.271996
G03 X136.152609 Y33.365141 Z-0.125000 I0.801656 J0.289977
G01 X137.931500 Y33.365141 Z-0.125000
G02 X137.533753 Y33.518180 Z-0.125000 I0.936849 J3.028261
G02 X137.205752 Y33.702371 Z-0.125000 I1.028179 J2.215084
G01 X137.205752 Y33.702371 Z-0.125000
G00 Z5.000000

(End cutting path id: path2949)


(Start cutting path id: path1525)
(Change tool to Default tool)

G00 Z5.000000
G00 X136.573094 Y33.001565

G01 Z-0.125000 F100.0(Penetrate)
G03 X136.878195 Y32.872445 Z-0.125000 I1.034867 J2.020274 F400.000000
G03 X137.390176 Y32.716323 Z-0.125000 I2.746686 J8.089870
G03 X137.504838 Y32.688334 Z-0.125000 I0.597076 J2.197140
G03 X137.624129 Y32.664685 Z-0.125000 I0.724178 J3.340273
G01 X139.479247 Y32.664685 Z-0.125000
G02 X139.713980 Y32.674877 Z-0.125000 I0.738801 J-14.308194
G02 X139.952776 Y32.679079 Z-0.125000 I0.238796 J-6.783162
G02 X140.062513 Y32.678591 Z-0.125000 I0.000000 J-12.336818
G02 X140.172325 Y32.675212 Z-0.125000 I-0.022354 J-2.513003
G03 X140.266424 Y32.671950 Z-0.125000 I0.123750 J2.211139
G03 X140.356749 Y32.671346 Z-0.125000 I0.090325 J6.745565
G03 X141.168343 Y32.773933 Z-0.125000 I-0.000000 J3.261648
G03 X141.641738 Y33.001199 Z-0.125000 I-0.335289 J1.305083
G01 X136.573094 Y33.001199 Z-0.125000
G01 X136.573094 Y33.001565 Z-0.125000
G00 Z5.000000

(End cutting path id: path1525)


(Start cutting path id: path2339)
(Change tool to Default tool)

G00 Z5.000000
G00 X138.409593 Y34.274258

G01 Z-0.125000 F100.0(Penetrate)
G02 X138.492208 Y34.180167 Z-0.125000 I-24.810199 J-21.867570 F400.000000
G02 X138.594720 Y34.060678 Z-0.125000 I-6.182049 J-5.407373
G01 X138.754554 Y34.060678 Z-0.125000
G02 X138.598874 Y34.220837 Z-0.125000 I0.692069 J0.828453
G02 X138.482311 Y34.397911 Z-0.125000 I0.975865 J0.769291
G01 X138.301751 Y34.397911 Z-0.125000
G03 X138.350143 Y34.341725 Z-0.125000 I3.372513 J2.855787
G03 X138.409593 Y34.274258 Z-0.125000 I11.605762 J10.166795
G01 X138.409593 Y34.274258 Z-0.125000
G00 Z5.000000

(End cutting path id: path2339)


(Start cutting path id: path2333)
(Change tool to Default tool)

G00 Z5.000000
G00 X138.081146 Y34.761486

G01 Z-0.125000 F100.0(Penetrate)
G01 X138.332312 Y34.761486 Z-0.125000 F400.000000
G02 X138.284287 Y34.933343 Z-0.125000 I2.802976 J0.875939
G02 X138.249410 Y35.077990 Z-0.125000 I13.099188 J3.234970
G02 X138.246705 Y35.088458 Z-0.125000 I0.570856 J0.153103
G02 X138.244499 Y35.098366 Z-0.125000 I0.199292 J0.049561
G01 X138.001060 Y35.098366 Z-0.125000
G03 X138.029657 Y34.929391 Z-0.125000 I1.350589 J0.141663
G03 X138.081152 Y34.761489 Z-0.125000 I1.280676 J0.300930
G01 X138.081146 Y34.761486 Z-0.125000
G00 Z5.000000

(End cutting path id: path2333)


(Start cutting path id: path2229)
(Change tool to Default tool)

G00 Z5.000000
G00 X138.073419 Y35.796011

G01 Z-0.125000 F100.0(Penetrate)
G03 X138.031293 Y35.636529 Z-0.125000 I1.663201 J-0.524627 F400.000000
G03 X138.002107 Y35.458781 Z-0.125000 I1.828268 J-0.391468
G01 X138.138053 Y35.458781 Z-0.125000
G02 X138.131370 Y35.479529 Z-0.125000 I0.148759 J0.059367
G03 X138.124365 Y35.497773 Z-0.125000 I-0.077253 J-0.019194
G02 X138.081369 Y35.648673 Z-0.125000 I0.429969 J0.204089
G02 X138.081157 Y35.796011 Z-0.125000 I0.663547 J0.074622
G01 X138.073424 Y35.796011 Z-0.125000
G01 X138.073419 Y35.796011 Z-0.125000
G00 Z5.000000

(End cutting path id: path2229)


(Start cutting path id: path2947)
(Change tool to Default tool)

G00 Z5.000000
G00 X138.983238 Y33.635276

G01 Z-0.125000 F100.0(Penetrate)
G02 X138.987745 Y33.669811 Z-0.125000 I0.134585 J-0.000000 F400.000000
G03 X138.993426 Y33.702021 Z-0.125000 I-0.186367 J0.049480
G01 X138.742963 Y33.702021 Z-0.125000
G02 X138.727388 Y33.592425 Z-0.125000 I-0.536433 J0.020329
G02 X138.683244 Y33.487036 Z-0.125000 I-0.365608 J0.091199
G02 X138.629687 Y33.419187 Z-0.125000 I-0.333174 J0.207935
G02 X138.567322 Y33.364791 Z-0.125000 I-0.392912 J0.387526
G01 X139.083357 Y33.364791 Z-0.125000
G02 X139.010598 Y33.491986 Z-0.125000 I0.430983 J0.330939
G02 X138.983241 Y33.635276 Z-0.125000 I0.347740 J0.140647
G01 X138.983238 Y33.635276 Z-0.125000
G00 Z5.000000

(End cutting path id: path2947)


(Start cutting path id: path2885)
(Change tool to Default tool)

G00 Z5.000000
G00 X141.311885 Y33.702371

G01 Z-0.125000 F100.0(Penetrate)
G03 X141.116918 Y33.634562 Z-0.125000 I3.688461 J-10.919330 F400.000000
G03 X140.913881 Y33.561508 Z-0.125000 I21.217719 J-59.288999
G02 X140.633139 Y33.461125 Z-0.125000 I-6.009492 J16.363931
G02 X140.340239 Y33.365141 Z-0.125000 I-2.786927 J8.009574
G01 X141.962105 Y33.365141 Z-0.125000
G03 X142.037819 Y33.519594 Z-0.125000 I-1.224735 J0.696159
G03 X142.103321 Y33.702371 Z-0.125000 I-1.772355 J0.738280
G01 X141.311885 Y33.702371 Z-0.125000
G01 X141.311885 Y33.702371 Z-0.125000
G00 Z5.000000

(End cutting path id: path2885)


(Start cutting path id: path5)
(Change tool to Default tool)

G00 Z5.000000
G00 X141.680377 Y34.246507

G01 Z-0.125000 F100.0(Penetrate)
G02 X141.304703 Y34.752971 Z-0.125000 I2.997833 J2.616227 F400.000000
G02 X141.111654 Y35.260306 Z-0.125000 I1.185897 J0.741650
G03 X140.142647 Y36.338428 Z-0.125000 I-1.339184 J-0.229118
G03 X138.666382 Y35.981135 Z-0.125000 I-0.421295 J-1.487757
G03 X138.542515 Y35.813304 Z-0.125000 I0.398017 J-0.423379
G03 X138.541676 Y35.669900 Z-0.125000 I0.148206 J-0.072571
G02 X138.847517 Y34.869010 Z-0.125000 I-5.231217 J-2.456517
G03 X139.844580 Y34.271097 Z-0.125000 I0.825898 J0.246951
G01 X139.890429 Y34.249602 Z-0.125000
G03 X139.957692 Y34.150255 Z-0.125000 I0.500676 J0.266540
G02 X139.729576 Y33.966356 Z-0.125000 I-0.299369 J0.137918
G03 X139.443768 Y33.613849 Z-0.125000 I0.078828 J-0.356031
G03 X140.558649 Y33.880063 Z-0.125000 I-0.213711 J3.362616
G02 X141.680377 Y34.246507 Z-0.125000 I2.600978 J-6.061816
G01 X141.680377 Y34.246507 Z-0.125000
G00 Z5.000000

(End cutting path id: path5)


(Start cutting path id: path1527)
(Change tool to Default tool)

G00 Z5.000000
G00 X142.080839 Y34.397558

G01 Z-0.125000 F100.0(Penetrate)
