%
(Header)
(Generated by gcodetools from Inkscape.)
(Using default header. To add your own header create file "header" in the output dir.)
M3
(Header end.)
G21 (All units in mm)

(Start cutting path id: path2025)
(Change tool to Default tool)

G00 Z5.000000
G00 X28.603222 Y134.352736

G01 Z-0.125000 F100.0(Penetrate)
G03 X28.614077 Y134.354318 Z-0.125000 I-0.006750 J0.084371 F400.000000
G02 X28.624953 Y134.356123 Z-0.125000 I0.025461 J-0.119738
G02 X28.619130 Y134.349073 Z-0.125000 I-2.449377 J2.017134
G03 X28.613382 Y134.341447 Z-0.125000 I0.080171 J-0.066412
G01 X28.603222 Y134.352736 Z-0.125000
G01 X28.603222 Y134.352736 Z-0.125000
G00 Z5.000000

(End cutting path id: path2025)


(Start cutting path id: path2025)
(Change tool to Default tool)

G00 Z5.000000
G00 X28.613100 Y134.341447

G01 Z-0.125000 F100.0(Penetrate)
G01 X28.613193 Y134.341656 Z-0.125000 F400.000000
G03 X28.603222 Y134.352736 Z-0.125000 I-64.979516 J-58.461511
G03 X28.587570 Y134.325879 Z-0.125000 I1.646413 J-0.977558
G02 X28.572178 Y134.299114 Z-0.125000 I-5.822121 J3.330250
G03 X28.592957 Y134.320389 Z-0.125000 I-0.891608 J0.891608
G02 X28.613100 Y134.341447 Z-0.125000 I7.652335 J-7.299616
G01 X28.613100 Y134.341447 Z-0.125000
G00 Z5.000000

(End cutting path id: path2025)


(Start cutting path id: path2020)
(Change tool to Default tool)

G00 Z5.000000
G00 X28.690711 Y134.439379

G01 Z-0.125000 F100.0(Penetrate)
G01 X29.054496 Y134.439379 Z-0.125000 F400.000000
G00 Z5.000000

(End cutting path id: path2020)


(Start cutting path id: path2020)
(Change tool to Default tool)

G00 Z5.000000
G00 X28.858634 Y134.647094

G01 Z-0.125000 F100.0(Penetrate)
G01 X29.820729 Y134.647094 Z-0.125000 F400.000000
G00 Z5.000000

(End cutting path id: path2020)


(Start cutting path id: path2020)
(Change tool to Default tool)

G00 Z5.000000
G00 X29.227780 Y135.062807

G01 Z-0.125000 F100.0(Penetrate)
G01 X33.025927 Y135.062807 Z-0.125000 F400.000000
G00 Z5.000000

(End cutting path id: path2020)


(Start cutting path id: path2020)
(Change tool to Default tool)

G00 Z5.000000
G00 X32.284811 Y134.231381

G01 Z-0.125000 F100.0(Penetrate)
G01 X31.732502 Y134.231381 Z-0.125000 F400.000000
G00 Z5.000000

(End cutting path id: path2020)


(Start cutting path id: path2020)
(Change tool to Default tool)

G00 Z5.000000
G00 X32.103060 Y134.023665

G01 Z-0.125000 F100.0(Penetrate)
G01 X31.631749 Y134.023665 Z-0.125000 F400.000000
G00 Z5.000000

(End cutting path id: path2020)


(Start cutting path id: path2020)
(Change tool to Default tool)

G00 Z5.000000
G00 X31.921309 Y133.815950

G01 Z-0.125000 F100.0(Penetrate)
G01 X31.549058 Y133.815950 Z-0.125000 F400.000000
G00 Z5.000000

(End cutting path id: path2020)


(Start cutting path id: path2020)
(Change tool to Default tool)

G00 Z5.000000
G00 X31.739276 Y133.607952

G01 Z-0.125000 F100.0(Penetrate)
G01 X31.506160 Y133.607952 Z-0.125000 F400.000000
G00 Z5.000000

(End cutting path id: path2020)


(Start cutting path id: path2020)
(Change tool to Default tool)

G00 Z5.000000
G00 X31.463545 Y133.400236

G01 Z-0.125000 F100.0(Penetrate)
G01 X31.557242 Y133.400236 Z-0.125000 F400.000000
G00 Z5.000000

(End cutting path id: path2020)


(Start cutting path id: path2020)
(Change tool to Default tool)

G00 Z5.000000
G00 X30.443311 Y134.231381

G01 Z-0.125000 F100.0(Penetrate)
G01 X31.554138 Y134.231381 Z-0.125000 F400.000000
G00 Z5.000000

(End cutting path id: path2020)


(Start cutting path id: path2020)
(Change tool to Default tool)

G00 Z5.000000
G00 X30.806531 Y134.647094

G01 Z-0.125000 F100.0(Penetrate)
G01 X32.651982 Y134.647094 Z-0.125000 F400.000000
G00 Z5.000000

(End cutting path id: path2020)


(Start cutting path id: path2020)
(Change tool to Default tool)

G00 Z5.000000
G00 X34.088494 Y133.815950

G01 Z-0.125000 F100.0(Penetrate)
G01 X36.824920 Y133.815950 Z-0.125000 F400.000000
G00 Z5.000000

(End cutting path id: path2020)


(Start cutting path id: path2020)
(Change tool to Default tool)

G00 Z5.000000
G00 X36.879107 Y133.607952

G01 Z-0.125000 F100.0(Penetrate)
G01 X33.981249 Y133.607952 Z-0.125000 F400.000000
G00 Z5.000000

(End cutting path id: path2020)


(Start cutting path id: path2020)
(Change tool to Default tool)

G00 Z5.000000
G00 X33.881625 Y133.400236

G01 Z-0.125000 F100.0(Penetrate)
G01 X34.978058 Y133.400236 Z-0.125000 F400.000000
G00 Z5.000000

(End cutting path id: path2020)


(Start cutting path id: path2020)
(Change tool to Default tool)

G00 Z5.000000
G00 X35.148238 Y133.400236

G01 Z-0.125000 F100.0(Penetrate)
G01 X36.933576 Y133.400236 Z-0.125000 F400.000000
G00 Z5.000000

(End cutting path id: path2020)


(Start cutting path id: path2020)
(Change tool to Default tool)

G00 Z5.000000
G00 X36.992560 Y133.192521

G01 Z-0.125000 F100.0(Penetrate)
G01 X35.277496 Y133.192521 Z-0.125000 F400.000000
G00 Z5.000000

(End cutting path id: path2020)


(Start cutting path id: path2020)
(Change tool to Default tool)

G00 Z5.000000
G00 X35.555767 Y132.776807

G01 Z-0.125000 F100.0(Penetrate)
G01 X37.130285 Y132.776807 Z-0.125000 F400.000000
G00 Z5.000000

(End cutting path id: path2020)


(Start cutting path id: path2020)
(Change tool to Default tool)

G00 Z5.000000
G00 X37.061422 Y132.984523

G01 Z-0.125000 F100.0(Penetrate)
G01 X35.413809 Y132.984523 Z-0.125000 F400.000000
G00 Z5.000000

(End cutting path id: path2020)


(Start cutting path id: path2020)
(Change tool to Default tool)

G00 Z5.000000
G00 X35.698007 Y132.569092

G01 Z-0.125000 F100.0(Penetrate)
G01 X37.205920 Y132.569092 Z-0.125000 F400.000000
G00 Z5.000000

(End cutting path id: path2020)


(Start cutting path id: path2020)
(Change tool to Default tool)

G00 Z5.000000
G00 X36.112027 Y131.945663

G01 Z-0.125000 F100.0(Penetrate)
G01 X37.469516 Y131.945663 Z-0.125000 F400.000000
G00 Z5.000000

(End cutting path id: path2020)


(Start cutting path id: path2020)
(Change tool to Default tool)

G00 Z5.000000
G00 X36.495285 Y131.322516

G01 Z-0.125000 F100.0(Penetrate)
G01 X37.787580 Y131.322516 Z-0.125000 F400.000000
G00 Z5.000000

(End cutting path id: path2020)


(Start cutting path id: path2020)
(Change tool to Default tool)

G00 Z5.000000
G00 X36.913538 Y130.699087

G01 Z-0.125000 F100.0(Penetrate)
G01 X38.166605 Y130.699087 Z-0.125000 F400.000000
G00 Z5.000000

(End cutting path id: path2020)


(Start cutting path id: path2020)
(Change tool to Default tool)

G00 Z5.000000
G00 X37.382874 Y130.075659

G01 Z-0.125000 F100.0(Penetrate)
G01 X38.611669 Y130.075659 Z-0.125000 F400.000000
G00 Z5.000000

(End cutting path id: path2020)


(Start cutting path id: path2020)
(Change tool to Default tool)

G00 Z5.000000
G00 X37.907242 Y129.452230

G01 Z-0.125000 F100.0(Penetrate)
G01 X39.132087 Y129.452230 Z-0.125000 F400.000000
G00 Z5.000000

(End cutting path id: path2020)


(Start cutting path id: path2020)
(Change tool to Default tool)

G00 Z5.000000
G00 X39.529456 Y129.036799

G01 Z-0.125000 F100.0(Penetrate)
G01 X38.296991 Y129.036799 Z-0.125000 F400.000000
G00 Z5.000000

(End cutting path id: path2020)


(Start cutting path id: path2020)
(Change tool to Default tool)

G00 Z5.000000
G00 X38.100565 Y129.244232

G01 Z-0.125000 F100.0(Penetrate)
G01 X39.330771 Y129.244232 Z-0.125000 F400.000000
G00 Z5.000000

(End cutting path id: path2020)


(Start cutting path id: path2020)
(Change tool to Default tool)

G00 Z5.000000
G00 X38.721736 Y128.620803

G01 Z-0.125000 F100.0(Penetrate)
G01 X39.971134 Y128.620803 Z-0.125000 F400.000000
G00 Z5.000000

(End cutting path id: path2020)


(Start cutting path id: path2020)
(Change tool to Default tool)

G00 Z5.000000
G00 X39.398505 Y127.997656

G01 Z-0.125000 F100.0(Penetrate)
G01 X40.725514 Y127.997656 Z-0.125000 F400.000000
G00 Z5.000000

(End cutting path id: path2020)


(Start cutting path id: path2020)
(Change tool to Default tool)

G00 Z5.000000
G00 X41.294474 Y127.582225

G01 Z-0.125000 F100.0(Penetrate)
G01 X39.669438 Y127.582225 Z-0.125000 F400.000000
G00 Z5.000000

(End cutting path id: path2020)


(Start cutting path id: path2020)
(Change tool to Default tool)

G00 Z5.000000
G00 X39.747896 Y127.374227

G01 Z-0.125000 F100.0(Penetrate)
G01 X41.596734 Y127.374227 Z-0.125000 F400.000000
G00 Z5.000000

(End cutting path id: path2020)


(Start cutting path id: path2020)
(Change tool to Default tool)

G00 Z5.000000
G00 X42.335027 Y127.374227

G01 Z-0.125000 F100.0(Penetrate)
G01 X42.723365 Y127.374227 Z-0.125000 F400.000000
G00 Z5.000000

(End cutting path id: path2020)


(Start cutting path id: path2020)
(Change tool to Default tool)

G00 Z5.000000
G00 X43.274262 Y127.582225

G01 Z-0.125000 F100.0(Penetrate)
G01 X42.185731 Y127.582225 Z-0.125000 F400.000000
G00 Z5.000000

(End cutting path id: path2020)


(Start cutting path id: path2020)
(Change tool to Default tool)

G00 Z5.000000
G00 X42.452149 Y127.997656

G01 Z-0.125000 F100.0(Penetrate)
G01 X44.181607 Y127.997656 Z-0.125000 F400.000000
G00 Z5.000000

(End cutting path id: path2020)


(Start cutting path id: path2020)
(Change tool to Default tool)

G00 Z5.000000
G00 X43.769280 Y127.789941

G01 Z-0.125000 F100.0(Penetrate)
G01 X42.271245 Y127.789941 Z-0.125000 F400.000000
G00 Z5.000000

(End cutting path id: path2020)


(Start cutting path id: path2020)
(Change tool to Default tool)

G00 Z5.000000
G00 X42.698529 Y128.205654

G01 Z-0.125000 F100.0(Penetrate)
G01 X45.175876 Y128.205654 Z-0.125000 F400.000000
G00 Z5.000000

(End cutting path id: path2020)


(Start cutting path id: path2020)
(Change tool to Default tool)

G00 Z5.000000
G00 X45.515671 Y127.997656

G01 Z-0.125000 F100.0(Penetrate)
G01 X45.853491 Y127.997656 Z-0.125000 F400.000000
G00 Z5.000000

(End cutting path id: path2020)


(Start cutting path id: path2020)
(Change tool to Default tool)

G00 Z5.000000
G00 X45.615014 Y128.205654

G01 Z-0.125000 F100.0(Penetrate)
G01 X46.093098 Y128.205654 Z-0.125000 F400.000000
G00 Z5.000000

(End cutting path id: path2020)


(Start cutting path id: path2020)
(Change tool to Default tool)

G00 Z5.000000
G00 X46.259891 Y128.413370

G01 Z-0.125000 F100.0(Penetrate)
G01 X45.762898 Y128.413370 Z-0.125000 F400.000000
G00 Z5.000000

(End cutting path id: path2020)


(Start cutting path id: path2020)
(Change tool to Default tool)

G00 Z5.000000
G00 X45.859982 Y128.828801

G01 Z-0.125000 F100.0(Penetrate)
G01 X43.792422 Y128.828801 Z-0.125000 F400.000000
G00 Z5.000000

(End cutting path id: path2020)


(Start cutting path id: path2020)
(Change tool to Default tool)

G00 Z5.000000
G00 X44.072105 Y129.036799

G01 Z-0.125000 F100.0(Penetrate)
G01 X45.846154 Y129.036799 Z-0.125000 F400.000000
G00 Z5.000000

(End cutting path id: path2020)


(Start cutting path id: path2020)
(Change tool to Default tool)

G00 Z5.000000
G00 X45.922918 Y128.828801

G01 Z-0.125000 F100.0(Penetrate)
G01 X46.497522 Y128.828801 Z-0.125000 F400.000000
G00 Z5.000000

(End cutting path id: path2020)


(Start cutting path id: path2020)
(Change tool to Default tool)

G00 Z5.000000
G00 X46.388585 Y128.620803

G01 Z-0.125000 F100.0(Penetrate)
G01 X45.857725 Y128.620803 Z-0.125000 F400.000000
G00 Z5.000000

(End cutting path id: path2020)


(Start cutting path id: path2020)
(Change tool to Default tool)

G00 Z5.000000
G00 X46.173249 Y129.036799

G01 Z-0.125000 F100.0(Penetrate)
G01 X46.595736 Y129.036799 Z-0.125000 F400.000000
G00 Z5.000000

(End cutting path id: path2020)


(Start cutting path id: path2020)
(Change tool to Default tool)

G00 Z5.000000
G00 X46.686894 Y129.244232

G01 Z-0.125000 F100.0(Penetrate)
G01 X46.194980 Y129.244232 Z-0.125000 F400.000000
G00 Z5.000000

(End cutting path id: path2020)


(Start cutting path id: path2025)
(Change tool to Default tool)

G00 Z5.000000
G00 X46.185949 Y129.301241

G01 Z-0.125000 F100.0(Penetrate)
G01 X46.186139 Y129.299754 Z-0.125000 F400.000000
G01 X46.186514 Y129.297854 Z-0.125000
G01 X46.187848 Y129.298240 Z-0.125000
G01 X46.189336 Y129.299265 Z-0.125000
G01 X46.189336 Y129.301805 Z-0.125000
G01 X46.187454 Y129.301492 Z-0.125000
G01 X46.185949 Y129.301241 Z-0.125000
G01 X46.185949 Y129.301241 Z-0.125000
G00 Z5.000000

(End cutting path id: path2025)


(Start cutting path id: path2020)
(Change tool to Default tool)

G00 Z5.000000
G00 X46.371651 Y129.452230

G01 Z-0.125000 F100.0(Penetrate)
G01 X46.726405 Y129.452230 Z-0.125000 F400.000000
G00 Z5.000000

(End cutting path id: path2020)


(Start cutting path id: path2025)
(Change tool to Default tool)

G00 Z5.000000
G00 X46.354718 Y129.621845

G01 Z-0.125000 F100.0(Penetrate)
G01 X46.353589 Y129.625796 Z-0.125000 F400.000000
G01 X46.352460 Y129.629747 Z-0.125000
G01 X46.351557 Y129.629522 Z-0.125000
G01 X46.350202 Y129.629183 Z-0.125000
G01 X46.348497 Y129.626544 Z-0.125000
G03 X46.346534 Y129.623821 Z-0.125000 I0.320332 J-0.232935
G03 X46.350362 Y129.622979 Z-0.125000 I0.016595 J0.066379
G01 X46.354718 Y129.621845 Z-0.125000
G01 X46.354718 Y129.621845 Z-0.125000
G00 Z5.000000

(End cutting path id: path2025)


(Start cutting path id: path2020)
(Change tool to Default tool)

G00 Z5.000000
G00 X45.697705 Y130.491090

G01 Z-0.125000 F100.0(Penetrate)
G01 X47.019351 Y130.491090 Z-0.125000 F400.000000
G00 Z5.000000

(End cutting path id: path2020)


(Start cutting path id: path2020)
(Change tool to Default tool)

G00 Z5.000000
G00 X46.391971 Y131.114519

G01 Z-0.125000 F100.0(Penetrate)
G01 X47.391602 Y131.114519 Z-0.125000 F400.000000
G00 Z5.000000

(End cutting path id: path2020)


(Start cutting path id: path2020)
(Change tool to Default tool)

G00 Z5.000000
G00 X47.457925 Y131.322516

G01 Z-0.125000 F100.0(Penetrate)
G01 X46.611258 Y131.322516 Z-0.125000 F400.000000
G00 Z5.000000

(End cutting path id: path2020)


(Start cutting path id: path2025)
(Change tool to Default tool)

G00 Z5.000000
G00 X46.308434 Y131.038883

G01 Z-0.125000 F100.0(Penetrate)
G03 X44.619169 Y129.492509 Z-0.125000 I18.776452 J-22.207329 F400.000000
G02 X42.678209 Y128.195776 Z-0.125000 I-4.311770 J4.352904
G03 X42.524314 Y128.083658 Z-0.125000 I0.155742 J-0.375450
G03 X42.392036 Y127.920892 Z-0.125000 I3.578852 J-3.043643
G02 X42.246513 Y127.753978 Z-0.125000 I-1.540216 J1.195932
G03 X42.207745 Y127.511387 Z-0.125000 I0.152190 J-0.148715
G03 X42.451160 Y127.338024 Z-0.125000 I0.281549 J0.137747
G03 X42.705867 Y127.367736 Z-0.125000 I0.066140 J0.539604
G03 X43.426697 Y127.641322 Z-0.125000 I-12.445997 J33.878561
G03 X44.121494 Y127.966047 Z-0.125000 I-2.195000 J5.602179
G02 X44.455896 Y127.932256 Z-0.125000 I0.142508 J-0.261264
G02 X44.580105 Y127.481190 Z-0.125000 I-0.266620 J-0.316053
G03 X45.212226 Y128.260391 Z-0.125000 I-1.330969 J1.725741
G02 X45.861676 Y128.810456 Z-0.125000 I0.942618 J-0.454500
G02 X45.697268 Y128.324734 Z-0.125000 I-0.474037 J-0.110233
G03 X45.506922 Y127.869245 Z-0.125000 I0.336578 J-0.408170
G01 X45.544458 Y127.825501 Z-0.125000
G03 X46.256087 Y128.422413 Z-0.125000 I-0.546027 J1.373618
G03 X46.675040 Y129.210647 Z-0.125000 I-5.872303 J3.626630
G03 X46.559961 Y129.539082 Z-0.125000 I-0.229918 J0.103818
G03 X46.355000 Y129.622127 Z-0.125000 I-0.574955 J-1.124577
G02 X46.344618 Y129.422544 Z-0.125000 I-0.210585 J-0.089107
G02 X46.189900 Y129.299547 Z-0.125000 I-0.224915 J0.124112
G02 X46.126555 Y128.992411 Z-0.125000 I-0.433252 J-0.070744
G02 X45.863087 Y128.812714 Z-0.125000 I-0.342143 J0.218650
G02 X45.901158 Y129.117064 Z-0.125000 I0.475425 J0.095085
G02 X46.186514 Y129.301523 Z-0.125000 I0.292886 J-0.140139
G02 X46.200382 Y129.504479 Z-0.125000 I0.215714 J0.087211
G02 X46.350485 Y129.629465 Z-0.125000 I0.243221 J-0.139471
G02 X47.048279 Y130.543163 Z-0.125000 I5.368417 J-3.376577
G03 X47.510700 Y131.717910 Z-0.125000 I-1.292332 J1.187093
G03 X46.779584 Y131.455310 Z-0.125000 I-0.056264 J-0.992420
G02 X46.308434 Y131.038883 Z-0.125000 I-9.502853 J10.276893
G01 X46.308434 Y131.038883 Z-0.125000
G00 Z5.000000

(End cutting path id: path2025)


(Start cutting path id: path2020)
(Change tool to Default tool)

G00 Z5.000000
G00 X46.158856 Y130.906803

G01 Z-0.125000 F100.0(Penetrate)
G01 X47.294236 Y130.906803 Z-0.125000 F400.000000
G00 Z5.000000

(End cutting path id: path2020)


(Start cutting path id: path2020)
(Change tool to Default tool)

G00 Z5.000000
G00 X47.497436 Y131.530232

G01 Z-0.125000 F100.0(Penetrate)
G01 X46.863000 Y131.530232 Z-0.125000 F400.000000
G00 Z5.000000

(End cutting path id: path2020)


(Start cutting path id: path2020)
(Change tool to Default tool)

G00 Z5.000000
G00 X45.923200 Y130.699087

G01 Z-0.125000 F100.0(Penetrate)
G01 X47.169776 Y130.699087 Z-0.125000 F400.000000
G00 Z5.000000

(End cutting path id: path2020)


(Start cutting path id: path2020)
(Change tool to Default tool)

G00 Z5.000000
G00 X45.475031 Y130.283374

G01 Z-0.125000 F100.0(Penetrate)
G01 X46.853122 Y130.283374 Z-0.125000 F400.000000
G00 Z5.000000

(End cutting path id: path2020)


(Start cutting path id: path2020)
(Change tool to Default tool)

G00 Z5.000000
G00 X45.254334 Y130.075659

G01 Z-0.125000 F100.0(Penetrate)
G01 X46.681531 Y130.075659 Z-0.125000 F400.000000
G00 Z5.000000

(End cutting path id: path2020)


(Start cutting path id: path2020)
(Change tool to Default tool)

G00 Z5.000000
G00 X45.033636 Y129.867661

G01 Z-0.125000 F100.0(Penetrate)
G01 X46.516149 Y129.867661 Z-0.125000 F400.000000
G00 Z5.000000

(End cutting path id: path2020)


(Start cutting path id: path2020)
(Change tool to Default tool)

G00 Z5.000000
G00 X44.805882 Y129.659945

G01 Z-0.125000 F100.0(Penetrate)
G01 X46.370240 Y129.659945 Z-0.125000 F400.000000
G00 Z5.000000

(End cutting path id: path2020)


(Start cutting path id: path2020)
(Change tool to Default tool)

G00 Z5.000000
G00 X44.575871 Y129.452230

G01 Z-0.125000 F100.0(Penetrate)
G01 X46.168734 Y129.452230 Z-0.125000 F400.000000
G00 Z5.000000

(End cutting path id: path2020)


(Start cutting path id: path2020)
(Change tool to Default tool)

G00 Z5.000000
G00 X45.402782 Y127.789941

G01 Z-0.125000 F100.0(Penetrate)
G01 X45.500714 Y127.789941 Z-0.125000 F400.000000
G00 Z5.000000

(End cutting path id: path2020)


(Start cutting path id: path2025)
(Change tool to Default tool)

G00 Z5.000000
G00 X45.287636 Y127.702734

G01 Z-0.125000 F100.0(Penetrate)
G01 X45.287316 Y127.700808 Z-0.125000 F400.000000
G02 X45.327994 Y127.647136 Z-0.125000 I-5.305923 J-4.063622
G02 X45.435775 Y127.736267 Z-0.125000 I17.074293 J-20.537477
G03 X45.543894 Y127.825501 Z-0.125000 I-26.877661 J32.675840
G01 X45.506922 Y127.868399 Z-0.125000
G02 X45.397001 Y127.786521 Z-0.125000 I-15.375037 J20.526466
G03 X45.287636 Y127.702734 Z-0.125000 I2.530995 J-3.416916
G01 X45.287636 Y127.702734 Z-0.125000
G00 Z5.000000

(End cutting path id: path2025)


(Start cutting path id: path2020)
(Change tool to Default tool)

G00 Z5.000000
G00 X44.667876 Y127.789941

G01 Z-0.125000 F100.0(Penetrate)
G01 X44.883776 Y127.789941 Z-0.125000 F400.000000
G00 Z5.000000

(End cutting path id: path2020)


(Start cutting path id: path2020)
(Change tool to Default tool)

G00 Z5.000000
G00 X44.684527 Y127.997656

G01 Z-0.125000 F100.0(Penetrate)
G01 X45.037022 Y127.997656 Z-0.125000 F400.000000
G00 Z5.000000

(End cutting path id: path2020)


(Start cutting path id: path2020)
(Change tool to Default tool)

G00 Z5.000000
G00 X44.612560 Y127.582225

G01 Z-0.125000 F100.0(Penetrate)
G01 X44.690736 Y127.582225 Z-0.125000 F400.000000
G00 Z5.000000

(End cutting path id: path2020)


(Start cutting path id: path2020)
(Change tool to Default tool)

G00 Z5.000000
G00 X43.476051 Y128.620803

G01 Z-0.125000 F100.0(Penetrate)
G01 X45.521034 Y128.620803 Z-0.125000 F400.000000
G00 Z5.000000

(End cutting path id: path2020)


(Start cutting path id: path2020)
(Change tool to Default tool)

G00 Z5.000000
G00 X44.329209 Y129.244232

G01 Z-0.125000 F100.0(Penetrate)
G01 X45.962429 Y129.244232 Z-0.125000 F400.000000
G00 Z5.000000

(End cutting path id: path2020)


(Start cutting path id: path2020)
(Change tool to Default tool)

G00 Z5.000000
G00 X43.124120 Y128.413370

G01 Z-0.125000 F100.0(Penetrate)
G01 X45.322631 Y128.413370 Z-0.125000 F400.000000
G00 Z5.000000

(End cutting path id: path2020)


(Start cutting path id: path2020)
(Change tool to Default tool)

G00 Z5.000000
G00 X41.147718 Y126.335367

G01 Z-0.125000 F100.0(Penetrate)
G01 X39.763418 Y126.335367 Z-0.125000 F400.000000
G00 Z5.000000

(End cutting path id: path2020)


(Start cutting path id: path2020)
(Change tool to Default tool)

G00 Z5.000000
G00 X39.802365 Y126.543083

G01 Z-0.125000 F100.0(Penetrate)
G01 X41.154491 Y126.543083 Z-0.125000 F400.000000
G00 Z5.000000

(End cutting path id: path2020)


(Start cutting path id: path2020)
(Change tool to Default tool)

G00 Z5.000000
G00 X39.822685 Y126.750799

G01 Z-0.125000 F100.0(Penetrate)
G01 X41.184689 Y126.750799 Z-0.125000 F400.000000
G00 Z5.000000

(End cutting path id: path2020)


(Start cutting path id: path2020)
(Change tool to Default tool)

G00 Z5.000000
G00 X39.821274 Y126.958796

G01 Z-0.125000 F100.0(Penetrate)
G01 X41.253834 Y126.958796 Z-0.125000 F400.000000
G00 Z5.000000

(End cutting path id: path2020)


(Start cutting path id: path2020)
(Change tool to Default tool)

G00 Z5.000000
G00 X39.797285 Y127.166512

G01 Z-0.125000 F100.0(Penetrate)
G01 X41.402565 Y127.166512 Z-0.125000 F400.000000
G00 Z5.000000

(End cutting path id: path2020)


(Start cutting path id: path2020)
(Change tool to Default tool)

G00 Z5.000000
G00 X39.555985 Y127.789941

G01 Z-0.125000 F100.0(Penetrate)
G01 X40.999269 Y127.789941 Z-0.125000 F400.000000
G00 Z5.000000

(End cutting path id: path2020)


(Start cutting path id: path2020)
(Change tool to Default tool)

G00 Z5.000000
G00 X39.185427 Y128.205654

G01 Z-0.125000 F100.0(Penetrate)
G01 X40.459378 Y128.205654 Z-0.125000 F400.000000
G00 Z5.000000

(End cutting path id: path2020)


(Start cutting path id: path2020)
(Change tool to Default tool)

G00 Z5.000000
G00 X38.951747 Y128.413370

G01 Z-0.125000 F100.0(Penetrate)
G01 X40.212151 Y128.413370 Z-0.125000 F400.000000
G00 Z5.000000

(End cutting path id: path2020)


(Start cutting path id: path2020)
(Change tool to Default tool)

G00 Z5.000000
G00 X38.507247 Y128.828801

G01 Z-0.125000 F100.0(Penetrate)
G01 X39.748742 Y128.828801 Z-0.125000 F400.000000
G00 Z5.000000

(End cutting path id: path2020)


(Start cutting path id: path2020)
(Change tool to Default tool)

G00 Z5.000000
G00 X37.727185 Y129.659945

G01 Z-0.125000 F100.0(Penetrate)
G01 X38.953158 Y129.659945 Z-0.125000 F400.000000
G00 Z5.000000

(End cutting path id: path2020)


(Start cutting path id: path2020)
(Change tool to Default tool)

G00 Z5.000000
G00 X37.547974 Y129.867661

G01 Z-0.125000 F100.0(Penetrate)
G01 X38.776205 Y129.867661 Z-0.125000 F400.000000
G00 Z5.000000

(End cutting path id: path2020)


(Start cutting path id: path2020)
(Change tool to Default tool)

G00 Z5.000000
G00 X37.217774 Y130.283374

G01 Z-0.125000 F100.0(Penetrate)
G01 X38.455600 Y130.283374 Z-0.125000 F400.000000
G00 Z5.000000

(End cutting path id: path2020)


(Start cutting path id: path2020)
(Change tool to Default tool)

G00 Z5.000000
G00 X37.064809 Y130.491090

G01 Z-0.125000 F100.0(Penetrate)
G01 X38.302918 Y130.491090 Z-0.125000 F400.000000
G00 Z5.000000

(End cutting path id: path2020)


(Start cutting path id: path2020)
(Change tool to Default tool)

G00 Z5.000000
G00 X36.769887 Y130.906803

G01 Z-0.125000 F100.0(Penetrate)
G01 X38.030291 Y130.906803 Z-0.125000 F400.000000
G00 Z5.000000

(End cutting path id: path2020)


(Start cutting path id: path2020)
(Change tool to Default tool)

G00 Z5.000000
G00 X36.631316 Y131.114519

G01 Z-0.125000 F100.0(Penetrate)
G01 X37.906114 Y131.114519 Z-0.125000 F400.000000
G00 Z5.000000

(End cutting path id: path2020)


(Start cutting path id: path2020)
(Change tool to Default tool)

G00 Z5.000000
G00 X36.368567 Y131.530232

G01 Z-0.125000 F100.0(Penetrate)
G01 X37.670740 Y131.530232 Z-0.125000 F400.000000
G00 Z5.000000

(End cutting path id: path2020)


(Start cutting path id: path2020)
(Change tool to Default tool)

G00 Z5.000000
G00 X36.242131 Y131.737947

G01 Z-0.125000 F100.0(Penetrate)
G01 X37.570551 Y131.737947 Z-0.125000 F400.000000
G00 Z5.000000

(End cutting path id: path2020)


(Start cutting path id: path2020)
(Change tool to Default tool)

G00 Z5.000000
G00 X35.980794 Y132.153379

G01 Z-0.125000 F100.0(Penetrate)
G01 X37.374689 Y132.153379 Z-0.125000 F400.000000
G00 Z5.000000

(End cutting path id: path2020)


(Start cutting path id: path2020)
(Change tool to Default tool)

G00 Z5.000000
G00 X35.841094 Y132.361376

G01 Z-0.125000 F100.0(Penetrate)
G01 X37.290305 Y132.361376 Z-0.125000 F400.000000
G00 Z5.000000

(End cutting path id: path2020)


(Start cutting path id: path2020)
(Change tool to Default tool)

G00 Z5.000000
G00 X36.610996 Y135.062807

G01 Z-0.125000 F100.0(Penetrate)
G01 X34.517189 Y135.062807 Z-0.125000 F400.000000
G00 Z5.000000

(End cutting path id: path2020)


(Start cutting path id: path2020)
(Change tool to Default tool)

G00 Z5.000000
G00 X34.555854 Y134.854810

G01 Z-0.125000 F100.0(Penetrate)
G01 X36.638089 Y134.854810 Z-0.125000 F400.000000
G00 Z5.000000

(End cutting path id: path2020)


(Start cutting path id: path2020)
(Change tool to Default tool)

G00 Z5.000000
G00 X36.587854 Y135.270241

G01 Z-0.125000 F100.0(Penetrate)
G01 X34.411074 Y135.270241 Z-0.125000 F400.000000
G00 Z5.000000

(End cutting path id: path2020)


(Start cutting path id: path2020)
(Change tool to Default tool)

G00 Z5.000000
G00 X34.530454 Y134.647094

G01 Z-0.125000 F100.0(Penetrate)
G01 X36.665747 Y134.647094 Z-0.125000 F400.000000
G00 Z5.000000

(End cutting path id: path2020)


(Start cutting path id: path2020)
(Change tool to Default tool)

G00 Z5.000000
G00 X36.572896 Y135.478239

G01 Z-0.125000 F100.0(Penetrate)
G01 X34.225089 Y135.478239 Z-0.125000 F400.000000
G00 Z5.000000

(End cutting path id: path2020)


(Start cutting path id: path2020)
(Change tool to Default tool)

G00 Z5.000000
G00 X34.448891 Y134.439379

G01 Z-0.125000 F100.0(Penetrate)
G01 X36.698767 Y134.439379 Z-0.125000 F400.000000
G00 Z5.000000

(End cutting path id: path2020)


(Start cutting path id: path2020)
(Change tool to Default tool)

G00 Z5.000000
G00 X36.472707 Y136.517099

G01 Z-0.125000 F100.0(Penetrate)
G01 X32.952267 Y136.517099 Z-0.125000 F400.000000
G00 Z5.000000

(End cutting path id: path2020)


(Start cutting path id: path2020)
(Change tool to Default tool)

G00 Z5.000000
G00 X33.583316 Y136.724814

G01 Z-0.125000 F100.0(Penetrate)
G01 X33.868642 Y136.724814 Z-0.125000 F400.000000
G00 Z5.000000

(End cutting path id: path2020)


(Start cutting path id: path2020)
(Change tool to Default tool)

G00 Z5.000000
G00 X34.696682 Y136.724814

G01 Z-0.125000 F100.0(Penetrate)
G01 X36.421342 Y136.724814 Z-0.125000 F400.000000
G00 Z5.000000

(End cutting path id: path2020)


(Start cutting path id: path2020)
(Change tool to Default tool)

G00 Z5.000000
G00 X36.358689 Y136.932812

G01 Z-0.125000 F100.0(Penetrate)
G01 X34.820014 Y136.932812 Z-0.125000 F400.000000
G00 Z5.000000

(End cutting path id: path2020)


(Start cutting path id: path2020)
(Change tool to Default tool)

G00 Z5.000000
G00 X34.875894 Y137.140527

G01 Z-0.125000 F100.0(Penetrate)
G01 X36.276562 Y137.140527 Z-0.125000 F400.000000
G00 Z5.000000

(End cutting path id: path2020)


(Start cutting path id: path2020)
(Change tool to Default tool)

G00 Z5.000000
G00 X35.909391 Y138.387385

G01 Z-0.125000 F100.0(Penetrate)
G01 X34.878151 Y138.387385 Z-0.125000 F400.000000
G00 Z5.000000

(End cutting path id: path2020)


(Start cutting path id: path2025)
(Change tool to Default tool)

G00 Z5.000000
G00 X34.884078 Y138.313161

G01 Z-0.125000 F100.0(Penetrate)
G03 X34.590227 Y141.594588 Z-0.125000 I-264.680825 J-22.048229 F400.000000
G03 X33.965445 Y144.846605 Z-0.125000 I-17.505099 J-1.677080
G02 X33.786511 Y145.867385 Z-0.125000 I4.497265 J1.314404
G03 X33.404951 Y146.773619 Z-0.125000 I-1.489031 J-0.093498
G03 X32.176104 Y147.888181 Z-0.125000 I-6.166179 J-5.563737
G03 X30.634094 Y148.638261 Z-0.125000 I-2.787422 J-3.770303
G02 X30.268322 Y148.755693 Z-0.125000 I1.193454 J4.345672
G02 X29.989216 Y148.953785 Z-0.125000 I0.226954 J0.615445
G03 X28.161659 Y150.944539 Z-0.125000 I-19.528616 J-16.093462
G02 X26.714591 Y153.323714 Z-0.125000 I3.941861 J4.027186
G03 X26.784388 Y153.716065 Z-0.125000 I-0.748204 J0.335485
G03 X26.724469 Y154.113090 Z-0.125000 I-2.494196 J-0.173391
G02 X26.493208 Y155.142778 Z-0.125000 I60.914925 J14.221873
G02 X26.333591 Y156.179239 Z-0.125000 I8.591960 J1.853701
G03 X26.116536 Y156.549308 Z-0.125000 I-0.504385 J-0.047145
G03 X25.791160 Y156.713768 Z-0.125000 I-0.767636 J-1.114638
G03 X25.383817 Y156.718391 Z-0.125000 I-0.210539 J-0.602709
G03 X25.061333 Y156.482628 Z-0.125000 I0.196976 J-0.607862
G03 X24.160828 Y154.885002 Z-0.125000 I6.802868 J-4.887052
G03 X23.517860 Y153.190505 Z-0.125000 I20.376428 J-8.700962
G03 X23.267390 Y152.199726 Z-0.125000 I6.602899 J-2.196273
G03 X23.368282 Y151.120970 Z-0.125000 I2.019472 J-0.355221
G02 X23.366587 Y150.857807 Z-0.125000 I-0.348054 J-0.129344
G01 X23.333851 Y150.835361 Z-0.125000
G03 X22.590532 Y150.508475 Z-0.125000 I0.022708 J-1.060212
G02 X21.868836 Y150.139119 Z-0.125000 I-0.892769 J0.854658
G03 X19.946027 Y149.660465 Z-0.125000 I1.294213 J-9.300412
G03 X18.106249 Y148.942214 Z-0.125000 I15.023432 J-41.197460
G03 X17.241066 Y148.516883 Z-0.125000 I3.006898 J-7.209063
G03 X16.449040 Y147.932705 Z-0.125000 I2.092575 J-3.666108
G03 X14.243373 Y145.504436 Z-0.125000 I13.699240 J-14.659288
G03 X12.474222 Y142.737559 Z-0.125000 I15.038200 J-11.564513
G02 X11.176550 Y140.627046 Z-0.125000 I-15.917083 J8.332596
G03 X10.211929 Y138.277601 Z-0.125000 I4.519216 J-3.228219
G03 X9.100203 Y135.352439 Z-0.125000 I8.067833 J-4.740070
G02 X8.272780 Y132.369561 Z-0.125000 I-20.158388 J3.985553
G03 X8.213568 Y132.016116 Z-0.125000 I0.947836 J-0.340471
G03 X8.319911 Y131.744439 Z-0.125000 I0.413822 J0.005331
G02 X8.411622 Y131.157664 Z-0.125000 I-0.402820 J-0.363514
G02 X8.167793 Y130.776699 Z-0.125000 I-1.423950 J0.642856
G03 X7.297418 Y129.769649 Z-0.125000 I246.891168 J-214.263295
G03 X6.438900 Y128.750907 Z-0.125000 I48.375341 J-41.638196
G03 X5.064088 Y126.584890 Z-0.125000 I7.979481 J-6.584042
G02 X3.844431 Y124.364327 Z-0.125000 I-18.779750 J8.869659
G03 X3.507671 Y123.293331 Z-0.125000 I1.856896 J-1.172319
G03 X3.597487 Y122.152552 Z-0.125000 I4.594312 J-0.212207
G03 X3.699087 Y121.837330 Z-0.125000 I1.484286 J0.304423
G03 X4.020256 Y121.653018 Z-0.125000 I0.287379 J0.128787
G03 X4.295950 Y121.945729 Z-0.125000 I-0.033409 J0.307655
G03 X4.280464 Y122.282938 Z-0.125000 I-1.792326 J0.086653
G02 X4.271780 Y122.637709 Z-0.125000 I1.509996 J0.214455
G02 X4.596836 Y122.926970 Z-0.125000 I0.317321 J-0.029318
G02 X4.973651 Y122.683428 Z-0.125000 I-0.011833 J-0.431589
G02 X4.999567 Y122.279270 Z-0.125000 I-0.483435 J-0.233909
G03 X4.592505 Y120.237440 Z-0.125000 I7.861729 J-2.628817
G02 X3.797864 Y118.184225 Z-0.125000 I-3.734976 J0.265140
G03 X3.412488 Y117.523316 Z-0.125000 I2.152025 J-1.697657
G03 X3.228904 Y116.685061 Z-0.125000 I2.316871 J-0.946642
G02 X3.190825 Y116.419583 Z-0.125000 I-1.346589 J0.057679
G03 X3.335867 Y116.188914 Z-0.125000 I0.183767 J-0.045384
G02 X3.683766 Y115.684892 Z-0.125000 I-0.090503 J-0.434549
G02 X3.522698 Y115.137636 Z-0.125000 I-2.188641 J0.346830
G02 X4.212138 Y115.015759 Z-0.125000 I0.144539 J-1.193339
G02 X4.596553 Y114.552872 Z-0.125000 I-0.344289 J-0.676989
G02 X4.301833 Y114.367140 Z-0.125000 I-0.567504 J0.573819
G02 X3.948853 Y114.288994 Z-0.125000 I-0.482696 J1.344041
G03 X2.891768 Y113.647867 Z-0.125000 I0.126335 J-1.400320
G03 X2.736991 Y112.413063 Z-0.125000 I1.214892 J-0.779384
G03 X2.748215 Y111.638357 Z-0.125000 I2.205872 J-0.355477
G02 X2.874433 Y110.887652 Z-0.125000 I-16.861792 J-3.220997
G03 X3.029766 Y110.402399 Z-0.125000 I1.531679 J0.222812
G03 X3.432951 Y110.057072 Z-0.125000 I0.624769 J0.321413
G03 X5.958696 Y109.695022 Z-0.125000 I2.267519 J6.827626
G03 X8.521418 Y110.153874 Z-0.125000 I-0.331839 J9.239260
G02 X7.888426 Y110.753795 Z-0.125000 I0.255763 J0.903766
G02 X7.802880 Y111.465361 Z-0.125000 I1.628313 J0.556684
G03 X7.845041 Y111.948712 Z-0.125000 I-79.965429 J7.218614
G02 X7.886136 Y112.431972 Z-0.125000 I285.209951 J-24.009770
G02 X8.810431 Y113.579241 Z-0.125000 I1.408545 J-0.188829
G02 X9.937045 Y113.970083 Z-0.125000 I14.739541 J-40.667976
G02 X10.768202 Y114.020884 Z-0.125000 I0.511511 J-1.544140
G02 X11.972713 Y113.447407 Z-0.125000 I-0.537041 J-2.679677
G03 X11.901180 Y113.440048 Z-0.125000 I0.882502 J-8.928860
G02 X11.830473 Y113.432732 Z-0.125000 I-1.101259 J10.298234
G03 X11.750026 Y113.502578 Z-0.125000 I-0.516693 J-0.513869
G03 X11.629813 Y113.578358 Z-0.125000 I-0.536664 J-0.718080
G03 X11.605522 Y113.492496 Z-0.125000 I1.367009 J-0.433112
G02 X11.583529 Y113.407614 Z-0.125000 I-4.760697 J1.188203
G03 X10.195680 Y113.130567 Z-0.125000 I0.911122 J-8.178906
G03 X9.069493 Y112.556432 Z-0.125000 I0.943074 J-3.241467
G03 X8.759611 Y111.771005 Z-0.125000 I0.982387 J-0.841436
G03 X9.031393 Y110.968085 Z-0.125000 I1.171865 J-0.050790
G03 X9.963461 Y110.444447 Z-0.125000 I1.155613 J0.965623
G03 X11.223413 Y110.625185 Z-0.125000 I0.328760 J2.190197
G03 X11.518108 Y110.686078 Z-0.125000 I0.058223 J0.461768
G03 X11.678920 Y111.130645 Z-0.125000 I-0.188502 J0.319555
G02 X11.460631 Y112.203976 Z-0.125000 I3.618082 J1.294691
G02 X11.583811 Y113.407896 Z-0.125000 I3.801248 J0.219334
G02 X11.706069 Y113.420930 Z-0.125000 I0.849369 J-7.386938
G02 X11.830756 Y113.433014 Z-0.125000 I4.587155 J-46.684458
G02 X11.984779 Y113.101307 Z-0.125000 I-0.375347 J-0.375900
G02 X11.976100 Y112.814947 Z-0.125000 I-1.259447 J-0.105140
G03 X12.018734 Y112.083319 Z-0.125000 I1.815729 J-0.261249
G03 X12.276949 Y111.419358 Z-0.125000 I3.091815 J0.820220
G02 X12.485154 Y111.006122 Z-0.125000 I-12.819599 J-6.718087
G03 X12.904047 Y110.792543 Z-0.125000 I0.350342 J0.169549
G03 X13.276703 Y111.055958 Z-0.125000 I-0.094912 J0.529582
G03 X13.467645 Y111.526603 Z-0.125000 I-1.675584 J0.953841
G03 X13.341745 Y113.222867 Z-0.125000 I-2.559552 J0.662829
G03 X12.206676 Y114.515336 Z-0.125000 I-2.523631 J-1.071644
G03 X11.254157 Y114.950095 Z-0.125000 I-2.563448 J-4.355469
G03 X10.215598 Y115.130863 Z-0.125000 I-1.108995 J-3.297687
G03 X9.520850 Y115.135852 Z-0.125000 I-0.537621 J-26.490072
G02 X8.841458 Y115.204523 Z-0.125000 I-0.019018 J3.206941
G03 X6.894085 Y115.281450 Z-0.125000 I-1.202475 J-5.753212
G03 X5.029200 Y114.799534 Z-0.125000 I0.972763 J-7.613588
G02 X5.002909 Y115.260701 Z-0.125000 I0.217274 J0.243720
G02 X5.261469 Y115.461910 Z-0.125000 I0.679983 J-0.607066
G02 X6.788803 Y116.027938 Z-0.125000 I3.007658 J-5.772026
G02 X8.440420 Y116.081387 Z-0.125000 I0.959640 J-4.108728
G03 X8.920913 Y116.256109 Z-0.125000 I0.085197 J0.513754
G03 X9.066953 Y116.735861 Z-0.125000 I-0.473747 J0.406317
G03 X8.772102 Y118.135459 Z-0.125000 I-7.952515 J-0.944490
G03 X8.024142 Y119.401450 Z-0.125000 I-2.999466 J-0.918167
G02 X7.822340 Y119.613351 Z-0.125000 I11.382280 J11.041875
G02 X7.682371 Y120.027983 Z-0.125000 I0.386623 J0.361454
G03 X8.555850 Y119.661336 Z-0.125000 I6.947490 J15.327529
G02 X9.280313 Y119.283481 Z-0.125000 I-1.325443 J-3.424711
G02 X10.265022 Y118.579419 Z-0.125000 I-12.046527 J-17.889056
G02 X11.010336 Y117.530881 Z-0.125000 I-1.298081 J-1.711850
G03 X11.096546 Y117.272818 Z-0.125000 I14.428083 J4.676544
G02 X10.950505 Y117.003972 Z-0.125000 I-0.196204 J-0.067508
G03 X10.568341 Y116.713460 Z-0.125000 I0.146857 J-0.589808
G03 X10.500925 Y116.293901 Z-0.125000 I0.531254 J-0.300561
G03 X10.853167 Y115.981617 Z-0.125000 I0.381583 J0.075611
G03 X11.223131 Y115.962854 Z-0.125000 I0.562806 J7.440337
G02 X13.708549 Y114.610705 Z-0.125000 I-0.079682 J-3.106793
G02 X14.172353 Y111.135161 Z-0.125000 I-3.212366 J-2.197403
G03 X14.127118 Y110.867743 Z-0.125000 I0.770085 J-0.267800
G02 X14.113651 Y110.583981 Z-0.125000 I-3.026268 J0.001419
G03 X14.095913 Y110.548470 Z-0.125000 I44.664807 J-22.332400
G03 X14.078091 Y110.512578 Z-0.125000 I9.142264 J-4.562052
G02 X14.099819 Y110.544426 Z-0.125000 I10.341034 J-7.031903
G03 X14.120989 Y110.576078 Z-0.125000 I-1.458527 J0.998388
G02 X15.834095 Y111.420579 Z-0.125000 I2.395437 J-2.699444
G02 X17.769840 Y111.069121 Z-0.125000 I0.514551 J-2.672514
G03 X17.736873 Y111.432225 Z-0.125000 I-0.396809 J0.147022
G03 X17.621673 Y111.581072 Z-0.125000 I-0.660907 J-0.392507
G02 X16.367685 Y112.965681 Z-0.125000 I15.138630 J14.970630
G02 X15.617613 Y114.773287 Z-0.125000 I2.560014 J2.121712
G03 X15.553807 Y114.955580 Z-0.125000 I-0.399893 J-0.037658
G02 X15.446022 Y115.138765 Z-0.125000 I1.866665 J1.221634
G03 X14.115513 Y116.610733 Z-0.125000 I-3.534716 J-1.857718
G03 X12.244493 Y117.182901 Z-0.125000 I-1.901306 J-2.872123
G02 X12.045278 Y117.318176 Z-0.125000 I0.002373 J0.217820
G02 X11.998113 Y117.489676 Z-0.125000 I0.685954 J0.280883
G03 X10.992833 Y119.674606 Z-0.125000 I-4.263957 J-0.638107
G03 X8.729698 Y120.732974 Z-0.125000 I-2.318252 J-2.008334
G02 X8.348873 Y120.760326 Z-0.125000 I0.064781 J3.566767
G02 X7.856784 Y121.062327 Z-0.125000 I0.087418 J0.694352
G02 X8.955165 Y120.928467 Z-0.125000 I0.291062 J-2.184981
G03 X9.953413 Y120.865618 Z-0.125000 I0.596520 J1.515554
G03 X9.857848 Y121.142809 Z-0.125000 I-0.304201 J0.050192
G02 X9.803271 Y121.508238 Z-0.125000 I0.198995 J0.216510
G03 X11.138988 Y121.167929 Z-0.125000 I38.274084 J147.434490
G02 X12.447976 Y120.452445 Z-0.125000 I-0.716307 J-2.865642
G02 X13.002184 Y119.133849 Z-0.125000 I-1.208806 J-1.283829
G03 X13.690882 Y117.864467 Z-0.125000 I1.461079 J-0.028813
G02 X13.437707 Y117.761445 Z-0.125000 I-0.187715 J0.098706
G03 X13.163127 Y117.650543 Z-0.125000 I-0.071140 J-0.219230
G03 X14.153169 Y116.967410 Z-0.125000 I1.765942 J1.500339
G02 X15.228147 Y116.496818 Z-0.125000 I-2.761533 J-7.771280
G02 X15.772974 Y116.061011 Z-0.125000 I-0.850579 J-1.621821
G02 X16.034173 Y115.441025 Z-0.125000 I-0.851560 J-0.723775
G03 X16.182960 Y114.362427 Z-0.125000 I12.298314 J1.146916
G03 X16.706427 Y113.494256 Z-0.125000 I1.410029 J0.258285
G02 X18.022682 Y112.327704 Z-0.125000 I-9.261150 J-11.775489
G02 X19.064393 Y110.870436 Z-0.125000 I-3.820894 J-3.832284
G03 X19.553034 Y110.300584 Z-0.125000 I1.338466 J0.653288
G03 X20.401845 Y110.084730 Z-0.125000 I0.712714 J1.025799
G03 X20.925366 Y110.416707 Z-0.125000 I-0.076821 J0.699926
G03 X21.076073 Y110.922083 Z-0.125000 I-0.874382 J0.535907
G02 X21.265829 Y112.128845 Z-0.125000 I4.852909 J-0.144788
G03 X21.444373 Y113.319278 Z-0.125000 I-4.351747 J1.261293
G02 X21.465457 Y113.842118 Z-0.125000 I11.027447 J-0.182829
G03 X21.360836 Y114.278552 Z-0.125000 I-0.759486 J0.048694
G02 X20.740319 Y115.506588 Z-0.125000 I8.911525 J5.273713
G03 X20.120751 Y116.719492 Z-0.125000 I-8.852253 J-3.757155
G03 X19.685742 Y117.203051 Z-0.125000 I-1.484581 J-0.898080
G03 X18.941627 Y117.485725 Z-0.125000 I-0.851610 J-1.121046
G02 X18.027215 Y117.802953 Z-0.125000 I0.144255 J1.892333
G02 X17.439640 Y118.653561 Z-0.125000 I0.788212 J1.172717
G03 X17.252462 Y119.276751 Z-0.125000 I-5.129308 J-1.200909
G03 X16.995705 Y119.871632 Z-0.125000 I-5.643873 J-2.083107
G03 X16.436759 Y120.336939 Z-0.125000 I-0.807656 J-0.401820
G03 X15.690991 Y120.255736 Z-0.125000 I-0.273483 J-0.953498
G03 X15.287196 Y119.999931 Z-0.125000 I1.633538 J-3.025182
G02 X14.741031 Y119.991294 Z-0.125000 I-0.279151 J0.379454
G03 X13.700920 Y120.536184 Z-0.125000 I-2.789686 J-4.059928
G02 X12.684196 Y121.322818 Z-0.125000 I0.784175 J2.063921
G03 X13.086845 Y121.318405 Z-0.125000 I0.244114 J3.901684
G02 X13.428698 Y121.268350 Z-0.125000 I0.037891 J-0.933585
G03 X14.810898 Y121.226132 Z-0.125000 I0.758891 J2.198364
G03 X16.017240 Y121.792436 Z-0.125000 I-1.070727 J3.848893
G03 X16.207780 Y121.956939 Z-0.125000 I-0.678926 J0.978987
G03 X16.215925 Y122.262054 Z-0.125000 I-0.167752 J0.157144
G02 X15.678835 Y123.415990 Z-0.125000 I1.875342 J1.574821
G03 X15.411309 Y124.613530 Z-0.125000 I-12.847592 J-2.241456
G02 X15.721495 Y124.859314 Z-0.125000 I0.297843 J-0.057262
G02 X16.020627 Y124.832816 Z-0.125000 I-0.128299 J-3.150026
G03 X16.256306 Y124.056080 Z-0.125000 I3.685769 J0.694224
G03 X16.605673 Y123.327161 Z-0.125000 I8.465871 J3.609459
G03 X18.025711 Y121.573131 Z-0.125000 I5.294671 J2.834655
G02 X19.550098 Y119.933156 Z-0.125000 I-5.999362 J-7.104978
G03 X19.806853 Y119.758489 Z-0.125000 I0.370831 J0.269065
G03 X20.149538 Y119.766363 Z-0.125000 I0.157368 J0.612127
G03 X21.560994 Y120.285711 Z-0.125000 I-3.902015 J12.782339
G03 X22.717760 Y121.405227 Z-0.125000 I-0.908015 J2.095614
G03 X22.824921 Y121.666430 Z-0.125000 I-2.457576 J1.160828
G03 X22.745982 Y121.991967 Z-0.125000 I-0.290498 J0.101897
G03 X22.423006 Y122.179718 Z-0.125000 I-0.559008 J-0.589957
G03 X22.151622 Y122.121225 Z-0.125000 I-0.083030 J-0.273577
G02 X21.429422 Y121.811064 Z-0.125000 I-0.842406 J0.965624
G03 X20.711442 Y121.215010 Z-0.125000 I0.077635 J-0.823966
G02 X20.338539 Y120.978370 Z-0.125000 I-0.319589 J0.091481
G03 X19.926865 Y120.997698 Z-0.125000 I-0.290123 J-1.785517
G02 X19.655094 Y121.039878 Z-0.125000 I-0.042704 J0.621476
G02 X19.505789 Y121.273994 Z-0.125000 I0.087070 J0.220195
G03 X19.265241 Y122.210768 Z-0.125000 I-1.582914 J0.092805
G02 X18.811522 Y122.973536 Z-0.125000 I15.237221 J9.579905
G02 X18.762906 Y123.713240 Z-0.125000 I0.747761 J0.420596
G02 X19.241347 Y124.175803 Z-0.125000 I0.755514 J-0.302734
G02 X20.559155 Y124.509711 Z-0.125000 I2.081721 J-5.448367
G02 X21.901573 Y124.647396 Z-0.125000 I3.032660 J-22.955049
G01 X21.901573 Y124.646832 Z-0.125000
G01 X21.898052 Y124.639020 Z-0.125000
G01 X21.890849 Y124.632156 Z-0.125000
G01 X21.897945 Y124.638918 Z-0.125000
G01 X21.901573 Y124.646832 Z-0.125000
G01 X21.901573 Y124.646832 Z-0.125000
G01 X21.901921 Y124.646952 Z-0.125000
G01 X21.902138 Y124.647396 Z-0.125000
G01 X21.901573 Y124.647396 Z-0.125000
G02 X21.455714 Y125.503268 Z-0.125000 I1.862831 J1.514497
G03 X20.804576 Y126.343270 Z-0.125000 I-1.372513 J-0.391552
G02 X20.524289 Y126.664746 Z-0.125000 I0.342452 J0.581501
G02 X20.707491 Y127.138854 Z-0.125000 I0.338883 J0.141501
G03 X20.959746 Y127.735982 Z-0.125000 I-0.205687 J0.438738
G03 X20.797238 Y128.096152 Z-0.125000 I-2.057929 J-0.711786
G03 X20.387735 Y128.525815 Z-0.125000 I-1.060084 J-0.600369
G03 X19.691773 Y128.696156 Z-0.125000 I-0.602177 J-0.953397
G03 X18.759486 Y128.441405 Z-0.125000 I0.222927 J-2.649096
G02 X17.868900 Y128.172352 Z-0.125000 I-1.299849 J2.694120
G01 X17.870094 Y128.171720 Z-0.125000
G02 X17.871440 Y128.170941 Z-0.125000 I-0.024505 J-0.043863
G02 X17.878077 Y128.080702 Z-0.125000 I-0.098607 J-0.052616
G02 X17.811609 Y128.037732 Z-0.125000 I-0.061287 J0.021909
G02 X17.759856 Y128.068852 Z-0.125000 I0.005906 J0.068416
G03 X17.702107 Y128.150339 Z-0.125000 I-0.989378 J-0.639958
G01 X17.700333 Y128.149855 Z-0.125000
G01 X17.699002 Y128.149492 Z-0.125000
G02 X16.618799 Y128.025634 Z-0.125000 I-2.288452 J15.185934
G02 X15.495693 Y128.018541 Z-0.125000 I-0.610423 J7.734704
G03 X14.299706 Y127.925664 Z-0.125000 I-0.275260 J-4.202310
G03 X13.023427 Y127.169334 Z-0.125000 I0.524177 J-2.339532
G02 X12.107810 Y126.271607 Z-0.125000 I-6.519597 J5.733728
G02 X10.770447 Y125.751732 Z-0.125000 I-1.425433 J1.686783
G03 X10.557330 Y126.119294 Z-0.125000 I-0.497532 J-0.042910
G03 X10.159153 Y126.222196 Z-0.125000 I-0.338719 J-0.488844
G03 X9.633492 Y126.168500 Z-0.125000 I18.768702 J-186.335675
G02 X9.106747 Y126.128781 Z-0.125000 I-0.973827 J9.402041
G03 X8.521034 Y126.061620 Z-0.125000 I0.205166 J-4.376874
G02 X8.084256 Y126.397174 Z-0.125000 I-0.066960 J0.364886
G02 X8.440436 Y126.811058 Z-0.125000 I0.383324 J0.030322
G02 X9.061309 Y126.841674 Z-0.125000 I1.026386 J-14.503848
G03 X10.676008 Y127.155288 Z-0.125000 I-0.137511 J5.021595
G03 X12.067258 Y128.039990 Z-0.125000 I-1.378659 J3.704296
G02 X13.556591 Y128.992784 Z-0.125000 I3.010882 J-3.065971
G02 X15.167187 Y129.213752 Z-0.125000 I1.286722 J-3.398532
G03 X16.495543 Y129.264838 Z-0.125000 I0.465361 J5.195205
G03 X17.678118 Y129.597856 Z-0.125000 I-0.940463 J5.605886
G02 X19.333514 Y129.752265 Z-0.125000 I1.086133 J-2.693447
G02 X20.784820 Y129.206414 Z-0.125000 I-0.939582 J-4.700448
G02 X21.875029 Y128.351388 Z-0.125000 I-2.438024 J-4.231178
G02 X22.431587 Y126.925776 Z-0.125000 I-1.450045 J-1.387542
G03 X22.469029 Y126.691140 Z-0.125000 I0.664100 J-0.014333
G02 X22.541653 Y126.452772 Z-0.125000 I-2.778483 J-0.976784
G03 X23.199998 Y124.314632 Z-0.125000 I23.270152 J5.994579
G02 X23.510522 Y122.049823 Z-0.125000 I-5.183772 J-1.864431
G03 X23.659731 Y121.775847 Z-0.125000 I0.287910 J-0.020821
G02 X23.738840 Y121.386036 Z-0.125000 I-0.125094 J-0.228319
G03 X23.367495 Y120.584292 Z-0.125000 I1.482455 J-1.173500
G02 X22.752473 Y119.871914 Z-0.125000 I-0.937952 J0.188094
G03 X21.499835 Y119.287591 Z-0.125000 I2.504352 J-7.003514
G02 X19.926582 Y119.212078 Z-0.125000 I-0.858873 J1.467470
G03 X19.354648 Y119.355264 Z-0.125000 I-0.663645 J-1.436984
G03 X18.733347 Y119.280941 Z-0.125000 I-0.102934 J-1.773545
G03 X18.445594 Y119.089096 Z-0.125000 I0.173761 J-0.572355
G03 X18.337671 Y118.761652 Z-0.125000 I0.366762 J-0.302389
G03 X18.487103 Y118.471898 Z-0.125000 I0.395922 J0.020775
G03 X18.761851 Y118.377547 Z-0.125000 I0.270675 J0.340997
G02 X19.227841 Y118.260050 Z-0.125000 I0.003173 J-0.970215
G03 X19.642385 Y118.038881 Z-0.125000 I15.658506 J28.850030
G02 X20.773411 Y117.287588 Z-0.125000 I-3.043275 J-5.808465
G02 X21.856418 Y116.164925 Z-0.125000 I-4.390591 J-5.319208
G02 X22.540802 Y117.483427 Z-0.125000 I4.115197 J-1.299172
G02 X23.341471 Y118.468987 Z-0.125000 I16.555429 J-12.631619
G03 X24.174052 Y119.433459 Z-0.125000 I-1039.556964 J898.240024
G03 X24.840353 Y120.643792 Z-0.125000 I-2.528023 J2.180273
G02 X25.080121 Y121.134671 Z-0.125000 I1.637977 J-0.496064
G02 X25.438382 Y121.369103 Z-0.125000 I0.475424 J-0.335584
G03 X25.907268 Y121.755865 Z-0.125000 I-0.131975 J0.637603
G02 X26.101887 Y122.215770 Z-0.125000 I47.539452 J-19.846251
G02 X26.472187 Y122.972607 Z-0.125000 I7.805986 J-3.350245
G02 X27.331529 Y123.305147 Z-0.125000 I0.628309 J-0.347045
G03 X28.096954 Y123.267304 Z-0.125000 I0.449138 J1.324619
G03 X28.700307 Y123.573541 Z-0.125000 I-0.319785 J1.377532
G02 X29.435212 Y124.147038 Z-0.125000 I6.241191 J-7.240129
G03 X30.191569 Y124.698196 Z-0.125000 I-17.001688 J24.126033
G03 X31.510025 Y125.767417 Z-0.125000 I-14.249858 J18.919010
G03 X32.455556 Y127.242994 Z-0.125000 I-2.057759 J2.359315
G02 X33.175953 Y129.448670 Z-0.125000 I37.370306 J-10.985053
G03 X33.535056 Y131.799190 Z-0.125000 I-5.806297 J2.089754
G02 X33.777965 Y133.147617 Z-0.125000 I3.130909 J0.132082
G02 X34.411356 Y134.366565 Z-0.125000 I7.862329 J-3.311393
G03 X34.497691 Y135.044143 Z-0.125000 I-0.688210 J0.431979
G03 X34.124336 Y135.563752 Z-0.125000 I-0.981306 J-0.311161
G03 X33.542241 Y135.560080 Z-0.125000 I-0.288570 J-0.394638
G03 X33.172682 Y135.225932 Z-0.125000 I1.643566 J-2.189173
G03 X32.359610 Y134.318043 Z-0.125000 I31.955863 J-29.436521
G02 X31.435040 Y133.261947 Z-0.125000 I-191.890414 J167.059775
G01 X31.582925 Y133.980485 Z-0.125000
G03 X31.719058 Y134.113642 Z-0.125000 I-1.406964 J1.574581
G03 X31.708796 Y134.261296 Z-0.125000 I-0.073917 J0.069047
G03 X31.552980 Y134.227320 Z-0.125000 I-0.064376 J-0.079046
G02 X31.463827 Y134.087165 Z-0.125000 I-0.687319 J0.338774
G02 X30.640888 Y133.292271 Z-0.125000 I-9.232224 J8.734518
G03 X30.105209 Y132.131647 Z-0.125000 I1.048051 J-1.187653
G02 X29.987538 Y131.844665 Z-0.125000 I-0.428001 J0.007877
G02 X29.582816 Y131.718474 Z-0.125000 I-0.315503 J0.299775
G02 X29.343668 Y131.973482 Z-0.125000 I0.061663 J0.297469
G02 X29.347160 Y132.321865 Z-0.125000 I1.152331 J0.162659
G02 X29.918758 Y133.584288 Z-0.125000 I2.618174 J-0.424839
G02 X30.772947 Y134.616332 Z-0.125000 I268.769786 J-221.582247
G03 X30.854090 Y134.692118 Z-0.125000 I-10.209222 J11.012195
G03 X30.935225 Y134.768732 Z-0.125000 I-21.536674 J22.888778
G03 X30.784268 Y134.811563 Z-0.125000 I-0.112392 J-0.108687
G03 X30.659494 Y134.748976 Z-0.125000 I0.080439 J-0.316037
G03 X29.626656 Y134.597070 Z-0.125000 I-0.150556 J-2.563516
G02 X28.625236 Y134.357534 Z-0.125000 I-1.529109 J4.179632
G02 X29.756965 Y135.500063 Z-0.125000 I5.410287 J-4.227362
G02 X31.528456 Y136.180407 Z-0.125000 I1.962186 J-2.462682
G03 X30.772917 Y136.356715 Z-0.125000 I-9.638020 J-39.595154
G02 X30.261560 Y136.492263 Z-0.125000 I1.464303 J6.556444
G03 X28.816121 Y136.502458 Z-0.125000 I-0.739713 J-2.404282
G03 X27.632096 Y135.721232 Z-0.125000 I0.675808 J-2.312121
G02 X27.588168 Y135.699383 Z-0.125000 I-0.045423 J0.036242
G03 X27.490420 Y135.688212 Z-0.125000 I0.014387 J-0.559103
G02 X27.631383 Y136.296609 Z-0.125000 I1.041247 J0.079276
G03 X27.873396 Y136.826132 Z-0.125000 I-2.449066 J1.439383
G02 X28.070396 Y137.300612 Z-0.125000 I3.607896 J-1.219830
G03 X27.990236 Y137.649374 Z-0.125000 I-0.252682 J0.125516
G03 X27.536624 Y137.833229 Z-0.125000 I-0.554865 J-0.717469
G03 X26.988911 Y137.825763 Z-0.125000 I-0.244268 J-2.174398
G03 X26.729339 Y137.545246 Z-0.125000 I0.042011 J-0.299228
G02 X26.684958 Y137.143914 Z-0.125000 I-4.184606 J0.259635
G02 X26.563559 Y136.498988 Z-0.125000 I-12.481775 J2.015643
G02 X26.260496 Y135.597901 Z-0.125000 I-4.141929 J0.891550
G02 X26.144514 Y136.858709 Z-0.125000 I35.361991 J3.888682
G03 X26.002545 Y137.790485 Z-0.125000 I-6.088649 J-0.450990
G02 X25.921355 Y138.802706 Z-0.125000 I3.341228 J0.777364
G03 X25.627189 Y139.753905 Z-0.125000 I-1.378969 J0.094629
G02 X24.920677 Y141.127731 Z-0.125000 I3.173101 J2.500399
G02 X24.712225 Y142.610276 Z-0.125000 I5.046959 J1.465552
G03 X24.633458 Y143.243788 Z-0.125000 I-2.523419 J0.007905
G03 X24.315420 Y143.806052 Z-0.125000 I-1.198077 J-0.306597
G03 X22.846332 Y144.933662 Z-0.125000 I-4.851968 J-4.800512
G03 X21.113891 Y145.600421 Z-0.125000 I-3.054785 J-5.353173
G03 X20.842856 Y145.798099 Z-0.125000 I-57.781620 J-78.939348
G03 X20.574282 Y145.993274 Z-0.125000 I-12770.850509 J-17573.057771
G02 X20.999528 Y146.234473 Z-0.125000 I0.462235 J-0.319480
G03 X21.381438 Y146.269570 Z-0.125000 I-0.489991 J7.427296
G02 X22.907912 Y145.946422 Z-0.125000 I-0.783736 J-7.469118
G02 X24.358036 Y145.149430 Z-0.125000 I-1.348604 J-4.171520
G03 X24.461446 Y146.992226 Z-0.125000 I-21.532874 J2.132633
G02 X24.905829 Y148.861499 Z-0.125000 I4.401718 J-0.058965
G02 X25.151150 Y147.796813 Z-0.125000 I-1.194262 J-0.835783
G03 X25.286547 Y146.841916 Z-0.125000 I1.619179 J-0.257460
G02 X25.895387 Y148.268476 Z-0.125000 I307.723885 J-130.489942
G02 X26.713180 Y149.480976 Z-0.125000 I3.601122 J-1.546806
G02 X26.689919 Y149.086536 Z-0.125000 I-1.563987 J-0.105675
G02 X26.596058 Y148.752279 Z-0.125000 I-1.930820 J0.361878
G03 X25.911070 Y146.079533 Z-0.125000 I11.556750 J-4.385984
G03 X25.634245 Y143.348288 Z-0.125000 I35.746404 J-5.002732
G03 X25.732371 Y142.376575 Z-0.125000 I2.993457 J-0.188524
G02 X25.845629 Y141.416759 Z-0.125000 I-3.190751 J-0.863100
G03 X26.304806 Y139.924170 Z-0.125000 I2.425201 J-0.070841
G03 X27.546300 Y138.978359 Z-0.125000 I2.184545 J1.579773
G03 X28.477424 Y138.694167 Z-0.125000 I2.800129 J7.506863
G02 X29.261647 Y137.715696 Z-0.125000 I-0.238635 J-0.994765
G03 X29.291476 Y137.658603 Z-0.125000 I0.072620 J0.001602
G03 X29.373125 Y137.603090 Z-0.125000 I0.885714 J1.214910
G03 X31.063637 Y136.667515 Z-0.125000 I8.089273 J12.621604
G03 X33.173247 Y136.592170 Z-0.125000 I1.142613 J2.420877
G02 X33.541010 Y136.718382 Z-0.125000 I1.733677 J-4.452756
G02 X33.963187 Y136.696874 Z-0.125000 I0.180765 J-0.605980
G03 X34.674761 Y136.862836 Z-0.125000 I0.239751 J0.580495
G03 X34.912018 Y137.425572 Z-0.125000 I-0.725186 J0.637132
G03 X34.915657 Y137.867398 Z-0.125000 I-3.255037 J0.247734
G03 X34.884078 Y138.313161 Z-0.125000 I-19.858317 J-1.182795
G01 X34.884078 Y138.313161 Z-0.125000
G00 Z5.000000

(End cutting path id: path2025)


(Start cutting path id: path2020)
(Change tool to Default tool)

G00 Z5.000000
G00 X34.894802 Y138.179670

G01 Z-0.125000 F100.0(Penetrate)
G01 X35.930558 Y138.179670 Z-0.125000 F400.000000
G00 Z5.000000

(End cutting path id: path2020)


(Start cutting path id: path2020)
(Change tool to Default tool)

G00 Z5.000000
G00 X35.911931 Y138.595101

G01 Z-0.125000 F100.0(Penetrate)
G01 X34.861218 Y138.595101 Z-0.125000 F400.000000
G00 Z5.000000

(End cutting path id: path2020)


(Start cutting path id: path2020)
(Change tool to Default tool)

G00 Z5.000000
G00 X34.909196 Y137.971672

G01 Z-0.125000 F100.0(Penetrate)
G01 X35.971762 Y137.971672 Z-0.125000 F400.000000
G00 Z5.000000

(End cutting path id: path2020)


(Start cutting path id: path2020)
(Change tool to Default tool)

G00 Z5.000000
G00 X35.925478 Y138.803099

G01 Z-0.125000 F100.0(Penetrate)
G01 X34.844285 Y138.803099 Z-0.125000 F400.000000
G00 Z5.000000

(End cutting path id: path2020)


(Start cutting path id: path2020)
(Change tool to Default tool)

G00 Z5.000000
G00 X34.917945 Y137.763956

G01 Z-0.125000 F100.0(Penetrate)
G01 X36.029618 Y137.763956 Z-0.125000 F400.000000
G00 Z5.000000

(End cutting path id: path2020)


(Start cutting path id: path2020)
(Change tool to Default tool)

G00 Z5.000000
G00 X34.916816 Y137.556241

G01 Z-0.125000 F100.0(Penetrate)
G01 X36.101302 Y137.556241 Z-0.125000 F400.000000
G00 Z5.000000

(End cutting path id: path2020)


(Start cutting path id: path2020)
(Change tool to Default tool)

G00 Z5.000000
G00 X34.904680 Y137.348243

G01 Z-0.125000 F100.0(Penetrate)
G01 X36.185405 Y137.348243 Z-0.125000 F400.000000
G00 Z5.000000

(End cutting path id: path2020)


(Start cutting path id: path2020)
(Change tool to Default tool)

G00 Z5.000000
G00 X35.937331 Y139.010814

G01 Z-0.125000 F100.0(Penetrate)
G01 X34.827916 Y139.010814 Z-0.125000 F400.000000
G00 Z5.000000

(End cutting path id: path2020)


(Start cutting path id: path2020)
(Change tool to Default tool)

G00 Z5.000000
G00 X35.942129 Y139.218530

G01 Z-0.125000 F100.0(Penetrate)
G01 X34.811265 Y139.218530 Z-0.125000 F400.000000
G00 Z5.000000

(End cutting path id: path2020)


(Start cutting path id: path2020)
(Change tool to Default tool)

G00 Z5.000000
G00 X35.942976 Y139.426245

G01 Z-0.125000 F100.0(Penetrate)
G01 X34.794331 Y139.426245 Z-0.125000 F400.000000
G00 Z5.000000

(End cutting path id: path2020)


(Start cutting path id: path2020)
(Change tool to Default tool)

G00 Z5.000000
G00 X35.939589 Y139.633961

G01 Z-0.125000 F100.0(Penetrate)
G01 X34.777398 Y139.633961 Z-0.125000 F400.000000
G00 Z5.000000

(End cutting path id: path2020)


(Start cutting path id: path2020)
(Change tool to Default tool)

G00 Z5.000000
G00 X35.931122 Y139.841959

G01 Z-0.125000 F100.0(Penetrate)
G01 X34.760465 Y139.841959 Z-0.125000 F400.000000
G00 Z5.000000

(End cutting path id: path2020)


(Start cutting path id: path2020)
(Change tool to Default tool)

G00 Z5.000000
G00 X35.920680 Y140.049674

G01 Z-0.125000 F100.0(Penetrate)
G01 X34.742967 Y140.049674 Z-0.125000 F400.000000
G00 Z5.000000

(End cutting path id: path2020)


(Start cutting path id: path2020)
(Change tool to Default tool)

G00 Z5.000000
G00 X35.904311 Y140.257390

G01 Z-0.125000 F100.0(Penetrate)
G01 X34.724340 Y140.257390 Z-0.125000 F400.000000
G00 Z5.000000

(End cutting path id: path2020)


(Start cutting path id: path2020)
(Change tool to Default tool)

G00 Z5.000000
G00 X35.886531 Y140.465105

G01 Z-0.125000 F100.0(Penetrate)
G01 X34.705714 Y140.465105 Z-0.125000 F400.000000
G00 Z5.000000

(End cutting path id: path2020)


(Start cutting path id: path2020)
(Change tool to Default tool)

G00 Z5.000000
G00 X34.600445 Y141.504247

G01 Z-0.125000 F100.0(Penetrate)
G01 X35.756145 Y141.504247 Z-0.125000 F400.000000
G00 Z5.000000

(End cutting path id: path2020)


(Start cutting path id: path2020)
(Change tool to Default tool)

G00 Z5.000000
G00 X35.785496 Y141.296250

G01 Z-0.125000 F100.0(Penetrate)
G01 X34.622458 Y141.296250 Z-0.125000 F400.000000
G00 Z5.000000

(End cutting path id: path2020)


(Start cutting path id: path2020)
(Change tool to Default tool)

G00 Z5.000000
G00 X34.575327 Y141.711963

G01 Z-0.125000 F100.0(Penetrate)
G01 X35.724254 Y141.711963 Z-0.125000 F400.000000
G00 Z5.000000

(End cutting path id: path2020)


(Start cutting path id: path2020)
(Change tool to Default tool)

G00 Z5.000000
G00 X35.814282 Y141.088534

G01 Z-0.125000 F100.0(Penetrate)
G01 X34.644754 Y141.088534 Z-0.125000 F400.000000
G00 Z5.000000

(End cutting path id: path2020)


(Start cutting path id: path2020)
(Change tool to Default tool)

G00 Z5.000000
G00 X34.547951 Y141.919679

G01 Z-0.125000 F100.0(Penetrate)
G01 X35.692362 Y141.919679 Z-0.125000 F400.000000
G00 Z5.000000

(End cutting path id: path2020)


(Start cutting path id: path2020)
(Change tool to Default tool)

G00 Z5.000000
G00 X35.840529 Y140.880819

G01 Z-0.125000 F100.0(Penetrate)
G01 X34.667049 Y140.880819 Z-0.125000 F400.000000
G00 Z5.000000

(End cutting path id: path2020)


(Start cutting path id: path2020)
(Change tool to Default tool)

G00 Z5.000000
G00 X35.864518 Y140.673103

G01 Z-0.125000 F100.0(Penetrate)
G01 X34.687087 Y140.673103 Z-0.125000 F400.000000
G00 Z5.000000

(End cutting path id: path2020)


(Start cutting path id: path2020)
(Change tool to Default tool)

G00 Z5.000000
G00 X34.520294 Y142.127676

G01 Z-0.125000 F100.0(Penetrate)
G01 X35.659060 Y142.127676 Z-0.125000 F400.000000
G00 Z5.000000

(End cutting path id: path2020)


(Start cutting path id: path2020)
(Change tool to Default tool)

G00 Z5.000000
G00 X34.492918 Y142.335392

G01 Z-0.125000 F100.0(Penetrate)
G01 X35.626040 Y142.335392 Z-0.125000 F400.000000
G00 Z5.000000

(End cutting path id: path2020)


(Start cutting path id: path2020)
(Change tool to Default tool)

G00 Z5.000000
G00 X34.461309 Y142.543107

G01 Z-0.125000 F100.0(Penetrate)
G01 X35.593020 Y142.543107 Z-0.125000 F400.000000
G00 Z5.000000

(End cutting path id: path2020)


(Start cutting path id: path2020)
(Change tool to Default tool)

G00 Z5.000000
G00 X34.426596 Y142.750823

G01 Z-0.125000 F100.0(Penetrate)
G01 X35.560565 Y142.750823 Z-0.125000 F400.000000
G00 Z5.000000

(End cutting path id: path2020)


(Start cutting path id: path2020)
(Change tool to Default tool)

G00 Z5.000000
G00 X34.392165 Y142.958821

G01 Z-0.125000 F100.0(Penetrate)
G01 X35.528391 Y142.958821 Z-0.125000 F400.000000
G00 Z5.000000

(End cutting path id: path2020)


(Start cutting path id: path2020)
(Change tool to Default tool)

G00 Z5.000000
G00 X34.357451 Y143.166536

G01 Z-0.125000 F100.0(Penetrate)
G01 X35.497911 Y143.166536 Z-0.125000 F400.000000
G00 Z5.000000

(End cutting path id: path2020)


(Start cutting path id: path2020)
(Change tool to Default tool)

G00 Z5.000000
G00 X34.316811 Y143.374252

G01 Z-0.125000 F100.0(Penetrate)
G01 X35.468560 Y143.374252 Z-0.125000 F400.000000
G00 Z5.000000

(End cutting path id: path2020)


(Start cutting path id: path2020)
(Change tool to Default tool)

G00 Z5.000000
G00 X35.353696 Y144.413112

G01 Z-0.125000 F100.0(Penetrate)
G01 X34.079180 Y144.413112 Z-0.125000 F400.000000
G00 Z5.000000

(End cutting path id: path2020)


(Start cutting path id: path2020)
(Change tool to Default tool)

G00 Z5.000000
G00 X34.133649 Y144.205396

G01 Z-0.125000 F100.0(Penetrate)
G01 X35.372322 Y144.205396 Z-0.125000 F400.000000
G00 Z5.000000

(End cutting path id: path2020)


(Start cutting path id: path2020)
(Change tool to Default tool)

G00 Z5.000000
G00 X35.337045 Y144.621110

G01 Z-0.125000 F100.0(Penetrate)
G01 X34.024711 Y144.621110 Z-0.125000 F400.000000
G00 Z5.000000

(End cutting path id: path2020)


(Start cutting path id: path2020)
(Change tool to Default tool)

G00 Z5.000000
G00 X34.185860 Y143.997681

G01 Z-0.125000 F100.0(Penetrate)
G01 X35.391514 Y143.997681 Z-0.125000 F400.000000
G00 Z5.000000

(End cutting path id: path2020)


(Start cutting path id: path2020)
(Change tool to Default tool)

G00 Z5.000000
G00 X35.320111 Y144.828825

G01 Z-0.125000 F100.0(Penetrate)
G01 X33.969960 Y144.828825 Z-0.125000 F400.000000
G00 Z5.000000

(End cutting path id: path2020)


(Start cutting path id: path2020)
(Change tool to Default tool)

G00 Z5.000000
G00 X34.229605 Y143.789683

G01 Z-0.125000 F100.0(Penetrate)
G01 X35.415785 Y143.789683 Z-0.125000 F400.000000
G00 Z5.000000

(End cutting path id: path2020)


(Start cutting path id: path2020)
(Change tool to Default tool)

G00 Z5.000000
G00 X34.273067 Y143.581968

G01 Z-0.125000 F100.0(Penetrate)
G01 X35.440620 Y143.581968 Z-0.125000 F400.000000
G00 Z5.000000

(End cutting path id: path2020)


(Start cutting path id: path2020)
(Change tool to Default tool)

G00 Z5.000000
G00 X35.302896 Y145.036541

G01 Z-0.125000 F100.0(Penetrate)
G01 X33.919442 Y145.036541 Z-0.125000 F400.000000
G00 Z5.000000

(End cutting path id: path2020)


(Start cutting path id: path2020)
(Change tool to Default tool)

G00 Z5.000000
G00 X35.285680 Y145.244539

G01 Z-0.125000 F100.0(Penetrate)
G01 X33.879649 Y145.244539 Z-0.125000 F400.000000
G00 Z5.000000

(End cutting path id: path2020)


(Start cutting path id: path2020)
(Change tool to Default tool)

G00 Z5.000000
G00 X35.268465 Y145.452254

G01 Z-0.125000 F100.0(Penetrate)
G01 X33.846629 Y145.452254 Z-0.125000 F400.000000
G00 Z5.000000

(End cutting path id: path2020)


(Start cutting path id: path2020)
(Change tool to Default tool)

G00 Z5.000000
G00 X35.251814 Y145.659970

G01 Z-0.125000 F100.0(Penetrate)
G01 X33.815585 Y145.659970 Z-0.125000 F400.000000
G00 Z5.000000

(End cutting path id: path2020)


(Start cutting path id: path2020)
(Change tool to Default tool)

G00 Z5.000000
G00 X35.235445 Y145.867968

G01 Z-0.125000 F100.0(Penetrate)
G01 X33.782847 Y145.867968 Z-0.125000 F400.000000
G00 Z5.000000

(End cutting path id: path2020)


(Start cutting path id: path2020)
(Change tool to Default tool)

G00 Z5.000000
G00 X33.080678 Y147.114543

G01 Z-0.125000 F100.0(Penetrate)
G01 X35.160091 Y147.114543 Z-0.125000 F400.000000
G00 Z5.000000

(End cutting path id: path2020)


(Start cutting path id: path2020)
(Change tool to Default tool)

G00 Z5.000000
G00 X35.169122 Y146.906545

G01 Z-0.125000 F100.0(Penetrate)
G01 X33.279645 Y146.906545 Z-0.125000 F400.000000
G00 Z5.000000

(End cutting path id: path2020)


(Start cutting path id: path2020)
(Change tool to Default tool)

G00 Z5.000000
G00 X32.865907 Y147.322541

G01 Z-0.125000 F100.0(Penetrate)
G01 X35.153036 Y147.322541 Z-0.125000 F400.000000
G00 Z5.000000

(End cutting path id: path2020)


(Start cutting path id: path2020)
(Change tool to Default tool)

G00 Z5.000000
G00 X35.148238 Y147.529974

G01 Z-0.125000 F100.0(Penetrate)
G01 X32.632227 Y147.529974 Z-0.125000 F400.000000
G00 Z5.000000

(End cutting path id: path2020)


(Start cutting path id: path2020)
(Change tool to Default tool)

G00 Z5.000000
G00 X32.377662 Y147.737972

G01 Z-0.125000 F100.0(Penetrate)
G01 X35.144851 Y147.737972 Z-0.125000 F400.000000
G00 Z5.000000

(End cutting path id: path2020)


(Start cutting path id: path2020)
(Change tool to Default tool)

G00 Z5.000000
G00 X35.152471 Y148.361401

G01 Z-0.125000 F100.0(Penetrate)
G01 X34.278429 Y148.361401 Z-0.125000 F400.000000
G00 Z5.000000

(End cutting path id: path2020)


(Start cutting path id: path2020)
(Change tool to Default tool)

G00 Z5.000000
G00 X34.415307 Y148.569116

G01 Z-0.125000 F100.0(Penetrate)
G01 X35.159527 Y148.569116 Z-0.125000 F400.000000
G00 Z5.000000

(End cutting path id: path2020)


(Start cutting path id: path2020)
(Change tool to Default tool)

G00 Z5.000000
G00 X35.171945 Y148.776832

G01 Z-0.125000 F100.0(Penetrate)
G01 X34.477678 Y148.776832 Z-0.125000 F400.000000
G00 Z5.000000

(End cutting path id: path2020)


(Start cutting path id: path2020)
(Change tool to Default tool)

G00 Z5.000000
G00 X34.522834 Y148.984830

G01 Z-0.125000 F100.0(Penetrate)
G01 X35.186056 Y148.984830 Z-0.125000 F400.000000
G00 Z5.000000

(End cutting path id: path2020)


(Start cutting path id: path2020)
(Change tool to Default tool)

G00 Z5.000000
G00 X34.560651 Y149.192545

G01 Z-0.125000 F100.0(Penetrate)
G01 X35.204682 Y149.192545 Z-0.125000 F400.000000
G00 Z5.000000

(End cutting path id: path2020)


(Start cutting path id: path2020)
(Change tool to Default tool)

G00 Z5.000000
G00 X34.595082 Y149.400261

G01 Z-0.125000 F100.0(Penetrate)
G01 X35.226978 Y149.400261 Z-0.125000 F400.000000
G00 Z5.000000

(End cutting path id: path2020)


(Start cutting path id: path2020)
(Change tool to Default tool)

G00 Z5.000000
G00 X34.628102 Y149.608259

G01 Z-0.125000 F100.0(Penetrate)
G01 X35.252660 Y149.608259 Z-0.125000 F400.000000
G00 Z5.000000

(End cutting path id: path2020)


(Start cutting path id: path2020)
(Change tool to Default tool)

G00 Z5.000000
G00 X34.665638 Y149.815974

G01 Z-0.125000 F100.0(Penetrate)
G01 X35.283422 Y149.815974 Z-0.125000 F400.000000
G00 Z5.000000

(End cutting path id: path2020)


(Start cutting path id: path2020)
(Change tool to Default tool)

G00 Z5.000000
G00 X34.713898 Y150.023690

G01 Z-0.125000 F100.0(Penetrate)
G01 X35.316725 Y150.023690 Z-0.125000 F400.000000
G00 Z5.000000

(End cutting path id: path2020)


(Start cutting path id: path2020)
(Change tool to Default tool)

G00 Z5.000000
G00 X34.774294 Y150.231405

G01 Z-0.125000 F100.0(Penetrate)
G01 X35.357082 Y150.231405 Z-0.125000 F400.000000
G00 Z5.000000

(End cutting path id: path2020)


(Start cutting path id: path2020)
(Change tool to Default tool)

G00 Z5.000000
G00 X34.849082 Y150.439121

G01 Z-0.125000 F100.0(Penetrate)
G01 X35.399134 Y150.439121 Z-0.125000 F400.000000
G00 Z5.000000

(End cutting path id: path2020)


(Start cutting path id: path2020)
(Change tool to Default tool)

G00 Z5.000000
G00 X34.940522 Y150.647119

G01 Z-0.125000 F100.0(Penetrate)
G01 X35.457271 Y150.647119 Z-0.125000 F400.000000
G00 Z5.000000

(End cutting path id: path2020)


(Start cutting path id: path2020)
(Change tool to Default tool)

G00 Z5.000000
G00 X35.051718 Y150.854834

G01 Z-0.125000 F100.0(Penetrate)
G01 X35.525287 Y150.854834 Z-0.125000 F400.000000
G00 Z5.000000

(End cutting path id: path2020)


(Start cutting path id: path2020)
(Change tool to Default tool)

G00 Z5.000000
G00 X35.186338 Y151.062550

G01 Z-0.125000 F100.0(Penetrate)
G01 X35.604591 Y151.062550 Z-0.125000 F400.000000
G00 Z5.000000

(End cutting path id: path2020)


(Start cutting path id: path2020)
(Change tool to Default tool)

G00 Z5.000000
G00 X35.349462 Y151.270265

G01 Z-0.125000 F100.0(Penetrate)
G01 X35.700829 Y151.270265 Z-0.125000 F400.000000
G00 Z5.000000

(End cutting path id: path2020)


(Start cutting path id: path2020)
(Change tool to Default tool)

G00 Z5.000000
G00 X35.496782 Y151.478263

G01 Z-0.125000 F100.0(Penetrate)
G01 X35.802711 Y151.478263 Z-0.125000 F400.000000
G00 Z5.000000

(End cutting path id: path2020)


(Start cutting path id: path2020)
(Change tool to Default tool)

G00 Z5.000000
G00 X35.786625 Y151.685979

G01 Z-0.125000 F100.0(Penetrate)
G01 X35.909674 Y151.685979 Z-0.125000 F400.000000
G00 Z5.000000

(End cutting path id: path2020)


(Start cutting path id: path2025)
(Change tool to Default tool)

G00 Z5.000000
G00 X39.216189 Y153.049112

G01 Z-0.125000 F100.0(Penetrate)
G02 X39.862717 Y153.311753 Z-0.125000 I1.908050 J-3.769858 F400.000000
G03 X40.638871 Y153.786559 Z-0.125000 I-0.558171 J1.784214
G03 X39.714268 Y153.474831 Z-0.125000 I-0.225731 J-0.857547
G02 X39.216189 Y153.049112 Z-0.125000 I-1.296320 J1.012427
G01 X39.216189 Y153.049112 Z-0.125000
G00 Z5.000000

(End cutting path id: path2025)


(Start cutting path id: path2020)
(Change tool to Default tool)

G00 Z5.000000
G00 X39.344882 Y153.140552

G01 Z-0.125000 F100.0(Penetrate)
G01 X39.424469 Y153.140552 Z-0.125000 F400.000000
G00 Z5.000000

(End cutting path id: path2020)


(Start cutting path id: path2020)
(Change tool to Default tool)

G00 Z5.000000
G00 X39.549211 Y153.348550

G01 Z-0.125000 F100.0(Penetrate)
G01 X39.971980 Y153.348550 Z-0.125000 F400.000000
G00 Z5.000000

(End cutting path id: path2020)


(Start cutting path id: path2020)
(Change tool to Default tool)

G00 Z5.000000
G00 X39.740840 Y153.555983

G01 Z-0.125000 F100.0(Penetrate)
G01 X40.358060 Y153.555983 Z-0.125000 F400.000000
G00 Z5.000000

(End cutting path id: path2020)


(Start cutting path id: path2020)
(Change tool to Default tool)

G00 Z5.000000
G00 X40.031811 Y153.763981

G01 Z-0.125000 F100.0(Penetrate)
G01 X40.614036 Y153.763981 Z-0.125000 F400.000000
G00 Z5.000000

(End cutting path id: path2020)


(Start cutting path id: path2020)
(Change tool to Default tool)

G00 Z5.000000
G00 X40.384307 Y154.387128

G01 Z-0.125000 F100.0(Penetrate)
G01 X41.652049 Y154.387128 Z-0.125000 F400.000000
G00 Z5.000000

(End cutting path id: path2020)


(Start cutting path id: path2020)
(Change tool to Default tool)

G00 Z5.000000
G00 X40.870858 Y154.595125

G01 Z-0.125000 F100.0(Penetrate)
G01 X41.896736 Y154.595125 Z-0.125000 F400.000000
G00 Z5.000000

(End cutting path id: path2020)


(Start cutting path id: path2020)
(Change tool to Default tool)

G00 Z5.000000
G00 X42.333616 Y155.010556

G01 Z-0.125000 F100.0(Penetrate)
G01 X40.855900 Y155.010556 Z-0.125000 F400.000000
G00 Z5.000000

(End cutting path id: path2020)


(Start cutting path id: path2020)
(Change tool to Default tool)

G00 Z5.000000
G00 X41.226176 Y155.218554

G01 Z-0.125000 F100.0(Penetrate)
G01 X43.031834 Y155.218554 Z-0.125000 F400.000000
G00 Z5.000000

(End cutting path id: path2020)


(Start cutting path id: path2020)
(Change tool to Default tool)

G00 Z5.000000
G00 X42.806338 Y155.841983

G01 Z-0.125000 F100.0(Penetrate)
G01 X48.374583 Y155.841983 Z-0.125000 F400.000000
G00 Z5.000000

(End cutting path id: path2020)


(Start cutting path id: path2020)
(Change tool to Default tool)

G00 Z5.000000
G00 X49.225765 Y156.257414

G01 Z-0.125000 F100.0(Penetrate)
G01 X50.309498 Y156.257414 Z-0.125000 F400.000000
G00 Z5.000000

(End cutting path id: path2020)


(Start cutting path id: path2020)
(Change tool to Default tool)

G00 Z5.000000
G00 X50.444965 Y156.049699

G01 Z-0.125000 F100.0(Penetrate)
G01 X49.339500 Y156.049699 Z-0.125000 F400.000000
G00 Z5.000000

(End cutting path id: path2020)


(Start cutting path id: path2020)
(Change tool to Default tool)

G00 Z5.000000
G00 X49.115134 Y156.465412

G01 Z-0.125000 F100.0(Penetrate)
G01 X50.174031 Y156.465412 Z-0.125000 F400.000000
G00 Z5.000000

(End cutting path id: path2020)


(Start cutting path id: path2020)
(Change tool to Default tool)

G00 Z5.000000
G00 X50.574223 Y155.841983

G01 Z-0.125000 F100.0(Penetrate)
G01 X49.451825 Y155.841983 Z-0.125000 F400.000000
G00 Z5.000000

(End cutting path id: path2020)


(Start cutting path id: path2020)
(Change tool to Default tool)

G00 Z5.000000
G00 X49.670547 Y155.426270

G01 Z-0.125000 F100.0(Penetrate)
G01 X50.822014 Y155.426270 Z-0.125000 F400.000000
G00 Z5.000000

(End cutting path id: path2020)


(Start cutting path id: path2020)
(Change tool to Default tool)

G00 Z5.000000
G00 X50.698118 Y155.633985

G01 Z-0.125000 F100.0(Penetrate)
G01 X49.561891 Y155.633985 Z-0.125000 F400.000000
G00 Z5.000000

(End cutting path id: path2020)


(Start cutting path id: path2020)
(Change tool to Default tool)

G00 Z5.000000
G00 X49.768196 Y155.218554

G01 Z-0.125000 F100.0(Penetrate)
G01 X50.945909 Y155.218554 Z-0.125000 F400.000000
G00 Z5.000000

(End cutting path id: path2020)


(Start cutting path id: path2020)
(Change tool to Default tool)

G00 Z5.000000
G00 X51.413269 Y154.387128

G01 Z-0.125000 F100.0(Penetrate)
G01 X49.576285 Y154.387128 Z-0.125000 F400.000000
G00 Z5.000000

(End cutting path id: path2020)


(Start cutting path id: path2020)
(Change tool to Default tool)

G00 Z5.000000
G00 X49.855967 Y154.179412

G01 Z-0.125000 F100.0(Penetrate)
G01 X51.526158 Y154.179412 Z-0.125000 F400.000000
G00 Z5.000000

(End cutting path id: path2020)


(Start cutting path id: path2020)
(Change tool to Default tool)

G00 Z5.000000
G00 X51.863696 Y153.555983

G01 Z-0.125000 F100.0(Penetrate)
G01 X50.488709 Y153.555983 Z-0.125000 F400.000000
G00 Z5.000000

(End cutting path id: path2020)


(Start cutting path id: path2020)
(Change tool to Default tool)

G00 Z5.000000
G00 X50.665945 Y153.348550

G01 Z-0.125000 F100.0(Penetrate)
G01 X51.975456 Y153.348550 Z-0.125000 F400.000000
G00 Z5.000000

(End cutting path id: path2020)


(Start cutting path id: path2020)
(Change tool to Default tool)

G00 Z5.000000
G00 X51.158987 Y152.725121

G01 Z-0.125000 F100.0(Penetrate)
G01 X52.312429 Y152.725121 Z-0.125000 F400.000000
G00 Z5.000000

(End cutting path id: path2020)


(Start cutting path id: path2020)
(Change tool to Default tool)

G00 Z5.000000
G00 X51.593609 Y152.101692

G01 Z-0.125000 F100.0(Penetrate)
G01 X52.657305 Y152.101692 Z-0.125000 F400.000000
G00 Z5.000000

(End cutting path id: path2020)


(Start cutting path id: path2020)
(Change tool to Default tool)

G00 Z5.000000
G00 X53.017420 Y151.478263

G01 Z-0.125000 F100.0(Penetrate)
G01 X51.956547 Y151.478263 Z-0.125000 F400.000000
G00 Z5.000000

(End cutting path id: path2020)


(Start cutting path id: path2020)
(Change tool to Default tool)

G00 Z5.000000
G00 X51.843094 Y151.685979

G01 Z-0.125000 F100.0(Penetrate)
G01 X52.896065 Y151.685979 Z-0.125000 F400.000000
G00 Z5.000000

(End cutting path id: path2020)


(Start cutting path id: path2020)
(Change tool to Default tool)

G00 Z5.000000
G00 X53.138776 Y151.270265

G01 Z-0.125000 F100.0(Penetrate)
G01 X52.067460 Y151.270265 Z-0.125000 F400.000000
G00 Z5.000000

(End cutting path id: path2020)


(Start cutting path id: path2020)
(Change tool to Default tool)

G00 Z5.000000
G00 X52.171318 Y151.062550

G01 Z-0.125000 F100.0(Penetrate)
G01 X53.266340 Y151.062550 Z-0.125000 F400.000000
G00 Z5.000000

(End cutting path id: path2020)


(Start cutting path id: path2020)
(Change tool to Default tool)

G00 Z5.000000
G00 X52.366334 Y150.647119

G01 Z-0.125000 F100.0(Penetrate)
G01 X53.529371 Y150.647119 Z-0.125000 F400.000000
G00 Z5.000000

(End cutting path id: path2020)


(Start cutting path id: path2020)
(Change tool to Default tool)

G00 Z5.000000
G00 X52.544416 Y150.231405

G01 Z-0.125000 F100.0(Penetrate)
G01 X53.796918 Y150.231405 Z-0.125000 F400.000000
G00 Z5.000000

(End cutting path id: path2020)


(Start cutting path id: path2020)
(Change tool to Default tool)

G00 Z5.000000
G00 X52.706694 Y149.815974

G01 Z-0.125000 F100.0(Penetrate)
G01 X54.082527 Y149.815974 Z-0.125000 F400.000000
G00 Z5.000000

(End cutting path id: path2020)


(Start cutting path id: path2020)
(Change tool to Default tool)

G00 Z5.000000
G00 X52.854860 Y149.400261

G01 Z-0.125000 F100.0(Penetrate)
G01 X54.448569 Y149.400261 Z-0.125000 F400.000000
G00 Z5.000000

(End cutting path id: path2020)


(Start cutting path id: path2020)
(Change tool to Default tool)

G00 Z5.000000
G00 X54.396076 Y148.361401

G01 Z-0.125000 F100.0(Penetrate)
G01 X53.039998 Y148.361401 Z-0.125000 F400.000000
G00 Z5.000000

(End cutting path id: path2020)


(Start cutting path id: path2020)
(Change tool to Default tool)

G00 Z5.000000
G00 X53.057778 Y148.569116

G01 Z-0.125000 F100.0(Penetrate)
G01 X55.331360 Y148.569116 Z-0.125000 F400.000000
G00 Z5.000000

(End cutting path id: path2020)


(Start cutting path id: path2020)
(Change tool to Default tool)

G00 Z5.000000
G00 X55.424776 Y148.361401

G01 Z-0.125000 F100.0(Penetrate)
G01 X54.580649 Y148.361401 Z-0.125000 F400.000000
G00 Z5.000000

(End cutting path id: path2020)


(Start cutting path id: path2020)
(Change tool to Default tool)

G00 Z5.000000
G00 X54.293911 Y147.945688

G01 Z-0.125000 F100.0(Penetrate)
G01 X53.019960 Y147.945688 Z-0.125000 F400.000000
G00 Z5.000000

(End cutting path id: path2020)


(Start cutting path id: path2020)
(Change tool to Default tool)

G00 Z5.000000
G00 X52.981296 Y148.153685

G01 Z-0.125000 F100.0(Penetrate)
G01 X54.345558 Y148.153685 Z-0.125000 F400.000000
G00 Z5.000000

(End cutting path id: path2020)


(Start cutting path id: path2020)
(Change tool to Default tool)

G00 Z5.000000
G00 X54.936814 Y147.945688

G01 Z-0.125000 F100.0(Penetrate)
G01 X55.537100 Y147.945688 Z-0.125000 F400.000000
G00 Z5.000000

(End cutting path id: path2020)


(Start cutting path id: path2020)
(Change tool to Default tool)

G00 Z5.000000
G00 X55.490816 Y148.153685

G01 Z-0.125000 F100.0(Penetrate)
G01 X54.814329 Y148.153685 Z-0.125000 F400.000000
G00 Z5.000000

(End cutting path id: path2020)


(Start cutting path id: path2020)
(Change tool to Default tool)

G00 Z5.000000
G00 X55.006805 Y147.737972

G01 Z-0.125000 F100.0(Penetrate)
G01 X55.569274 Y147.737972 Z-0.125000 F400.000000
G00 Z5.000000

(End cutting path id: path2020)


(Start cutting path id: path2020)
(Change tool to Default tool)

G00 Z5.000000
G00 X55.565605 Y147.529974

G01 Z-0.125000 F100.0(Penetrate)
G01 X55.047445 Y147.529974 Z-0.125000 F400.000000
G00 Z5.000000

(End cutting path id: path2020)


(Start cutting path id: path2020)
(Change tool to Default tool)

G00 Z5.000000
G00 X55.429291 Y147.322541

G01 Z-0.125000 F100.0(Penetrate)
G01 X55.138038 Y147.322541 Z-0.125000 F400.000000
G00 Z5.000000

(End cutting path id: path2020)


(Start cutting path id: path2020)
(Change tool to Default tool)

G00 Z5.000000
G00 X55.857423 Y146.491396

G01 Z-0.125000 F100.0(Penetrate)
G01 X65.087783 Y146.491396 Z-0.125000 F400.000000
G00 Z5.000000

(End cutting path id: path2020)


(Start cutting path id: path2020)
(Change tool to Default tool)

G00 Z5.000000
G00 X64.808665 Y146.075683

G01 Z-0.125000 F100.0(Penetrate)
G01 X65.585058 Y146.075683 Z-0.125000 F400.000000
G00 Z5.000000

(End cutting path id: path2020)


(Start cutting path id: path2020)
(Change tool to Default tool)

G00 Z5.000000
G00 X64.384485 Y146.283399

G01 Z-0.125000 F100.0(Penetrate)
G01 X55.526094 Y146.283399 Z-0.125000 F400.000000
G00 Z5.000000

(End cutting path id: path2020)


(Start cutting path id: path2020)
(Change tool to Default tool)

G00 Z5.000000
G00 X55.257983 Y146.075683

G01 Z-0.125000 F100.0(Penetrate)
G01 X63.401223 Y146.075683 Z-0.125000 F400.000000
G00 Z5.000000

(End cutting path id: path2020)


(Start cutting path id: path2025)
(Change tool to Default tool)

G00 Z5.000000
G00 X63.117589 Y145.902399

G01 Z-0.125000 F100.0(Penetrate)
G03 X62.969416 Y145.743589 Z-0.125000 I476.220044 J-444.471363 F400.000000
G03 X62.822385 Y145.585745 Z-0.125000 I122.011439 J-113.801291
G03 X64.028800 Y145.601644 Z-0.125000 I0.463578 J10.602963
G03 X65.225507 Y145.737581 Z-0.125000 I-0.979216 J13.955988
G02 X65.451547 Y145.765079 Z-0.125000 I0.546348 J-3.548262
G03 X65.620900 Y145.982550 Z-0.125000 I-0.016820 J0.187775
G03 X65.411516 Y146.160124 Z-0.125000 I-0.207610 J-0.032566
G02 X65.149871 Y146.170792 Z-0.125000 I-0.022492 J2.662324
G02 X64.540356 Y146.051109 Z-0.125000 I-0.586045 J1.372683
G02 X63.932365 Y146.064676 Z-0.125000 I0.726031 J46.164383
G02 X63.516821 Y145.896680 Z-0.125000 I-0.366138 J0.307724
G03 X63.117589 Y145.902399 Z-0.125000 I-0.231603 J-2.230092
G01 X63.117589 Y145.902399 Z-0.125000
G00 Z5.000000

(End cutting path id: path2025)


(Start cutting path id: path2025)
(Change tool to Default tool)

G00 Z5.000000
G00 X63.111663 Y145.902399

G01 Z-0.125000 F100.0(Penetrate)
G01 X63.123516 Y145.908325 Z-0.125000 F400.000000
G01 X63.118436 Y145.908325 Z-0.125000
G01 X63.115088 Y145.905110 Z-0.125000
G01 X63.111663 Y145.902399 Z-0.125000
G01 X63.111663 Y145.902399 Z-0.125000
G00 Z5.000000

(End cutting path id: path2025)


(Start cutting path id: path2025)
(Change tool to Default tool)

G00 Z5.000000
G00 X63.111663 Y145.901834

G01 Z-0.125000 F100.0(Penetrate)
G01 X63.114626 Y145.902116 Z-0.125000 F400.000000
G01 X63.117589 Y145.902399 Z-0.125000
G02 X63.120717 Y145.905413 Z-0.125000 I0.083032 J-0.083032
G01 X63.123516 Y145.908325 Z-0.125000
G01 X63.121500 Y145.912622 Z-0.125000
G01 X63.111663 Y145.901834 Z-0.125000
G01 X63.111663 Y145.901834 Z-0.125000
G00 Z5.000000

(End cutting path id: path2025)


(Start cutting path id: path2020)
(Change tool to Default tool)

G00 Z5.000000
G00 X63.085416 Y145.867968

G01 Z-0.125000 F100.0(Penetrate)
G01 X65.617514 Y145.867968 Z-0.125000 F400.000000
G00 Z5.000000

(End cutting path id: path2020)


(Start cutting path id: path2020)
(Change tool to Default tool)

G00 Z5.000000
G00 X65.728991 Y147.322541

G01 Z-0.125000 F100.0(Penetrate)
G01 X62.412880 Y147.322541 Z-0.125000 F400.000000
G00 Z5.000000

(End cutting path id: path2020)


(Start cutting path id: path2020)
(Change tool to Default tool)

G00 Z5.000000
G00 X63.742711 Y147.945688

G01 Z-0.125000 F100.0(Penetrate)
G01 X67.968707 Y147.945688 Z-0.125000 F400.000000
G00 Z5.000000

(End cutting path id: path2020)


(Start cutting path id: path2020)
(Change tool to Default tool)

G00 Z5.000000
G00 X66.915172 Y147.737972

G01 Z-0.125000 F100.0(Penetrate)
G01 X63.308654 Y147.737972 Z-0.125000 F400.000000
G00 Z5.000000

(End cutting path id: path2020)


(Start cutting path id: path2020)
(Change tool to Default tool)

G00 Z5.000000
G00 X63.898216 Y146.075683

G01 Z-0.125000 F100.0(Penetrate)
G01 X63.944783 Y146.075683 Z-0.125000 F400.000000
G00 Z5.000000

(End cutting path id: path2020)


(Start cutting path id: path2025)
(Change tool to Default tool)

G00 Z5.000000
G00 X63.937445 Y146.069474

G01 Z-0.125000 F100.0(Penetrate)
G01 X63.935991 Y146.070245 Z-0.125000 F400.000000
G01 X63.935187 Y146.070321 Z-0.125000
G01 X63.931034 Y146.067796 Z-0.125000
G01 X63.927003 Y146.065523 Z-0.125000
G01 X63.937445 Y146.069474 Z-0.125000
G01 X63.937445 Y146.069474 Z-0.125000
G00 Z5.000000

(End cutting path id: path2025)


(Start cutting path id: path2025)
(Change tool to Default tool)

G00 Z5.000000
G00 X63.932365 Y146.064676

G01 Z-0.125000 F100.0(Penetrate)
G01 X63.935072 Y146.067508 Z-0.125000 F400.000000
G03 X63.937445 Y146.069474 Z-0.125000 I-0.326997 J0.397210
G01 X63.926720 Y146.065523 Z-0.125000
G01 X63.929731 Y146.065072 Z-0.125000
G01 X63.932365 Y146.064676 Z-0.125000
G01 X63.932365 Y146.064676 Z-0.125000
G00 Z5.000000

(End cutting path id: path2025)


(Start cutting path id: path2020)
(Change tool to Default tool)

G00 Z5.000000
G00 X62.891529 Y145.659970

G01 Z-0.125000 F100.0(Penetrate)
G01 X64.656265 Y145.659970 Z-0.125000 F400.000000
G00 Z5.000000

(End cutting path id: path2020)


(Start cutting path id: path2020)
(Change tool to Default tool)

G00 Z5.000000
G00 X62.665751 Y145.867968

G01 Z-0.125000 F100.0(Penetrate)
G01 X54.990154 Y145.867968 Z-0.125000 F400.000000
G00 Z5.000000

(End cutting path id: path2020)


(Start cutting path id: path2020)
(Change tool to Default tool)

G00 Z5.000000
G00 X54.512634 Y145.452254

G01 Z-0.125000 F100.0(Penetrate)
G01 X56.776620 Y145.452254 Z-0.125000 F400.000000
G00 Z5.000000

(End cutting path id: path2020)


(Start cutting path id: path2020)
(Change tool to Default tool)

G00 Z5.000000
G00 X56.314623 Y145.244539

G01 Z-0.125000 F100.0(Penetrate)
G01 X54.281776 Y145.244539 Z-0.125000 F400.000000
G00 Z5.000000

(End cutting path id: path2020)


(Start cutting path id: path2020)
(Change tool to Default tool)

G00 Z5.000000
G00 X54.984791 Y144.413112

G01 Z-0.125000 F100.0(Penetrate)
G01 X53.514131 Y144.413112 Z-0.125000 F400.000000
G00 Z5.000000

(End cutting path id: path2020)


(Start cutting path id: path2020)
(Change tool to Default tool)

G00 Z5.000000
G00 X54.278107 Y143.789683

G01 Z-0.125000 F100.0(Penetrate)
G01 X53.029274 Y143.789683 Z-0.125000 F400.000000
G00 Z5.000000

(End cutting path id: path2020)


(Start cutting path id: path2020)
(Change tool to Default tool)

G00 Z5.000000
G00 X53.713663 Y143.166536

G01 Z-0.125000 F100.0(Penetrate)
G01 X52.614125 Y143.166536 Z-0.125000 F400.000000
G00 Z5.000000

(End cutting path id: path2020)


(Start cutting path id: path2020)
(Change tool to Default tool)

G00 Z5.000000
G00 X52.364076 Y142.750823

G01 Z-0.125000 F100.0(Penetrate)
G01 X53.361167 Y142.750823 Z-0.125000 F400.000000
G00 Z5.000000

(End cutting path id: path2020)


(Start cutting path id: path2020)
(Change tool to Default tool)

G00 Z5.000000
G00 X53.201147 Y142.543107

G01 Z-0.125000 F100.0(Penetrate)
G01 X52.258807 Y142.543107 Z-0.125000 F400.000000
G00 Z5.000000

(End cutting path id: path2020)


(Start cutting path id: path2020)
(Change tool to Default tool)

G00 Z5.000000
G00 X52.930214 Y142.127676

G01 Z-0.125000 F100.0(Penetrate)
G01 X52.050527 Y142.127676 Z-0.125000 F400.000000
G00 Z5.000000

(End cutting path id: path2020)


(Start cutting path id: path2020)
(Change tool to Default tool)

G00 Z5.000000
G00 X51.786367 Y141.504247

G01 Z-0.125000 F100.0(Penetrate)
G01 X52.679318 Y141.504247 Z-0.125000 F400.000000
G00 Z5.000000

(End cutting path id: path2020)


(Start cutting path id: path2020)
(Change tool to Default tool)

G00 Z5.000000
G00 X52.739996 Y141.711963

G01 Z-0.125000 F100.0(Penetrate)
G01 X51.871316 Y141.711963 Z-0.125000 F400.000000
G00 Z5.000000

(End cutting path id: path2020)


(Start cutting path id: path2020)
(Change tool to Default tool)

G00 Z5.000000
G00 X51.701418 Y141.296250

G01 Z-0.125000 F100.0(Penetrate)
G01 X52.638396 Y141.296250 Z-0.125000 F400.000000
G00 Z5.000000

(End cutting path id: path2020)


(Start cutting path id: path2020)
(Change tool to Default tool)

G00 Z5.000000
G00 X52.827485 Y141.919679

G01 Z-0.125000 F100.0(Penetrate)
G01 X51.956265 Y141.919679 Z-0.125000 F400.000000
G00 Z5.000000

(End cutting path id: path2020)


(Start cutting path id: path2020)
(Change tool to Default tool)

G00 Z5.000000
G00 X51.627758 Y141.088534

G01 Z-0.125000 F100.0(Penetrate)
G01 X52.612714 Y141.088534 Z-0.125000 F400.000000
G00 Z5.000000

(End cutting path id: path2020)


(Start cutting path id: path2020)
(Change tool to Default tool)

G00 Z5.000000
G00 X52.314969 Y140.673103

G01 Z-0.125000 F100.0(Penetrate)
G01 X51.483260 Y140.673103 Z-0.125000 F400.000000
G00 Z5.000000

(End cutting path id: path2020)


(Start cutting path id: path2020)
(Change tool to Default tool)

G00 Z5.000000
G00 X51.555509 Y140.880819

G01 Z-0.125000 F100.0(Penetrate)
G01 X52.390323 Y140.880819 Z-0.125000 F400.000000
G00 Z5.000000

(End cutting path id: path2020)


(Start cutting path id: path2020)
(Change tool to Default tool)

G00 Z5.000000
G00 X52.259654 Y140.465105

G01 Z-0.125000 F100.0(Penetrate)
G01 X51.417785 Y140.465105 Z-0.125000 F400.000000
G00 Z5.000000

(End cutting path id: path2020)


(Start cutting path id: path2020)
(Change tool to Default tool)

G00 Z5.000000
G00 X52.204620 Y140.257390

G01 Z-0.125000 F100.0(Penetrate)
G01 X51.352591 Y140.257390 Z-0.125000 F400.000000
G00 Z5.000000

(End cutting path id: path2020)


(Start cutting path id: path2020)
(Change tool to Default tool)

G00 Z5.000000
G00 X52.149305 Y140.049674

G01 Z-0.125000 F100.0(Penetrate)
G01 X51.287963 Y140.049674 Z-0.125000 F400.000000
G00 Z5.000000

(End cutting path id: path2020)


(Start cutting path id: path2020)
(Change tool to Default tool)

G00 Z5.000000
G00 X51.111574 Y139.426245

G01 Z-0.125000 F100.0(Penetrate)
G01 X51.984487 Y139.426245 Z-0.125000 F400.000000
G00 Z5.000000

(End cutting path id: path2020)


(Start cutting path id: path2020)
(Change tool to Default tool)

G00 Z5.000000
G00 X52.039520 Y139.633961

G01 Z-0.125000 F100.0(Penetrate)
G01 X51.169711 Y139.633961 Z-0.125000 F400.000000
G00 Z5.000000

(End cutting path id: path2020)


(Start cutting path id: path2020)
(Change tool to Default tool)

G00 Z5.000000
G00 X51.058516 Y139.218530

G01 Z-0.125000 F100.0(Penetrate)
G01 X51.930865 Y139.218530 Z-0.125000 F400.000000
G00 Z5.000000

(End cutting path id: path2020)


(Start cutting path id: path2020)
(Change tool to Default tool)

G00 Z5.000000
G00 X51.876960 Y139.010814

G01 Z-0.125000 F100.0(Penetrate)
G01 X51.005176 Y139.010814 Z-0.125000 F400.000000
G00 Z5.000000

(End cutting path id: path2020)


(Start cutting path id: path2020)
(Change tool to Default tool)

G00 Z5.000000
G00 X50.905269 Y138.595101

G01 Z-0.125000 F100.0(Penetrate)
G01 X51.771409 Y138.595101 Z-0.125000 F400.000000
G00 Z5.000000

(End cutting path id: path2020)


(Start cutting path id: path2020)
(Change tool to Default tool)

G00 Z5.000000
G00 X51.719480 Y138.387385

G01 Z-0.125000 F100.0(Penetrate)
G01 X50.857574 Y138.387385 Z-0.125000 F400.000000
G00 Z5.000000

(End cutting path id: path2020)


(Start cutting path id: path2020)
(Change tool to Default tool)

G00 Z5.000000
G00 X51.668116 Y138.179670

G01 Z-0.125000 F100.0(Penetrate)
G01 X50.811289 Y138.179670 Z-0.125000 F400.000000
G00 Z5.000000

(End cutting path id: path2020)


(Start cutting path id: path2020)
(Change tool to Default tool)

G00 Z5.000000
G00 X51.618445 Y137.971672

G01 Z-0.125000 F100.0(Penetrate)
G01 X50.768109 Y137.971672 Z-0.125000 F400.000000
G00 Z5.000000

(End cutting path id: path2020)


(Start cutting path id: path2020)
(Change tool to Default tool)

G00 Z5.000000
G00 X51.569056 Y137.763956

G01 Z-0.125000 F100.0(Penetrate)
G01 X50.725211 Y137.763956 Z-0.125000 F400.000000
G00 Z5.000000

(End cutting path id: path2020)


(Start cutting path id: path2020)
(Change tool to Default tool)

G00 Z5.000000
G00 X51.520796 Y137.556241

G01 Z-0.125000 F100.0(Penetrate)
G01 X50.684007 Y137.556241 Z-0.125000 F400.000000
G00 Z5.000000

(End cutting path id: path2020)


(Start cutting path id: path2020)
(Change tool to Default tool)

G00 Z5.000000
G00 X51.474511 Y137.348243

G01 Z-0.125000 F100.0(Penetrate)
G01 X50.645343 Y137.348243 Z-0.125000 F400.000000
G00 Z5.000000

(End cutting path id: path2020)


(Start cutting path id: path2020)
(Change tool to Default tool)

G00 Z5.000000
G00 X51.428227 Y137.140527

G01 Z-0.125000 F100.0(Penetrate)
G01 X50.606678 Y137.140527 Z-0.125000 F400.000000
G00 Z5.000000

(End cutting path id: path2020)


(Start cutting path id: path2020)
(Change tool to Default tool)

G00 Z5.000000
G00 X51.383354 Y136.932812

G01 Z-0.125000 F100.0(Penetrate)
G01 X50.569989 Y136.932812 Z-0.125000 F400.000000
G00 Z5.000000

(End cutting path id: path2020)


(Start cutting path id: path2020)
(Change tool to Default tool)

G00 Z5.000000
G00 X51.341020 Y136.724814

G01 Z-0.125000 F100.0(Penetrate)
G01 X50.535276 Y136.724814 Z-0.125000 F400.000000
G00 Z5.000000

(End cutting path id: path2020)


(Start cutting path id: path2020)
(Change tool to Default tool)

G00 Z5.000000
G00 X51.298969 Y136.517099

G01 Z-0.125000 F100.0(Penetrate)
G01 X50.500845 Y136.517099 Z-0.125000 F400.000000
G00 Z5.000000

(End cutting path id: path2020)


(Start cutting path id: path2020)
(Change tool to Default tool)

G00 Z5.000000
G00 X50.406300 Y135.893670

G01 Z-0.125000 F100.0(Penetrate)
G01 X51.183258 Y135.893670 Z-0.125000 F400.000000
G00 Z5.000000

(End cutting path id: path2020)


(Start cutting path id: path2020)
(Change tool to Default tool)

G00 Z5.000000
G00 X51.221076 Y136.101385

G01 Z-0.125000 F100.0(Penetrate)
G01 X50.437345 Y136.101385 Z-0.125000 F400.000000
G00 Z5.000000

(End cutting path id: path2020)


(Start cutting path id: path2020)
(Change tool to Default tool)

G00 Z5.000000
G00 X50.376949 Y135.686236

G01 Z-0.125000 F100.0(Penetrate)
G01 X51.147980 Y135.686236 Z-0.125000 F400.000000
G00 Z5.000000

(End cutting path id: path2020)


(Start cutting path id: path2020)
(Change tool to Default tool)

G00 Z5.000000
G00 X51.054000 Y135.062807

G01 Z-0.125000 F100.0(Penetrate)
G01 X50.295387 Y135.062807 Z-0.125000 F400.000000
G00 Z5.000000

(End cutting path id: path2020)


(Start cutting path id: path2020)
(Change tool to Default tool)

G00 Z5.000000
G00 X50.321916 Y135.270241

G01 Z-0.125000 F100.0(Penetrate)
G01 X51.083916 Y135.270241 Z-0.125000 F400.000000
G00 Z5.000000

(End cutting path id: path2020)


(Start cutting path id: path2020)
(Change tool to Default tool)

G00 Z5.000000
G00 X51.028036 Y134.854810

G01 Z-0.125000 F100.0(Penetrate)
G01 X50.270834 Y134.854810 Z-0.125000 F400.000000
G00 Z5.000000

(End cutting path id: path2020)


(Start cutting path id: path2020)
(Change tool to Default tool)

G00 Z5.000000
G00 X50.349574 Y135.478239

G01 Z-0.125000 F100.0(Penetrate)
G01 X51.116089 Y135.478239 Z-0.125000 F400.000000
G00 Z5.000000

(End cutting path id: path2020)


(Start cutting path id: path2020)
(Change tool to Default tool)

G00 Z5.000000
G00 X51.001789 Y134.647094

G01 Z-0.125000 F100.0(Penetrate)
G01 X50.245998 Y134.647094 Z-0.125000 F400.000000
G00 Z5.000000

(End cutting path id: path2020)


(Start cutting path id: path2020)
(Change tool to Default tool)

G00 Z5.000000
G00 X50.177418 Y134.023665

G01 Z-0.125000 F100.0(Penetrate)
G01 X50.939700 Y134.023665 Z-0.125000 F400.000000
G00 Z5.000000

(End cutting path id: path2020)


(Start cutting path id: path2020)
(Change tool to Default tool)

G00 Z5.000000
G00 X50.959174 Y134.231381

G01 Z-0.125000 F100.0(Penetrate)
G01 X50.199996 Y134.231381 Z-0.125000 F400.000000
G00 Z5.000000

(End cutting path id: path2020)


(Start cutting path id: path2020)
(Change tool to Default tool)

G00 Z5.000000
G00 X50.156251 Y133.815950

G01 Z-0.125000 F100.0(Penetrate)
G01 X50.923331 Y133.815950 Z-0.125000 F400.000000
G00 Z5.000000

(End cutting path id: path2020)


(Start cutting path id: path2020)
(Change tool to Default tool)

G00 Z5.000000
G00 X50.889747 Y133.192521

G01 Z-0.125000 F100.0(Penetrate)
G01 X50.095856 Y133.192521 Z-0.125000 F400.000000
G00 Z5.000000

(End cutting path id: path2020)


(Start cutting path id: path2020)
(Change tool to Default tool)

G00 Z5.000000
G00 X50.115611 Y133.400236

G01 Z-0.125000 F100.0(Penetrate)
G01 X50.899060 Y133.400236 Z-0.125000 F400.000000
G00 Z5.000000

(End cutting path id: path2020)


(Start cutting path id: path2020)
(Change tool to Default tool)

G00 Z5.000000
G00 X50.885796 Y132.984523

G01 Z-0.125000 F100.0(Penetrate)
G01 X50.077229 Y132.984523 Z-0.125000 F400.000000
G00 Z5.000000

(End cutting path id: path2020)


(Start cutting path id: path2020)
(Change tool to Default tool)

G00 Z5.000000
G00 X50.135649 Y133.607952

G01 Z-0.125000 F100.0(Penetrate)
G01 X50.911196 Y133.607952 Z-0.125000 F400.000000
G00 Z5.000000

(End cutting path id: path2020)


(Start cutting path id: path2020)
(Change tool to Default tool)

G00 Z5.000000
G00 X50.881845 Y132.776807

G01 Z-0.125000 F100.0(Penetrate)
G01 X50.058603 Y132.776807 Z-0.125000 F400.000000
G00 Z5.000000

(End cutting path id: path2020)


(Start cutting path id: path2020)
(Change tool to Default tool)

G00 Z5.000000
G00 X50.880151 Y132.569092

G01 Z-0.125000 F100.0(Penetrate)
G01 X50.040258 Y132.569092 Z-0.125000 F400.000000
G00 Z5.000000

(End cutting path id: path2020)


(Start cutting path id: path2020)
(Change tool to Default tool)

G00 Z5.000000
G00 X50.884667 Y132.361376

G01 Z-0.125000 F100.0(Penetrate)
G01 X50.023043 Y132.361376 Z-0.125000 F400.000000
G00 Z5.000000

(End cutting path id: path2020)


(Start cutting path id: path2020)
(Change tool to Default tool)

G00 Z5.000000
G00 X50.889183 Y132.153379

G01 Z-0.125000 F100.0(Penetrate)
G01 X50.005545 Y132.153379 Z-0.125000 F400.000000
G00 Z5.000000

(End cutting path id: path2020)


(Start cutting path id: path2020)
(Change tool to Default tool)

G00 Z5.000000
G00 X49.941480 Y131.322516

G01 Z-0.125000 F100.0(Penetrate)
G01 X50.938289 Y131.322516 Z-0.125000 F400.000000
G00 Z5.000000

(End cutting path id: path2020)


(Start cutting path id: path2020)
(Change tool to Default tool)

G00 Z5.000000
G00 X50.923331 Y131.530232

G01 Z-0.125000 F100.0(Penetrate)
G01 X49.955591 Y131.530232 Z-0.125000 F400.000000
G00 Z5.000000

(End cutting path id: path2020)


(Start cutting path id: path2020)
(Change tool to Default tool)

G00 Z5.000000
G00 X49.939787 Y131.114519

G01 Z-0.125000 F100.0(Penetrate)
G01 X50.961996 Y131.114519 Z-0.125000 F400.000000
G00 Z5.000000

(End cutting path id: path2020)


(Start cutting path id: path2020)
(Change tool to Default tool)

G00 Z5.000000
G00 X50.909785 Y131.737947

G01 Z-0.125000 F100.0(Penetrate)
G01 X49.972243 Y131.737947 Z-0.125000 F400.000000
G00 Z5.000000

(End cutting path id: path2020)


(Start cutting path id: path2020)
(Change tool to Default tool)

G00 Z5.000000
G00 X49.956720 Y130.906803

G01 Z-0.125000 F100.0(Penetrate)
G01 X50.985138 Y130.906803 Z-0.125000 F400.000000
G00 Z5.000000

(End cutting path id: path2020)


(Start cutting path id: path2020)
(Change tool to Default tool)

G00 Z5.000000
G00 X49.998771 Y130.699087

G01 Z-0.125000 F100.0(Penetrate)
G01 X51.008845 Y130.699087 Z-0.125000 F400.000000
G00 Z5.000000

(End cutting path id: path2020)


(Start cutting path id: path2020)
(Change tool to Default tool)

G00 Z5.000000
G00 X50.049854 Y130.491090

G01 Z-0.125000 F100.0(Penetrate)
G01 X51.043558 Y130.491090 Z-0.125000 F400.000000
G00 Z5.000000

(End cutting path id: path2020)


(Start cutting path id: path2020)
(Change tool to Default tool)

G00 Z5.000000
G00 X50.100936 Y130.283374

G01 Z-0.125000 F100.0(Penetrate)
G01 X51.078271 Y130.283374 Z-0.125000 F400.000000
G00 Z5.000000

(End cutting path id: path2020)


(Start cutting path id: path2020)
(Change tool to Default tool)

G00 Z5.000000
G00 X50.152300 Y130.075659

G01 Z-0.125000 F100.0(Penetrate)
G01 X51.113267 Y130.075659 Z-0.125000 F400.000000
G00 Z5.000000

(End cutting path id: path2020)


(Start cutting path id: path2020)
(Change tool to Default tool)

G00 Z5.000000
G00 X50.203383 Y129.867661

G01 Z-0.125000 F100.0(Penetrate)
G01 X51.158140 Y129.867661 Z-0.125000 F400.000000
G00 Z5.000000

(End cutting path id: path2020)


(Start cutting path id: path2020)
(Change tool to Default tool)

G00 Z5.000000
G00 X50.254465 Y129.659945

G01 Z-0.125000 F100.0(Penetrate)
G01 X51.206118 Y129.659945 Z-0.125000 F400.000000
G00 Z5.000000

(End cutting path id: path2020)


(Start cutting path id: path2020)
(Change tool to Default tool)

G00 Z5.000000
G00 X51.434436 Y128.828801

G01 Z-0.125000 F100.0(Penetrate)
G01 X50.458794 Y128.828801 Z-0.125000 F400.000000
G00 Z5.000000

(End cutting path id: path2020)


(Start cutting path id: path2020)
(Change tool to Default tool)

G00 Z5.000000
G00 X50.407711 Y129.036799

G01 Z-0.125000 F100.0(Penetrate)
G01 X51.372065 Y129.036799 Z-0.125000 F400.000000
G00 Z5.000000

(End cutting path id: path2020)


(Start cutting path id: path2020)
(Change tool to Default tool)

G00 Z5.000000
G00 X50.510158 Y128.620803

G01 Z-0.125000 F100.0(Penetrate)
G01 X51.503298 Y128.620803 Z-0.125000 F400.000000
G00 Z5.000000

(End cutting path id: path2020)


(Start cutting path id: path2020)
(Change tool to Default tool)

G00 Z5.000000
G00 X51.741211 Y127.997656

G01 Z-0.125000 F100.0(Penetrate)
G01 X50.665380 Y127.997656 Z-0.125000 F400.000000
G00 Z5.000000

(End cutting path id: path2020)


(Start cutting path id: path2020)
(Change tool to Default tool)

G00 Z5.000000
G00 X50.717591 Y127.789941

G01 Z-0.125000 F100.0(Penetrate)
G01 X51.834909 Y127.789941 Z-0.125000 F400.000000
G00 Z5.000000

(End cutting path id: path2020)


(Start cutting path id: path2020)
(Change tool to Default tool)

G00 Z5.000000
G00 X50.769238 Y127.582225

G01 Z-0.125000 F100.0(Penetrate)
G01 X51.928325 Y127.582225 Z-0.125000 F400.000000
G00 Z5.000000

(End cutting path id: path2020)


(Start cutting path id: path2020)
(Change tool to Default tool)

G00 Z5.000000
G00 X50.821167 Y127.374227

G01 Z-0.125000 F100.0(Penetrate)
G01 X52.029360 Y127.374227 Z-0.125000 F400.000000
G00 Z5.000000

(End cutting path id: path2020)


(Start cutting path id: path2020)
(Change tool to Default tool)

G00 Z5.000000
G00 X50.873096 Y127.166512

G01 Z-0.125000 F100.0(Penetrate)
G01 X52.140274 Y127.166512 Z-0.125000 F400.000000
G00 Z5.000000

(End cutting path id: path2020)


(Start cutting path id: path2020)
(Change tool to Default tool)

G00 Z5.000000
G00 X50.925025 Y126.958796

G01 Z-0.125000 F100.0(Penetrate)
G01 X52.251187 Y126.958796 Z-0.125000 F400.000000
G00 Z5.000000

(End cutting path id: path2020)


(Start cutting path id: path2020)
(Change tool to Default tool)

G00 Z5.000000
G00 X51.028600 Y126.543083

G01 Z-0.125000 F100.0(Penetrate)
G01 X52.502365 Y126.543083 Z-0.125000 F400.000000
G00 Z5.000000

(End cutting path id: path2020)


(Start cutting path id: path2020)
(Change tool to Default tool)

G00 Z5.000000
G00 X51.323240 Y125.919654

G01 Z-0.125000 F100.0(Penetrate)
G01 X52.927109 Y125.919654 Z-0.125000 F400.000000
G00 Z5.000000

(End cutting path id: path2020)


(Start cutting path id: path2020)
(Change tool to Default tool)

G00 Z5.000000
G00 X51.893329 Y125.088510

G01 Z-0.125000 F100.0(Penetrate)
G01 X53.575656 Y125.088510 Z-0.125000 F400.000000
G00 Z5.000000

(End cutting path id: path2020)


(Start cutting path id: path2020)
(Change tool to Default tool)

