%
(Header)
(Generated by gcodetools from Inkscape.)
(Using default header. To add your own header create file "header" in the output dir.)
M3
(Header end.)
G21 (All units in mm)

(Start cutting path id: line2419)
(Change tool to Default tool)

G00 Z5.000000
G00 X9.072939 Y29.577231

G01 Z-0.125000 F100.0(Penetrate)
G01 X9.072939 Y199.312483 Z-0.125000 F400.000000
G00 Z5.000000

(End cutting path id: line2419)


(Start cutting path id: line2416)
(Change tool to Default tool)

G00 Z5.000000
G00 X9.072939 Y29.577231

G01 Z-0.125000 F100.0(Penetrate)
G01 X148.421088 Y29.577231 Z-0.125000 F400.000000
G00 Z5.000000

(End cutting path id: line2416)


(Start cutting path id: line2413)
(Change tool to Default tool)

G00 Z5.000000
G00 X148.421088 Y29.577231

G01 Z-0.125000 F100.0(Penetrate)
G01 X148.421088 Y199.312483 Z-0.125000 F400.000000
G00 Z5.000000

(End cutting path id: line2413)


(Start cutting path id: line2410)
(Change tool to Default tool)

G00 Z5.000000
G00 X9.072939 Y199.312483

G01 Z-0.125000 F100.0(Penetrate)
G01 X148.421088 Y199.312483 Z-0.125000 F400.000000
G00 Z5.000000

(End cutting path id: line2410)


(Start cutting path id: path2407)
(Change tool to Default tool)

G00 Z5.000000
G00 X9.072932 Y51.259554

G01 Z-0.125000 F100.0(Penetrate)
G02 X10.139275 Y50.936692 Z-0.125000 I-5.534018 J-20.200030 F400.000000
G03 X10.625759 Y50.804157 Z-0.125000 I1.455207 J4.382397
G03 X10.889734 Y50.893061 Z-0.125000 I0.057355 J0.266054
G03 X11.008989 Y51.248355 Z-0.125000 I-0.378862 J0.324826
G03 X10.926026 Y51.940641 Z-0.125000 I-5.984402 J-0.366051
G03 X10.551726 Y53.334965 Z-0.125000 I-8.387403 J-1.504157
G03 X9.984519 Y54.567040 Z-0.125000 I-7.633084 J-2.767421
G03 X9.072932 Y55.819114 Z-0.125000 I-5.911665 J-3.346177
G00 Z5.000000

(End cutting path id: path2407)


(Start cutting path id: path2404)
(Change tool to Default tool)

G00 Z5.000000
G00 X9.072932 Y59.023685

G01 Z-0.125000 F100.0(Penetrate)
G02 X10.306198 Y59.178066 Z-0.125000 I2.831778 J-17.618449 F400.000000
G02 X11.614317 Y59.241431 Z-0.125000 I1.420795 J-15.796904
G02 X13.033444 Y59.182446 Z-0.125000 I0.111292 J-14.423550
G02 X14.753565 Y58.932855 Z-0.125000 I-1.479106 J-16.245717
G02 X16.392756 Y58.511980 Z-0.125000 I-3.078460 J-15.392293
G02 X19.061788 Y57.490767 Z-0.125000 I-7.141415 J-22.663211
G02 X22.283698 Y55.891524 Z-0.125000 I-21.137861 J-46.630446
G02 X24.368524 Y54.724794 Z-0.125000 I-39.649630 J-73.295869
G02 X25.400288 Y53.975918 Z-0.125000 I-3.101795 J-5.358697
G02 X25.418673 Y53.863150 Z-0.125000 I-0.060789 J-0.067793
G02 X25.279317 Y53.638211 Z-0.125000 I-3.025374 J1.718657
G02 X25.065305 Y53.474321 Z-0.125000 I-0.350545 J0.236075
G02 X24.876838 Y53.480939 Z-0.125000 I-0.085582 J0.249701
G02 X24.160112 Y53.827689 Z-0.125000 I3.091657 J7.304510
G02 X23.179990 Y54.365742 Z-0.125000 I217.015030 J396.477837
G02 X21.929789 Y55.055144 Z-0.125000 I524.093245 J951.898820
G03 X20.844617 Y55.650477 Z-0.125000 I-85.830235 J-155.164487
G03 X20.446019 Y55.850220 Z-0.125000 I-3.157796 J-5.803969
G03 X20.155752 Y55.911275 Z-0.125000 I-0.280650 J-0.613741
G03 X20.088296 Y55.872008 Z-0.125000 I0.001133 J-0.079520
G03 X20.065291 Y55.772451 Z-0.125000 I0.148860 J-0.086834
G03 X20.203390 Y55.501219 Z-0.125000 I0.392473 J0.029055
G03 X20.589479 Y55.243560 Z-0.125000 I1.315034 J1.552416
G02 X21.205635 Y54.913934 Z-0.125000 I-9.343682 J-18.206445
G02 X21.718076 Y54.590911 Z-0.125000 I-2.724507 J-4.890125
G02 X21.886241 Y54.406278 Z-0.125000 I-0.337713 J-0.476489
G02 X21.890608 Y54.206374 Z-0.125000 I-0.180157 J-0.103936
G02 X21.762438 Y54.106414 Z-0.125000 I-0.173396 J0.090181
G02 X21.595932 Y54.112468 Z-0.125000 I-0.072310 J0.303983
G02 X21.055702 Y54.318558 Z-0.125000 I1.497811 J4.737370
G02 X20.394292 Y54.624896 Z-0.125000 I14.256197 J31.647567
G02 X19.465548 Y55.068843 Z-0.125000 I133.491436 J280.459560
G03 X18.610774 Y55.479681 Z-0.125000 I-242.392795 J-503.217782
G03 X18.026571 Y55.757536 Z-0.125000 I-43.120916 J-89.911010
G03 X17.435772 Y56.020511 Z-0.125000 I-6.470028 J-13.740377
G03 X17.222784 Y56.066733 Z-0.125000 I-0.230816 J-0.549765
G03 X17.097686 Y55.983049 Z-0.125000 I-0.003868 J-0.129563
G03 X17.099603 Y55.858320 Z-0.125000 I0.158396 J-0.059944
G03 X17.178472 Y55.755276 Z-0.125000 I0.232521 J0.096266
G03 X17.543179 Y55.525481 Z-0.125000 I1.394435 J1.808791
G03 X18.025835 Y55.294896 Z-0.125000 I5.889772 J11.707891
G02 X18.933630 Y54.876604 Z-0.125000 I-31.699974 J-69.990996
G02 X19.915929 Y54.408345 Z-0.125000 I-29.331527 J-62.795096
G02 X20.483346 Y54.123209 Z-0.125000 I-10.704547 J-22.009118
G02 X20.791034 Y53.913027 Z-0.125000 I-0.696774 J-1.350320
G02 X20.808096 Y53.850718 Z-0.125000 I-0.038886 J-0.044138
G02 X20.751228 Y53.721210 Z-0.125000 I-0.692722 J0.226943
G02 X20.660030 Y53.616177 Z-0.125000 I-0.299357 J0.167816
G02 X20.585327 Y53.601438 Z-0.125000 I-0.052285 J0.068319
G02 X20.205878 Y53.729405 Z-0.125000 I0.847049 J3.138239
G02 X19.648954 Y53.955175 Z-0.125000 I225.664667 J557.464177
G02 X18.655540 Y54.360863 Z-0.125000 I97.685987 J240.624127
G02 X17.693473 Y54.757084 Z-0.125000 I218.454576 J531.797116
G03 X17.099603 Y54.996052 Z-0.125000 I-13.552626 J-32.822842
G03 X16.611815 Y55.154683 Z-0.125000 I-1.638807 J-4.210016
G03 X16.430195 Y55.161539 Z-0.125000 I-0.106147 J-0.402876
G03 X16.214922 Y55.069239 Z-0.125000 I0.096013 J-0.521124
G03 X16.111667 Y54.958725 Z-0.125000 I0.233484 J-0.321645
G03 X16.117925 Y54.881402 Z-0.125000 I0.054970 J-0.034466
G03 X16.360517 Y54.703653 Z-0.125000 I0.524587 J0.461536
G03 X16.782406 Y54.534470 Z-0.125000 I2.915286 J6.659177
G02 X17.795140 Y54.158671 Z-0.125000 I-35.528820 J-97.298395
G02 X18.923629 Y53.726344 Z-0.125000 I-34.583686 J-91.961790
G02 X19.695735 Y53.419587 Z-0.125000 I-24.467503 J-62.709632
G02 X20.188503 Y53.179723 Z-0.125000 I-1.427294 J-3.558284
G02 X20.240717 Y53.095458 Z-0.125000 I-0.052595 J-0.090899
G02 X20.204058 Y52.926122 Z-0.125000 I-0.324135 J-0.018464
G02 X20.090163 Y52.771331 Z-0.125000 I-0.565431 J0.296747
G02 X19.989907 Y52.733345 Z-0.125000 I-0.092293 J0.092293
G02 X19.606149 Y52.806169 Z-0.125000 I0.094454 J1.545306
G02 X19.066141 Y52.992102 Z-0.125000 I5.569141 J17.051594
G02 X17.989243 Y53.394080 Z-0.125000 I20.111160 J55.521319
G02 X16.866739 Y53.836348 Z-0.125000 I31.466403 J81.509306
G03 X16.184455 Y54.109524 Z-0.125000 I-98.587924 J-245.243915
G03 X15.719527 Y54.257193 Z-0.125000 I-1.257466 J-3.153339
G03 X15.610855 Y54.233948 Z-0.125000 I-0.030050 J-0.125160
G03 X15.482639 Y54.085599 Z-0.125000 I0.283867 J-0.374927
G03 X15.465900 Y53.901112 Z-0.125000 I0.202576 J-0.111384
G03 X15.549362 Y53.810717 Z-0.125000 I0.143362 J0.048640
G03 X16.207474 Y53.544634 Z-0.125000 I6.222246 J14.442752
G02 X17.147963 Y53.182348 Z-0.125000 I-23.944668 J-63.561910
G02 X18.403579 Y52.681121 Z-0.125000 I-52.750168 J-133.967039
G02 X19.506590 Y52.221604 Z-0.125000 I-20.380099 J-50.473289
G02 X19.898548 Y52.026024 Z-0.125000 I-1.514204 J-3.525143
G02 X20.080445 Y51.822248 Z-0.125000 I-0.212441 J-0.372704
G02 X20.078342 Y51.724913 Z-0.125000 I-0.108203 J-0.046352
G02 X19.993587 Y51.582390 Z-0.125000 I-0.923255 J0.452577
G02 X19.831980 Y51.484773 Z-0.125000 I-0.193043 J0.137007
G02 X19.663227 Y51.505997 Z-0.125000 I-0.044201 J0.330051
G02 X19.078586 Y51.757264 Z-0.125000 I5.275798 J13.081369
G03 X18.334456 Y52.093837 Z-0.125000 I-55.411022 J-121.517655
G03 X17.476611 Y52.475822 Z-0.125000 I-69.022061 J-153.852351
G03 X16.733762 Y52.795962 Z-0.125000 I-17.720712 J-40.096974
G03 X16.479965 Y52.887045 Z-0.125000 I-0.983427 J-2.341125
G03 X16.302460 Y52.883395 Z-0.125000 I-0.083095 J-0.276980
G03 X16.244802 Y52.834789 Z-0.125000 I0.034234 J-0.099111
G03 X16.208012 Y52.732817 Z-0.125000 I0.305258 J-0.167753
G03 X16.267820 Y52.571007 Z-0.125000 I0.163647 J-0.031472
G03 X16.455733 Y52.468637 Z-0.125000 I0.385297 J0.483607
G02 X17.054809 Y52.250611 Z-0.125000 I-4.217586 J-12.520860
G02 X17.687402 Y51.981414 Z-0.125000 I-4.383033 J-11.177648
G02 X18.389269 Y51.635951 Z-0.125000 I-6.184328 J-13.450253
G02 X19.040389 Y51.262608 Z-0.125000 I-4.591806 J-8.762679
G02 X19.343611 Y51.043685 Z-0.125000 I-1.485401 J-2.376827
G02 X19.517451 Y50.818549 Z-0.125000 I-0.413708 J-0.499132
G02 X19.502875 Y50.748176 Z-0.125000 I-0.054488 J-0.025410
G02 X19.411879 Y50.712463 Z-0.125000 I-0.093293 J0.103925
G02 X19.074230 Y50.750716 Z-0.125000 I-0.021673 J1.318006
G02 X18.733221 Y50.852520 Z-0.125000 I0.941006 J3.774073
G02 X18.037146 Y51.095995 Z-0.125000 I202.023482 J578.686008
G03 X17.274864 Y51.357831 Z-0.125000 I-21.415430 J-61.106015
G03 X16.414641 Y51.634757 Z-0.125000 I-10.924628 J-32.460956
G03 X15.566573 Y51.875052 Z-0.125000 I-5.527864 J-17.892709
G03 X15.157324 Y51.947685 Z-0.125000 I-0.675826 J-2.618651
G03 X14.856551 Y51.896978 Z-0.125000 I-0.057247 J-0.577821
G03 X14.756675 Y51.817039 Z-0.125000 I0.111858 J-0.242117
G03 X14.675607 Y51.677906 Z-0.125000 I0.534071 J-0.404373
G03 X14.692596 Y51.539572 Z-0.125000 I0.126733 J-0.054646
G03 X14.811781 Y51.449369 Z-0.125000 I0.222328 J0.169920
G03 X15.321566 Y51.269570 Z-0.125000 I2.593222 J6.539990
G03 X15.889451 Y51.099402 Z-0.125000 I9.225365 J29.754194
G03 X16.825867 Y50.840925 Z-0.125000 I10.973440 J37.929420
G03 X17.815416 Y50.589010 Z-0.125000 I16.248063 J61.754471
G02 X18.570308 Y50.391749 Z-0.125000 I-6.515035 J-26.475305
G02 X19.202437 Y50.172977 Z-0.125000 I-1.419726 J-5.124851
G02 X19.343611 Y50.047091 Z-0.125000 I-0.111927 J-0.267622
G02 X19.331891 Y49.886360 Z-0.125000 I-0.128666 J-0.071411
G02 X19.062410 Y49.722340 Z-0.125000 I-0.345063 J0.263545
G02 X18.677907 Y49.713961 Z-0.125000 I-0.219838 J1.261700
G03 X17.976178 Y49.797618 Z-0.125000 I-4.421346 J-34.102345
G03 X17.300492 Y49.864550 Z-0.125000 I-3.418214 J-31.063140
G02 X16.425839 Y49.983633 Z-0.125000 I0.816689 J9.270129
G02 X15.460217 Y50.203634 Z-0.125000 I2.117758 J11.524363
G02 X14.800846 Y50.383660 Z-0.125000 I360.938589 J1323.281514
G03 X14.302269 Y50.486679 Z-0.125000 I-1.090397 J-4.019191
G03 X14.168766 Y50.458938 Z-0.125000 I-0.028452 J-0.198180
G03 X14.049790 Y50.318045 Z-0.125000 I0.155117 J-0.251669
G03 X14.018212 Y50.131701 Z-0.125000 I0.408393 J-0.165054
G03 X14.073594 Y50.011539 Z-0.125000 I0.178787 J0.009559
G03 X14.340473 Y49.848011 Z-0.125000 I0.515717 J0.542115
G03 X14.702797 Y49.744965 Z-0.125000 I0.972950 J2.732524
G03 X15.711639 Y49.555612 Z-0.125000 I4.066810 J18.885100
G03 X16.916097 Y49.379836 Z-0.125000 I6.919490 J43.199408
G03 X18.077584 Y49.258858 Z-0.125000 I2.802400 J21.269275
G03 X19.041067 Y49.211396 Z-0.125000 I1.376861 J18.147415
G02 X19.338012 Y49.141897 Z-0.125000 I-0.016836 J-0.741048
G02 X19.514778 Y48.910148 Z-0.125000 I-0.135122 J-0.286353
G02 X19.466792 Y48.716365 Z-0.125000 I-0.243273 J-0.042591
G02 X19.321211 Y48.633319 Z-0.125000 I-0.173525 J0.135065
G02 X18.589594 Y48.585095 Z-0.125000 I-0.756695 J5.906165
G02 X17.599264 Y48.591733 Z-0.125000 I-0.164778 J49.296187
G02 X16.150238 Y48.659127 Z-0.125000 I0.408621 J24.396714
G02 X14.774098 Y48.809451 Z-0.125000 I1.568215 J20.730330
G03 X14.160056 Y48.880604 Z-0.125000 I-1.637038 J-11.442320
G03 X13.773664 Y48.837710 Z-0.125000 I-0.088597 J-0.963687
G03 X13.716480 Y48.782309 Z-0.125000 I0.027775 J-0.085881
G03 X13.681534 Y48.649726 Z-0.125000 I0.723782 J-0.261675
G03 X13.710260 Y48.512928 Z-0.125000 I0.187868 J-0.031964
G03 X13.801479 Y48.441291 Z-0.125000 I0.154767 J0.103179
G03 X14.246533 Y48.313225 Z-0.125000 I1.156144 J3.180441
G03 X14.789407 Y48.209829 Z-0.125000 I2.471506 J11.499670
G03 X15.866549 Y48.078063 Z-0.125000 I2.070254 J12.455095
G03 X16.997713 Y48.028515 Z-0.125000 I1.290699 J16.529386
G03 X18.062654 Y48.049446 Z-0.125000 I0.175079 J18.194329
G03 X19.069115 Y48.128515 Z-0.125000 I-0.796149 J16.579153
G02 X19.479235 Y48.150851 Z-0.125000 I0.410120 J-3.754013
G02 X19.767199 Y48.071846 Z-0.125000 I-0.000000 J-0.564297
G02 X19.855622 Y47.979768 Z-0.125000 I-0.122071 J-0.205720
G02 X19.911575 Y47.826815 Z-0.125000 I-0.498192 J-0.268959
G02 X19.852511 Y47.629510 Z-0.125000 I-0.211311 J-0.044236
G02 X19.651731 Y47.502468 Z-0.125000 I-0.386362 J0.388435
G02 X19.000821 Y47.307870 Z-0.125000 I-2.090560 J5.806793
G02 X18.309679 Y47.162735 Z-0.125000 I-2.808442 J11.655798
G02 X17.273799 Y47.021070 Z-0.125000 I-2.219088 J12.368261
G02 X16.224116 Y46.963017 Z-0.125000 I-1.267734 J13.403600
G02 X15.144261 Y46.983120 Z-0.125000 I-0.251302 J15.514406
G02 X14.009856 Y47.079497 Z-0.125000 I0.970529 J18.147939
G03 X13.471987 Y47.124965 Z-0.125000 I-0.984694 J-8.444570
G03 X13.160292 Y47.060743 Z-0.125000 I-0.033146 J-0.627630
G03 X13.098089 Y46.983120 Z-0.125000 I0.052186 J-0.105555
G03 X13.061456 Y46.799514 Z-0.125000 I2.207262 J-0.535841
G03 X13.089379 Y46.600514 Z-0.125000 I0.341280 J-0.053572
G03 X13.187678 Y46.512001 Z-0.125000 I0.152889 J0.070953
G03 X13.980264 Y46.318069 Z-0.125000 I1.472438 J4.301150
G03 X15.198043 Y46.157657 Z-0.125000 I4.617170 J30.349080
G03 X16.950916 Y46.042465 Z-0.125000 I2.145866 J19.259121
G03 X18.435636 Y46.110092 Z-0.125000 I0.224160 J11.410660
G03 X19.341124 Y46.247146 Z-0.125000 I-1.279332 J11.511944
G03 X20.275087 Y46.451952 Z-0.125000 I-3.669590 J18.966118
G02 X20.671852 Y46.519637 Z-0.125000 I0.669873 J-2.729999
G02 X20.957366 Y46.456457 Z-0.125000 I0.045846 J-0.469537
G02 X21.043883 Y46.358505 Z-0.125000 I-0.107339 J-0.181994
G02 X21.035789 Y46.250547 Z-0.125000 I-0.106751 J-0.046279
G02 X20.671852 Y45.960967 Z-0.125000 I-0.591339 J0.369697
G02 X19.869555 Y45.748385 Z-0.125000 I-1.877224 J5.464497
G02 X18.547291 Y45.532322 Z-0.125000 I-4.954387 J26.165908
G02 X17.437756 Y45.417205 Z-0.125000 I-2.281562 J16.585819
G02 X16.704554 Y45.389233 Z-0.125000 I-0.804477 J11.463495
G02 X15.916421 Y45.403496 Z-0.125000 I-0.100575 J16.224904
G03 X15.567307 Y45.396712 Z-0.125000 I-0.119757 J-2.823532
G03 X15.351246 Y45.306824 Z-0.125000 I0.029530 J-0.375596
G03 X15.288595 Y45.206965 Z-0.125000 I0.129831 J-0.151038
G03 X15.284536 Y45.069763 Z-0.125000 I0.290551 J-0.077256
G03 X15.459680 Y44.867283 Z-0.125000 I0.267551 J0.054441
G03 X15.825389 Y44.795812 Z-0.125000 I0.413361 J1.143747
G03 X16.812182 Y44.795739 Z-0.125000 I0.494326 J12.606416
G03 X17.841168 Y44.856986 Z-0.125000 I-0.986635 J25.250800
G03 X18.872663 Y44.953138 Z-0.125000 I-3.154114 J39.417486
G03 X19.821955 Y45.073458 Z-0.125000 I-2.528666 J23.755312
G03 X20.342747 Y45.167770 Z-0.125000 I-1.165996 J7.923704
G03 X20.847292 Y45.300764 Z-0.125000 I-1.251565 J5.771687
G02 X21.011533 Y45.336367 Z-0.125000 I0.282865 J-0.908252
G02 X21.123949 Y45.298538 Z-0.125000 I0.016881 J-0.135783
G02 X21.168930 Y45.221895 Z-0.125000 I-0.117518 J-0.120493
G02 X21.172841 Y45.121678 Z-0.125000 I-0.212142 J-0.058463
G02 X21.036418 Y44.903368 Z-0.125000 I-0.351631 J0.067956
G02 X20.746594 Y44.736392 Z-0.125000 I-0.804375 J1.061157
G02 X19.981914 Y44.466634 Z-0.125000 I-2.720971 J6.494427
G02 X19.170421 Y44.261779 Z-0.125000 I-3.496680 J12.141668
G02 X18.243071 Y44.073451 Z-0.125000 I-7.290084 J33.519899
G02 X17.362558 Y43.921830 Z-0.125000 I-4.832911 J25.433830
G02 X16.647940 Y43.837042 Z-0.125000 I-1.562204 J10.112767
G02 X15.872889 Y43.801947 Z-0.125000 I-0.853060 J10.263413
G03 X15.524380 Y43.783541 Z-0.125000 I0.029259 J-3.862690
G03 X15.342481 Y43.697440 Z-0.125000 I0.030392 J-0.299402
G03 X15.309747 Y43.618678 Z-0.125000 I0.078389 J-0.078762
G03 X15.317112 Y43.467753 Z-0.125000 I1.550097 J-0.000000
G03 X15.396223 Y43.315080 Z-0.125000 I0.230367 J0.022537
G03 X15.519478 Y43.263414 Z-0.125000 I0.138825 J0.158329
G03 X16.225517 Y43.257222 Z-0.125000 I0.400414 J5.400902
G03 X17.207589 Y43.327685 Z-0.125000 I-1.832177 J32.414866
G03 X18.547291 Y43.493628 Z-0.125000 I-1.605590 J18.453180
G03 X19.681128 Y43.735957 Z-0.125000 I-1.818913 J11.284269
G03 X20.360789 Y43.929741 Z-0.125000 I-5.549709 J20.753389
G02 X21.056457 Y44.140319 Z-0.125000 I33.997613 J-111.060285
G02 X21.351836 Y44.208452 Z-0.125000 I0.678377 J-2.266642
G02 X21.579149 Y44.187700 Z-0.125000 I0.073795 J-0.447019
G02 X21.659166 Y44.130065 Z-0.125000 I-0.060765 J-0.168724
G02 X21.710943 Y44.026505 Z-0.125000 I-0.223951 J-0.176694
G02 X21.672854 Y43.868772 Z-0.125000 I-0.164717 J-0.043689
G02 X21.516417 Y43.748703 Z-0.125000 I-0.396447 J0.354583
G02 X21.014022 Y43.509805 Z-0.125000 I-5.167777 J10.219966
G02 X20.506238 Y43.299679 Z-0.125000 I-4.210585 J9.456551
G02 X19.571934 Y43.022681 Z-0.125000 I-2.248626 J5.870351
G02 X18.414010 Y42.836571 Z-0.125000 I-2.399287 J11.232483
G03 X17.641476 Y42.733392 Z-0.125000 I1.720341 J-15.824435
G03 X17.222977 Y42.585687 Z-0.125000 I0.192982 J-1.213509
G03 X17.184214 Y42.518756 Z-0.125000 I0.038400 J-0.066930
G03 X17.205774 Y42.393235 Z-0.125000 I0.376168 J-0.000000
G03 X17.326059 Y42.263687 Z-0.125000 I0.209942 J0.074313
G03 X17.487011 Y42.234224 Z-0.125000 I0.143706 J0.330687
G03 X18.230008 Y42.304124 Z-0.125000 I-0.388504 J8.113361
G03 X19.214092 Y42.456354 Z-0.125000 I-5.997575 J42.027969
G03 X20.426113 Y42.695442 Z-0.125000 I-3.436975 J20.614850
G03 X21.426418 Y42.971944 Z-0.125000 I-2.532630 J11.109980
G03 X21.959031 Y43.155814 Z-0.125000 I-5.086320 J15.596813
G02 X22.510827 Y43.353905 Z-0.125000 I15.668523 J-42.778026
G02 X22.741666 Y43.410886 Z-0.125000 I0.410587 J-1.167279
G02 X22.923086 Y43.377860 Z-0.125000 I0.041943 J-0.284398
G02 X22.976207 Y43.318190 Z-0.125000 I-0.058643 J-0.105690
G02 X22.975001 Y43.246106 Z-0.125000 I-0.084140 J-0.034644
G02 X22.799524 Y43.028280 Z-0.125000 I-0.507128 J0.228941
G02 X22.467283 Y42.818696 Z-0.125000 I-1.545775 J2.082290
G02 X21.652323 Y42.457791 Z-0.125000 I-2.978544 J5.625259
G02 X20.779026 Y42.190856 Z-0.125000 I-3.094064 J8.560475
G02 X19.867444 Y41.979373 Z-0.125000 I-6.171180 J24.530048
G02 X19.016435 Y41.817134 Z-0.125000 I-4.273986 J20.105607
G02 X18.398604 Y41.733013 Z-0.125000 I-1.623428 J9.612506
G02 X17.725516 Y41.685065 Z-0.125000 I-1.083847 J10.466652
G03 X17.427465 Y41.660846 Z-0.125000 I0.138888 J-3.555253
G03 X17.264768 Y41.584320 Z-0.125000 I0.036971 J-0.289813
G03 X17.230873 Y41.512781 Z-0.125000 I0.073685 J-0.078711
G03 X17.237846 Y41.393229 Z-0.125000 I0.453079 J-0.033555
G03 X17.361520 Y41.232201 Z-0.125000 I0.222521 J0.042896
G03 X17.566287 Y41.182041 Z-0.125000 I0.216481 J0.440694
G03 X18.404825 Y41.217893 Z-0.125000 I0.150463 J6.305072
G03 X19.399084 Y41.350624 Z-0.125000 I-2.246991 J20.621837
G03 X20.806232 Y41.609211 Z-0.125000 I-4.499375 J28.442167
G03 X22.059306 Y41.914873 Z-0.125000 I-3.951535 J18.920790
G03 X23.229413 Y42.297903 Z-0.125000 I-3.792263 J13.563644
G03 X24.408509 Y42.793863 Z-0.125000 I-5.918651 J15.720603
G03 X25.513238 Y43.328144 Z-0.125000 I-18.229329 J39.101854
G03 X26.680000 Y43.920889 Z-0.125000 I-58.540931 J116.677080
G02 X27.217241 Y44.167391 Z-0.125000 I3.012612 J-5.857152
G02 X27.545601 Y44.183173 Z-0.125000 I0.186729 J-0.461280
G02 X27.660817 Y44.095848 Z-0.125000 I-0.058406 J-0.196730
G03 X27.820554 Y43.859614 Z-0.125000 I4.461865 J2.844921
G02 X27.958193 Y43.609966 Z-0.125000 I-0.987276 J-0.707081
G02 X27.944574 Y43.454724 Z-0.125000 I-0.158757 J-0.064290
G02 X27.586162 Y43.079916 Z-0.125000 I-1.088503 J0.682115
G02 X26.938337 Y42.676326 Z-0.125000 I-4.678779 J6.788437
G02 X25.357706 Y41.906585 Z-0.125000 I-7.456518 J13.303915
G02 X23.688387 Y41.294001 Z-0.125000 I-7.857091 J18.830151
G02 X21.771772 Y40.759386 Z-0.125000 I-8.360273 J26.269000
G02 X19.957121 Y40.403352 Z-0.125000 I-5.124359 J21.315543
G02 X18.129845 Y40.206315 Z-0.125000 I-3.144426 J20.589333
G02 X16.276002 Y40.170704 Z-0.125000 I-1.330653 J20.999445
G02 X13.924895 Y40.356869 Z-0.125000 I0.541745 J21.781027
G02 X11.654837 Y40.774098 Z-0.125000 I3.128569 J23.406021
G02 X9.073556 Y41.579349 Z-0.125000 I4.312554 J18.364002
G00 Z5.000000

(End cutting path id: path2404)


(Start cutting path id: path2401)
(Change tool to Default tool)

G00 Z5.000000
G00 X9.072932 Y64.219060

G01 Z-0.125000 F100.0(Penetrate)
G03 X9.626340 Y64.884157 Z-0.125000 I-5.806806 J5.394464 F400.000000
G03 X10.141122 Y65.652439 Z-0.125000 I-7.568470 J5.627811
G03 X10.776633 Y66.897503 Z-0.125000 I-8.622595 J5.185905
G03 X11.185050 Y68.114814 Z-0.125000 I-7.511031 J3.197174
G03 X11.377318 Y69.352950 Z-0.125000 I-6.680455 J1.671393
G03 X11.357379 Y70.348247 Z-0.125000 I-5.992878 J0.377791
G03 X11.159268 Y71.318324 Z-0.125000 I-4.923541 J-0.500227
G03 X10.840392 Y71.994393 Z-0.125000 I-2.574445 J-0.801031
G03 X10.335195 Y72.548348 Z-0.125000 I-1.973220 J-1.292200
G03 X9.814506 Y72.879679 Z-0.125000 I-1.830998 J-2.302626
G03 X9.432170 Y73.037784 Z-0.125000 I-1.359704 J-2.746753
G03 X9.073554 Y73.135993 Z-0.125000 I-1.035962 J-3.079008
G00 Z5.000000

(End cutting path id: path2401)


(Start cutting path id: path2398)
(Change tool to Default tool)

G00 Z5.000000
G00 X9.072932 Y74.154414

G01 Z-0.125000 F100.0(Penetrate)
G02 X9.766222 Y73.940697 Z-0.125000 I-1.215387 J-5.174040 F400.000000
G02 X10.439121 Y73.608187 Z-0.125000 I-1.472920 J-3.827864
G02 X11.292731 Y72.879562 Z-0.125000 I-1.894649 J-3.083979
G02 X11.898629 Y71.901073 Z-0.125000 I-2.846031 J-2.439148
G02 X12.193786 Y70.801068 Z-0.125000 I-3.820594 J-1.614756
G02 X12.228978 Y69.319871 Z-0.125000 I-7.314389 J-0.914800
G02 X11.988063 Y67.778143 Z-0.125000 I-9.977164 J0.769369
G02 X11.408393 Y66.099126 Z-0.125000 I-8.709968 J2.067489
G02 X10.513333 Y64.577845 Z-0.125000 I-8.047842 J3.711078
G02 X9.516508 Y63.395366 Z-0.125000 I-9.072300 J6.636514
G02 X9.290506 Y63.169457 Z-0.125000 I-7.795220 J7.572411
G02 X9.072932 Y62.964856 Z-0.125000 I-6.577726 J6.776818
G00 Z5.000000

(End cutting path id: path2398)


(Start cutting path id: path2395)
(Change tool to Default tool)

G00 Z5.000000
G00 X9.072932 Y69.884765

G01 Z-0.125000 F100.0(Penetrate)
G02 X9.104880 Y69.770362 Z-0.125000 I-3.897488 J-1.150088 F400.000000
G02 X9.135145 Y69.650221 Z-0.125000 I-5.476785 J-1.443522
G02 X9.245787 Y68.788064 Z-0.125000 I-4.273963 J-0.986664
G02 X9.188025 Y67.771400 Z-0.125000 I-5.984790 J-0.169947
G02 X9.138271 Y67.476199 Z-0.125000 I-6.476933 J0.939864
G02 X9.072932 Y67.177271 Z-0.125000 I-5.928920 J1.139318
G00 Z5.000000

(End cutting path id: path2395)


(Start cutting path id: path2392)
(Change tool to Default tool)

G00 Z5.000000
G00 X9.072932 Y70.960418

G01 Z-0.125000 F100.0(Penetrate)
G02 X9.315609 Y70.581369 Z-0.125000 I-3.898693 J-2.763254 F400.000000
G02 X9.566900 Y70.012298 Z-0.125000 I-2.535122 J-1.459481
G02 X9.716189 Y69.299026 Z-0.125000 I-3.367853 J-1.077155
G02 X9.746073 Y68.531018 Z-0.125000 I-5.958037 J-0.616417
G02 X9.679624 Y67.818707 Z-0.125000 I-5.285625 J0.133820
G02 X9.530817 Y67.144296 Z-0.125000 I-6.041931 J0.979515
G02 X9.290819 Y66.392658 Z-0.125000 I-10.451144 J2.922906
G03 X9.154431 Y65.935508 Z-0.125000 I4.046782 J-1.456260
G03 X9.172815 Y65.662018 Z-0.125000 I0.445560 J-0.107411
G03 X9.258948 Y65.626311 Z-0.125000 I0.060165 J0.023391
G03 X9.422539 Y65.739720 Z-0.125000 I-0.209615 J0.477059
G03 X9.794598 Y66.212974 Z-0.125000 I-2.034211 J1.982120
G03 X10.087461 Y66.758961 Z-0.125000 I-3.877368 J2.431323
G03 X10.393084 Y67.600317 Z-0.125000 I-5.359833 J2.423148
G03 X10.572616 Y68.482020 Z-0.125000 I-5.986726 J1.678147
G03 X10.610206 Y69.359066 Z-0.125000 I-5.090588 J0.657508
G03 X10.486219 Y70.187134 Z-0.125000 I-3.919027 J-0.163479
G03 X10.221999 Y70.859633 Z-0.125000 I-2.949085 J-0.770520
G03 X9.781175 Y71.493912 Z-0.125000 I-2.972905 J-1.595843
G03 X9.394571 Y71.856902 Z-0.125000 I-2.101783 J-1.851138
G03 X9.206191 Y71.982878 Z-0.125000 I-1.008890 J-1.304823
G03 X9.072932 Y72.043542 Z-0.125000 I-0.390137 J-0.680319
G00 Z5.000000

(End cutting path id: path2392)


(Start cutting path id: path2389)
(Change tool to Default tool)

G00 Z5.000000
G00 X9.072932 Y76.672158

G01 Z-0.125000 F100.0(Penetrate)
G02 X9.116967 Y76.685782 Z-0.125000 I0.763858 J-2.390969 F400.000000
G03 X9.161896 Y76.699534 Z-0.125000 I-1.093961 J3.654413
G02 X10.262741 Y76.891163 Z-0.125000 I1.404408 J-4.810050
G02 X11.507933 Y76.846357 Z-0.125000 I0.391370 J-6.448418
G02 X12.634665 Y76.567659 Z-0.125000 I-0.688961 J-5.202302
G02 X13.603876 Y76.093583 Z-0.125000 I-1.839991 J-4.989493
G02 X14.471768 Y75.418567 Z-0.125000 I-2.775628 J-4.464174
G02 X15.144882 Y74.540757 Z-0.125000 I-2.551529 J-2.653519
G02 X15.534372 Y73.504982 Z-0.125000 I-3.384899 J-1.863964
G02 X15.686754 Y72.281195 Z-0.125000 I-6.547336 J-1.436638
G02 X15.626212 Y71.036625 Z-0.125000 I-7.756804 J-0.246424
G02 X15.345829 Y69.807622 Z-0.125000 I-6.566915 J0.851679
G02 X14.823395 Y68.629513 Z-0.125000 I-6.267047 J2.074238
G02 X14.234090 Y67.784470 Z-0.125000 I-4.786208 J2.709741
G02 X13.510796 Y67.103659 Z-0.125000 I-3.361121 J2.846239
G02 X13.042096 Y66.783467 Z-0.125000 I-3.970959 J5.309585
G02 X12.563785 Y66.514023 Z-0.125000 I-3.274336 J5.253269
G02 X12.411260 Y66.479869 Z-0.125000 I-0.143599 J0.283638
G02 X12.309861 Y66.551447 Z-0.125000 I0.003824 J0.113029
G02 X12.258218 Y66.747385 Z-0.125000 I0.803712 J0.316610
G02 X12.251939 Y66.957276 Z-0.125000 I0.944849 J0.133302
G02 X12.385754 Y67.297343 Z-0.125000 I0.627415 J-0.050522
G02 X12.692298 Y67.597718 Z-0.125000 I1.368608 J-1.090109
G03 X13.254241 Y68.086199 Z-0.125000 I-3.572588 J4.677335
G03 X13.713940 Y68.623767 Z-0.125000 I-3.017130 J3.045425
G03 X14.137660 Y69.332317 Z-0.125000 I-3.900922 J2.813758
G03 X14.444314 Y70.107379 Z-0.125000 I-4.850648 J2.367354
G03 X14.652781 Y70.978463 Z-0.125000 I-6.632783 J2.047840
G03 X14.747596 Y71.862435 Z-0.125000 I-6.811774 J1.177701
G03 X14.721215 Y72.734726 Z-0.125000 I-5.998801 J0.255122
G03 X14.556480 Y73.590997 Z-0.125000 I-4.985790 J-0.515217
G03 X14.226624 Y74.334833 Z-0.125000 I-2.799574 J-0.796419
G03 X13.701377 Y74.956952 Z-0.125000 I-2.391192 J-1.486067
G03 X13.030276 Y75.438486 Z-0.125000 I-2.684902 J-3.033461
G03 X12.293006 Y75.773282 Z-0.125000 I-2.115283 J-3.678974
G03 X11.435767 Y75.977245 Z-0.125000 I-1.475310 J-4.297167
G03 X10.523097 Y76.018417 Z-0.125000 I-0.680969 J-4.959019
G03 X9.574988 Y75.855932 Z-0.125000 I0.180841 J-3.902604
G03 X9.318811 Y75.768064 Z-0.125000 I1.092242 J-3.601761
G03 X9.072310 Y75.664938 Z-0.125000 I1.605337 J-4.183406
G00 Z5.000000

(End cutting path id: path2389)


(Start cutting path id: path2386)
(Change tool to Default tool)

G00 Z5.000000
G00 X9.072932 Y77.950628

G01 Z-0.125000 F100.0(Penetrate)
G03 X9.085124 Y77.979780 Z-0.125000 I-0.509381 J0.230154 F400.000000
G03 X9.096574 Y78.010352 Z-0.125000 I-1.607108 J0.619340
G03 X9.187221 Y78.416080 Z-0.125000 I-1.397275 J0.525168
G03 X9.117726 Y78.876350 Z-0.125000 I-1.017822 J0.081704
G03 X9.096960 Y78.924978 Z-0.125000 I-0.931698 J-0.369123
G03 X9.072933 Y78.974648 Z-0.125000 I-1.219081 J-0.559067
G00 Z5.000000

(End cutting path id: path2386)


(Start cutting path id: path2383)
(Change tool to Default tool)

G00 Z5.000000
G00 X9.072932 Y80.032262

G01 Z-0.125000 F100.0(Penetrate)
G03 X9.306980 Y79.921325 Z-0.125000 I3.247655 J6.549341 F400.000000
G03 X9.463627 Y79.874864 Z-0.125000 I0.247356 J0.546674
G03 X9.631599 Y79.923511 Z-0.125000 I0.030960 J0.207417
G03 X9.807041 Y80.164774 Z-0.125000 I-0.427271 J0.495124
G03 X9.931266 Y80.549174 Z-0.125000 I-2.264802 J0.944181
G03 X9.979370 Y81.119117 Z-0.125000 I-1.914462 J0.448584
G03 X9.861819 Y81.632472 Z-0.125000 I-1.582659 J-0.092269
G03 X9.603606 Y82.054794 Z-0.125000 I-1.464781 J-0.605489
G03 X9.347359 Y82.297033 Z-0.125000 I-1.253957 J-1.069817
G03 X9.072310 Y82.474729 Z-0.125000 I-1.296074 J-1.704424
G00 Z5.000000

(End cutting path id: path2383)


(Start cutting path id: path2380)
(Change tool to Default tool)

G00 Z5.000000
G00 X9.072932 Y85.067126

G01 Z-0.125000 F100.0(Penetrate)
G02 X9.258296 Y85.082381 Z-0.125000 I0.260656 J-2.033474 F400.000000
G02 X9.423189 Y85.080193 Z-0.125000 I0.060587 J-1.648602
G02 X9.725946 Y85.022089 Z-0.125000 I-0.071109 J-1.188338
G02 X9.979370 Y84.897288 Z-0.125000 I-0.322130 J-0.973831
G02 X10.215827 Y84.697714 Z-0.125000 I-0.803511 J-1.191871
G02 X10.415480 Y84.435047 Z-0.125000 I-1.067782 J-1.018836
G02 X10.542665 Y84.149773 Z-0.125000 I-1.109106 J-0.665465
G02 X10.609583 Y83.830341 Z-0.125000 I-1.700689 J-0.523006
G02 X10.625647 Y83.479681 Z-0.125000 I-2.614901 J-0.295485
G02 X10.605229 Y83.181464 Z-0.125000 I-3.154072 J0.066145
G02 X10.550671 Y82.902341 Z-0.125000 I-1.748294 J0.196828
G02 X10.494490 Y82.803834 Z-0.125000 I-0.225614 J0.063399
G02 X10.415454 Y82.781489 Z-0.125000 I-0.058249 J0.055081
G02 X10.243773 Y82.871023 Z-0.125000 I0.115849 J0.431507
G02 X10.039880 Y83.057420 Z-0.125000 I1.996122 J2.388199
G03 X9.762248 Y83.274784 Z-0.125000 I-1.034474 J-1.035314
G03 X9.479440 Y83.383691 Z-0.125000 I-0.439030 J-0.718416
G03 X9.231574 Y83.392363 Z-0.125000 I-0.152305 J-0.806582
G03 X9.150668 Y83.379949 Z-0.125000 I0.122633 J-1.069034
G03 X9.073554 Y83.363125 Z-0.125000 I0.304747 J-1.582013
G00 Z5.000000

(End cutting path id: path2380)


(Start cutting path id: path2377)
(Change tool to Default tool)

G00 Z5.000000
G00 X9.072932 Y87.265098

G01 Z-0.125000 F100.0(Penetrate)
G02 X10.443831 Y87.814436 Z-0.125000 I11.655329 J-27.101188 F400.000000
G02 X11.144612 Y88.037157 Z-0.125000 I2.651032 J-7.127514
G02 X11.595188 Y88.001771 Z-0.125000 I0.175182 J-0.655704
G02 X11.685862 Y87.880382 Z-0.125000 I-0.062809 J-0.141475
G02 X11.710630 Y87.576209 Z-0.125000 I-3.290775 J-0.421060
G02 X11.623649 Y87.240215 Z-0.125000 I-0.609442 J-0.021485
G02 X11.414896 Y87.040955 Z-0.125000 I-0.468904 J0.282265
G02 X10.760138 Y86.723226 Z-0.125000 I-3.972979 J7.353779
G03 X10.110451 Y86.442106 Z-0.125000 I302.932548 J-700.988585
G03 X9.072310 Y85.984143 Z-0.125000 I34.062255 J-78.620135
G00 Z5.000000

(End cutting path id: path2377)


(Start cutting path id: path2374)
(Change tool to Default tool)

G00 Z5.000000
G00 X9.072932 Y90.772647

G01 Z-0.125000 F100.0(Penetrate)
G02 X10.026277 Y90.647228 Z-0.125000 I-1.413011 J-14.426735 F400.000000
G02 X10.612694 Y90.485223 Z-0.125000 I-0.471294 J-2.848315
G02 X11.163082 Y90.114757 Z-0.125000 I-0.561922 J-1.428905
G02 X11.392218 Y89.730586 Z-0.125000 I-0.733317 J-0.697801
G02 X11.446430 Y89.245947 Z-0.125000 I-1.146484 J-0.373597
G02 X11.329383 Y88.843432 Z-0.125000 I-1.100703 J0.101795
G02 X11.073311 Y88.537343 Z-0.125000 I-0.793924 J0.404034
G02 X10.767604 Y88.393635 Z-0.125000 I-0.491979 J0.649557
G02 X10.442931 Y88.385203 Z-0.125000 I-0.182383 J0.767734
G02 X10.025407 Y88.522415 Z-0.125000 I0.291821 J1.591831
G02 X9.601910 Y88.761492 Z-0.125000 I1.833930 J3.743229
G03 X9.097817 Y89.046245 Z-0.125000 I-2.699833 J-4.190887
G03 X9.085686 Y89.052468 Z-0.125000 I-0.168972 J-0.314463
G02 X9.073555 Y89.058691 Z-0.125000 I0.156840 J0.320686
G00 Z5.000000

(End cutting path id: path2374)


(Start cutting path id: path2371)
(Change tool to Default tool)

G00 Z5.000000
G00 X9.072932 Y109.135941

G01 Z-0.125000 F100.0(Penetrate)
G02 X9.417766 Y109.178228 Z-0.125000 I0.329995 J-1.263824 F400.000000
G02 X9.744206 Y109.131595 Z-0.125000 I-0.014391 J-1.266603
G02 X10.246743 Y108.861133 Z-0.125000 I-0.354848 J-1.261435
G02 X10.544882 Y108.486449 Z-0.125000 I-0.849644 J-0.982028
G02 X10.676692 Y108.039496 Z-0.125000 I-1.031777 J-0.547191
G02 X10.680506 Y107.687641 Z-0.125000 I-2.336446 J-0.201275
G02 X10.655861 Y107.339045 Z-0.125000 I-26.865411 J1.724139
G03 X10.701035 Y107.199273 Z-0.125000 I0.192764 J-0.014886
G03 X10.821596 Y107.148093 Z-0.125000 I0.111024 J0.093943
G03 X11.224865 Y107.225406 Z-0.125000 I-0.109038 J1.659133
G03 X11.666234 Y107.396582 Z-0.125000 I-1.268331 J3.924953
G03 X12.268792 Y107.739903 Z-0.125000 I-1.590121 J3.491232
G03 X12.807855 Y108.191512 Z-0.125000 I-2.252583 J3.236329
G03 X13.143502 Y108.579153 Z-0.125000 I-2.575997 J2.569606
G03 X13.369152 Y108.975171 Z-0.125000 I-1.460492 J1.094483
G03 X13.401062 Y109.119781 Z-0.125000 I-0.391709 J0.162261
G03 X13.356285 Y109.212646 Z-0.125000 I-0.107964 J0.005170
G03 X13.236821 Y109.249803 Z-0.125000 I-0.115269 J-0.159977
G03 X13.025827 Y109.230110 Z-0.125000 I0.032493 J-1.488256
G02 X12.834927 Y109.221186 Z-0.125000 I-0.133219 J0.803495
G02 X12.764071 Y109.274082 Z-0.125000 I0.005786 J0.081656
G02 X12.768360 Y109.434577 Z-0.125000 I0.199784 J0.074967
G02 X12.889282 Y109.674425 Z-0.125000 I2.256317 J-0.987143
G03 X13.178341 Y110.230274 Z-0.125000 I-6.470858 J3.718132
G03 X13.426590 Y110.822002 Z-0.125000 I-6.964686 J3.269851
G03 X13.633115 Y111.489460 Z-0.125000 I-5.910079 J2.194380
G03 X13.755367 Y112.174465 Z-0.125000 I-4.965915 J1.239677
G03 X13.761895 Y112.547073 Z-0.125000 I-2.036865 J0.222043
G03 X13.668422 Y112.822633 Z-0.125000 I-0.578592 J-0.042632
G03 X13.590188 Y112.868090 Z-0.125000 I-0.084542 J-0.055451
G03 X13.496556 Y112.838749 Z-0.125000 I-0.008535 J-0.136833
G03 X13.271660 Y112.621106 Z-0.125000 I0.979016 J-1.236661
G02 X13.028974 Y112.336033 Z-0.125000 I-50.158391 J42.454505
G02 X12.558081 Y111.908150 Z-0.125000 I-1.936493 J1.658093
G02 X12.013725 Y111.621932 Z-0.125000 I-1.377326 J1.958763
G02 X11.269036 Y111.464573 Z-0.125000 I-0.903549 J2.435200
G02 X10.482891 Y111.524440 Z-0.125000 I-0.176277 J2.876812
G02 X9.777799 Y111.826650 Z-0.125000 I0.425944 J1.967411
G02 X9.283651 Y112.360899 Z-0.125000 I0.905570 J1.333253
G02 X9.085373 Y113.042907 Z-0.125000 I1.320311 J0.753675
G02 X9.203740 Y113.793267 Z-0.125000 I1.864606 J0.090380
G02 X9.563788 Y114.401008 Z-0.125000 I1.913930 J-0.723358
G02 X10.091434 Y114.795624 Z-0.125000 I1.144807 J-0.980666
G02 X10.570388 Y114.887511 Z-0.125000 I0.433709 J-0.966477
G02 X11.062290 Y114.745499 Z-0.125000 I-0.046314 J-1.083353
G02 X11.369198 Y114.502416 Z-0.125000 I-0.648155 J-1.133625
G02 X11.566722 Y114.198723 Z-0.125000 I-0.757113 J-0.708511
G02 X11.649155 Y113.999736 Z-0.125000 I-11.905934 J-5.048767
G03 X11.749289 Y113.851835 Z-0.125000 I0.391881 J0.157468
G03 X11.926001 Y113.793813 Z-0.125000 I0.149136 J0.156099
G03 X12.162446 Y113.866224 Z-0.125000 I-0.097513 J0.740652
G03 X12.716723 Y114.196329 Z-0.125000 I-1.958476 J3.918851
G03 X13.243312 Y114.607532 Z-0.125000 I-3.589243 J5.139176
G03 X13.865168 Y115.256432 Z-0.125000 I-3.268936 J3.755119
G03 X14.343942 Y115.996922 Z-0.125000 I-3.427840 J2.741342
G03 X14.630383 Y116.826056 Z-0.125000 I-2.783710 J1.425734
G03 X14.657713 Y117.695972 Z-0.125000 I-2.658285 J0.518902
G03 X14.391487 Y118.449184 Z-0.125000 I-1.901903 J-0.248581
G03 X13.857875 Y119.003068 Z-0.125000 I-1.515766 J-0.926304
G03 X12.954375 Y119.410989 Z-0.125000 I-1.701785 J-2.564733
G03 X11.942956 Y119.550972 Z-0.125000 I-1.063500 J-3.960197
G03 X10.546125 Y119.379882 Z-0.125000 I-0.066608 J-5.243811
G03 X9.837281 Y119.151519 Z-0.125000 I1.729902 J-6.583971
G03 X9.072931 Y118.838013 Z-0.125000 I6.478290 J-16.883045
G00 Z5.000000

(End cutting path id: path2371)


(Start cutting path id: path2368)
(Change tool to Default tool)

G00 Z5.000000
G00 X9.072932 Y149.070213

G01 Z-0.125000 F100.0(Penetrate)
G02 X9.153099 Y149.160664 Z-0.125000 I1.684446 J-1.412174 F400.000000
G02 X9.237795 Y149.246275 Z-0.125000 I1.607549 J-1.505688
G02 X9.764440 Y149.621293 Z-0.125000 I1.524884 J-1.584124
G02 X10.390595 Y149.842895 Z-0.125000 I1.153473 J-2.263801
G02 X11.054270 Y149.896905 Z-0.125000 I0.540943 J-2.542491
G02 X11.771715 Y149.743353 Z-0.125000 I-0.106338 J-2.249687
G02 X12.422822 Y149.367050 Z-0.125000 I-0.926768 J-2.355006
G02 X12.988593 Y148.760395 Z-0.125000 I-1.764509 J-2.212749
G02 X13.400759 Y147.967971 Z-0.125000 I-3.001607 J-2.064635
G03 X13.614452 Y147.449575 Z-0.125000 I7.667302 J2.857374
G03 X13.831812 Y147.194695 Z-0.125000 I0.550460 J0.249306
G03 X13.959732 Y147.221254 Z-0.125000 I0.050764 J0.076838
G03 X14.070115 Y147.472122 Z-0.125000 I-0.702729 J0.458921
G03 X14.237823 Y148.286335 Z-0.125000 I-8.505117 J2.176224
G03 X14.344938 Y149.163757 Z-0.125000 I-12.734144 J1.999825
G03 X14.332386 Y150.110408 Z-0.125000 I-4.702798 J0.411053
G03 X14.115137 Y150.960871 Z-0.125000 I-3.159102 J-0.354007
G03 X13.832197 Y151.474730 Z-0.125000 I-2.371406 J-0.970914
G03 X13.430241 Y151.894360 Z-0.125000 I-1.629213 J-1.158263
G03 X13.183941 Y152.024690 Z-0.125000 I-0.493121 J-0.634009
G03 X12.948850 Y152.017208 Z-0.125000 I-0.107108 J-0.331687
G03 X12.831196 Y151.908974 Z-0.125000 I0.081640 J-0.206810
G03 X12.770370 Y151.724504 Z-0.125000 I0.582194 J-0.294231
G02 X12.662599 Y151.463534 Z-0.125000 I-0.630454 J0.107616
G02 X12.450896 Y151.266440 Z-0.125000 I-0.575270 J0.405668
G02 X12.066603 Y151.127585 Z-0.125000 I-0.541791 J0.898241
G02 X11.659750 Y151.136585 Z-0.125000 I-0.177650 J1.169717
G02 X11.221756 Y151.307380 Z-0.125000 I0.258832 J1.310762
G02 X10.875309 Y151.612341 Z-0.125000 I0.693238 J1.136811
G02 X10.631358 Y152.071971 Z-0.125000 I1.093599 J0.874987
G02 X10.561385 Y152.593144 Z-0.125000 I1.515934 J0.468815
G02 X10.673663 Y153.206107 Z-0.125000 I2.109536 J-0.069645
G02 X10.957647 Y153.754972 Z-0.125000 I1.980866 J-0.677005
G02 X11.468118 Y154.233861 Z-0.125000 I1.489023 J-1.075709
G02 X12.121677 Y154.502765 Z-0.125000 I1.101335 J-1.748074
G02 X13.006013 Y154.562342 Z-0.125000 I0.637690 J-2.872435
G02 X13.886521 Y154.364177 Z-0.125000 I-0.275625 J-3.279955
G02 X14.728680 Y153.863696 Z-0.125000 I-0.975467 J-2.600205
G02 X15.338880 Y153.109936 Z-0.125000 I-1.812588 J-2.091235
G02 X15.696086 Y152.135429 Z-0.125000 I-2.979802 J-1.644970
G02 X15.762505 Y151.112750 Z-0.125000 I-3.771362 J-0.758429
G02 X15.602767 Y149.972297 Z-0.125000 I-8.164777 J0.562184
G02 X15.317263 Y148.835469 Z-0.125000 I-15.789238 J3.361067
G03 X15.017969 Y147.662966 Z-0.125000 I17.915058 J-5.197461
G03 X14.812689 Y146.462865 Z-0.125000 I12.617768 J-2.775906
G03 X14.726814 Y145.433887 Z-0.125000 I13.138326 J-1.614549
G03 X14.730149 Y144.403447 Z-0.125000 I10.636356 J-0.480796
G03 X14.808934 Y143.788986 Z-0.125000 I4.080732 J0.210942
G03 X15.011782 Y143.234174 Z-0.125000 I1.988840 J0.412661
G03 X15.141772 Y143.108379 Z-0.125000 I0.264540 J0.143302
G03 X15.261181 Y143.133652 Z-0.125000 I0.043545 J0.088985
G03 X15.472743 Y143.513385 Z-0.125000 I-0.880105 J0.739138
G03 X15.648003 Y144.113658 Z-0.125000 I-8.742544 J2.878262
G02 X15.926273 Y144.944895 Z-0.125000 I5.826790 J-1.488411
G02 X16.247446 Y145.609002 Z-0.125000 I6.129549 J-2.554634
G03 X16.539689 Y146.330993 Z-0.125000 I-2.812561 J1.558595
G03 X16.672699 Y147.188372 Z-0.125000 I-3.791243 J1.027161
G03 X16.649183 Y148.228477 Z-0.125000 I-7.898741 J0.341737
G03 X16.496577 Y149.274964 Z-0.125000 I-9.336929 J-0.827212
G03 X16.358651 Y149.888311 Z-0.125000 I-15.441866 J-3.150303
G02 X16.274690 Y150.359761 Z-0.125000 I3.606261 J0.885444
G02 X16.328789 Y150.606242 Z-0.125000 I0.389473 J0.043694
G02 X16.584273 Y150.899231 Z-0.125000 I0.964628 J-0.583262
G02 X16.935361 Y151.064751 Z-0.125000 I0.513972 J-0.635088
G02 X17.198571 Y151.004591 Z-0.125000 I0.065213 J-0.320556
G02 X17.448615 Y150.709515 Z-0.125000 I-0.541895 J-0.712676
G02 X17.639744 Y150.260425 Z-0.125000 I-2.575373 J-1.361270
G02 X17.803227 Y149.762640 Z-0.125000 I-211.900830 J-69.868621
G03 X17.969425 Y149.319436 Z-0.125000 I5.280351 J1.727317
G03 X18.094382 Y149.170998 Z-0.125000 I0.303818 J0.128945
G03 X18.251264 Y149.159393 Z-0.125000 I0.088994 J0.136857
G03 X18.543557 Y149.373190 Z-0.125000 I-0.374154 J0.818228
G03 X18.798768 Y149.711786 Z-0.125000 I-1.767836 J1.597952
G03 X19.140176 Y150.394098 Z-0.125000 I-3.492622 J2.174175
G03 X19.378292 Y151.141987 Z-0.125000 I-5.823082 J2.265820
G03 X19.580641 Y152.015357 Z-0.125000 I-24.545752 J6.147096
G03 X19.736447 Y152.874689 Z-0.125000 I-13.961630 J2.975177
G03 X19.739284 Y153.545789 Z-0.125000 I-2.303885 J0.345294
G03 X19.516231 Y154.174181 Z-0.125000 I-1.667995 J-0.238285
G03 X19.199900 Y154.528747 Z-0.125000 I-1.089029 J-0.653200
G03 X18.775745 Y154.722836 Z-0.125000 I-0.636099 J-0.829598
G03 X18.467036 Y154.750223 Z-0.125000 I-0.272214 J-1.314790
G03 X18.203316 Y154.691041 Z-0.125000 I0.018986 J-0.701771
G03 X18.073230 Y154.548655 Z-0.125000 I0.096086 J-0.218403
G03 X18.037927 Y154.295707 Z-0.125000 I0.675021 J-0.223147
G02 X17.982399 Y153.918441 Z-0.125000 I-1.018934 J-0.042748
G02 X17.796788 Y153.627453 Z-0.125000 I-0.699887 J0.241744
G02 X17.448615 Y153.421363 Z-0.125000 I-0.607701 J0.629511
G02 X17.022873 Y153.375035 Z-0.125000 I-0.331553 J1.067496
G02 X16.581372 Y153.499129 Z-0.125000 I0.102501 J1.212107
G02 X16.248931 Y153.763050 Z-0.125000 I0.463961 J0.925750
G02 X16.001550 Y154.179113 Z-0.125000 I1.190842 J0.989621
G02 X15.882412 Y154.665277 Z-0.125000 I1.698214 J0.673839
G02 X15.937471 Y155.256014 Z-0.125000 I1.516421 J0.156599
G02 X16.209478 Y155.790475 Z-0.125000 I1.588069 J-0.471780
G02 X16.745613 Y156.273811 Z-0.125000 I1.563953 J-1.195775
G02 X17.414296 Y156.539194 Z-0.125000 I1.100559 J-1.797944
G02 X18.246803 Y156.570565 Z-0.125000 I0.508369 J-2.428782
G02 X19.043501 Y156.333607 Z-0.125000 I-0.350167 J-2.635127
G02 X19.830114 Y155.794773 Z-0.125000 I-1.336430 J-2.794561
G02 X20.418587 Y155.051495 Z-0.125000 I-2.221165 J-2.363152
G02 X20.825516 Y154.006161 Z-0.125000 I-3.214076 J-1.853049
G02 X20.942937 Y152.848530 Z-0.125000 I-4.841241 J-1.075830
G02 X20.862221 Y151.587336 Z-0.125000 I-13.329280 J0.219889
G02 X20.673371 Y150.352868 Z-0.125000 I-15.335821 J1.714415
G02 X20.436065 Y149.408028 Z-0.125000 I-8.892807 J1.731294
G02 X20.111250 Y148.561901 Z-0.125000 I-6.498080 J2.009105
G02 X19.750482 Y147.830315 Z-0.125000 I-14.853430 J6.869943
G02 X19.343658 Y147.055214 Z-0.125000 I-1398.468279 J733.513043
G03 X18.928653 Y146.204080 Z-0.125000 I13.998679 J-7.352369
G03 X18.599484 Y145.356840 Z-0.125000 I7.798058 J-3.517266
G03 X18.381182 Y144.378760 Z-0.125000 I4.874007 J-1.601250
G03 X18.336049 Y143.198922 Z-0.125000 I7.013712 J-0.859084
G03 X18.414777 Y142.531045 Z-0.125000 I4.674003 J0.212387
G03 X18.612169 Y142.271136 Z-0.125000 I0.359790 J0.068337
G03 X18.841556 Y142.259799 Z-0.125000 I0.127733 J0.258181
G03 X19.223249 Y142.421612 Z-0.125000 I-1.901648 J5.016794
G03 X19.909124 Y142.811004 Z-0.125000 I-2.189170 J4.654749
G03 X20.542375 Y143.303325 Z-0.125000 I-3.274899 J4.865783
G03 X21.104228 Y143.894125 Z-0.125000 I-3.347424 J3.745974
G03 X21.524807 Y144.534689 Z-0.125000 I-3.020062 J2.441250
G03 X21.767415 Y145.096073 Z-0.125000 I-3.652693 J1.911665
G03 X21.937490 Y145.737673 Z-0.125000 I-4.024199 J1.410079
G03 X21.937255 Y146.042327 Z-0.125000 I-0.827898 J0.151688
G03 X21.806196 Y146.204821 Z-0.125000 I-0.214550 J-0.038945
G03 X21.568334 Y146.273758 Z-0.125000 I-0.428659 J-1.034231
G02 X21.268516 Y146.349967 Z-0.125000 I0.339804 J1.964705
G02 X20.954918 Y146.573622 Z-0.125000 I0.213940 J0.631660
G02 X20.799040 Y146.930361 Z-0.125000 I0.637070 J0.490795
G02 X20.803741 Y147.498724 Z-0.125000 I1.602649 J0.270943
G02 X20.998484 Y148.017478 Z-0.125000 I1.533541 J-0.279768
G02 X21.460707 Y148.431911 Z-0.125000 I0.896146 J-0.534504
G02 X22.123038 Y148.565202 Z-0.125000 I0.616183 J-1.349626
G02 X22.942611 Y148.414498 Z-0.125000 I-0.086303 J-2.773235
G02 X23.609354 Y148.045236 Z-0.125000 I-0.722077 J-2.090360
G02 X24.087945 Y147.467623 Z-0.125000 I-1.186013 J-1.469768
G02 X24.331026 Y146.726583 Z-0.125000 I-1.973686 J-1.057811
G02 X24.316887 Y145.806545 Z-0.125000 I-2.907317 J-0.415449
G02 X24.033135 Y144.913839 Z-0.125000 I-3.425955 J0.597512
G02 X23.544829 Y144.100054 Z-0.125000 I-4.399535 J2.086519
G02 X22.944239 Y143.391361 Z-0.125000 I-5.747635 J4.262058
G03 X22.467929 Y142.781148 Z-0.125000 I2.651431 J-2.560615
G03 X22.165562 Y142.097900 Z-0.125000 I2.274480 J-1.415085
G03 X21.969606 Y141.307330 Z-0.125000 I11.610198 J-3.297355
G02 X21.783384 Y140.452665 Z-0.125000 I-69.298439 J14.651714
G02 X21.551537 Y139.689180 Z-0.125000 I-5.257518 J1.179604
G02 X21.216074 Y139.040276 Z-0.125000 I-3.186667 J1.236240
G02 X20.824271 Y138.526428 Z-0.125000 I-4.010326 J2.651526
G02 X20.381225 Y138.030072 Z-0.125000 I-22.669228 J19.788616
G03 X19.937742 Y137.412821 Z-0.125000 I2.409847 J-2.199374
G03 X19.632160 Y136.684407 Z-0.125000 I3.239679 J-1.787406
G03 X19.410801 Y135.816445 Z-0.125000 I10.583203 J-3.161271
G03 X19.234742 Y134.979883 Z-0.125000 I242.924414 J-51.561500
G02 X18.963493 Y134.121774 Z-0.125000 I-4.392323 J0.916495
G02 X18.497836 Y133.275050 Z-0.125000 I-4.578473 J1.966526
G02 X17.935118 Y132.549661 Z-0.125000 I-6.333564 J4.332287
G02 X17.389442 Y131.964045 Z-0.125000 I-9.878723 J8.657945
G03 X16.791650 Y131.253152 Z-0.125000 I4.058518 J-4.019605
G03 X16.216655 Y130.310862 Z-0.125000 I6.441812 J-4.577442
G03 X15.747723 Y129.196401 Z-0.125000 I6.741356 J-3.492450
G03 X15.544317 Y128.150337 Z-0.125000 I4.010177 J-1.322580
G03 X15.638851 Y127.305760 Z-0.125000 I2.408149 J-0.158035
G03 X16.042657 Y126.508900 Z-0.125000 I2.396812 J0.713834
G03 X16.748101 Y125.912198 Z-0.125000 I1.686200 J1.278136
G03 X17.667248 Y125.635424 Z-0.125000 I1.179361 J2.251979
G03 X18.624434 Y125.616068 Z-0.125000 I0.595891 J5.790847
G03 X19.504268 Y125.757929 Z-0.125000 I-0.283312 J4.556460
G03 X20.134334 Y126.049067 Z-0.125000 I-0.507185 J1.924968
G03 X20.640520 Y126.520415 Z-0.125000 I-1.390290 J2.000523
G02 X21.248561 Y127.234838 Z-0.125000 I13.758379 J-11.093720
G02 X21.967110 Y127.955977 Z-0.125000 I7.306460 J-6.561662
G02 X22.861112 Y128.657018 Z-0.125000 I5.422390 J-5.994341
G02 X23.777896 Y129.164131 Z-0.125000 I3.293650 J-4.872154
G02 X24.810855 Y129.510576 Z-0.125000 I2.384608 J-5.396788
G02 X25.955867 Y129.678126 Z-0.125000 I1.546085 J-6.569511
G02 X27.161248 Y129.587098 Z-0.125000 I0.267190 J-4.488148
G02 X28.302294 Y129.167950 Z-0.125000 I-0.905420 J-4.227535
G02 X29.134009 Y128.610358 Z-0.125000 I-2.434343 J-4.530210
G02 X29.758296 Y127.929746 Z-0.125000 I-2.094968 J-2.548213
G02 X30.009962 Y127.300785 Z-0.125000 I-1.272621 J-0.874044
G02 X29.976084 Y126.547063 Z-0.125000 I-1.823888 J-0.295643
G02 X29.706988 Y125.952637 Z-0.125000 I-1.819818 J0.465707
G02 X29.273343 Y125.572819 Z-0.125000 I-0.961412 J0.660201
G02 X28.804283 Y125.468623 Z-0.125000 I-0.437705 J0.862543
G02 X28.277244 Y125.594526 Z-0.125000 I0.046619 J1.361224
G02 X27.867361 Y125.883580 Z-0.125000 I0.591701 J1.274174
G02 X27.632499 Y126.273815 Z-0.125000 I0.696315 J0.684869
G02 X27.594869 Y126.643819 Z-0.125000 I0.870544 J0.275450
G02 X27.703547 Y127.046078 Z-0.125000 I1.316798 J-0.139946
G03 X27.787107 Y127.300785 Z-0.125000 I-1.168328 J0.524345
G03 X27.747665 Y127.465270 Z-0.125000 I-0.191075 J0.041155
G03 X27.487864 Y127.657883 Z-0.125000 I-0.507059 J-0.412415
G03 X27.043082 Y127.807729 Z-0.125000 I-1.409821 J-3.449683
G03 X26.190109 Y127.972680 Z-0.125000 I-1.587528 J-5.921369
G03 X25.338863 Y128.015774 Z-0.125000 I-0.735648 J-6.102385
G03 X24.550184 Y127.930375 Z-0.125000 I0.083877 J-4.459101
G03 X23.833400 Y127.702836 Z-0.125000 I0.676338 J-3.373345
G03 X23.317753 Y127.427076 Z-0.125000 I1.597158 J-3.606539
G03 X22.835693 Y127.073441 Z-0.125000 I2.287711 J-3.623877
G03 X22.530141 Y126.766377 Z-0.125000 I1.646210 J-1.943664
G03 X22.287027 Y126.398077 Z-0.125000 I1.439603 J-1.214670
G03 X22.237742 Y126.217040 Z-0.125000 I0.421367 J-0.211938
G03 X22.296156 Y126.138366 Z-0.125000 I0.075957 J-0.004626
G03 X22.548805 Y126.163536 Z-0.125000 I0.089811 J0.379092
G03 X22.919335 Y126.358115 Z-0.125000 I-1.637232 J3.567823
G02 X23.612641 Y126.689855 Z-0.125000 I2.172626 J-3.650233
G02 X24.315139 Y126.865695 Z-0.125000 I1.147398 J-3.092778
G02 X25.033576 Y126.858452 Z-0.125000 I0.334481 J-2.457383
G02 X25.715093 Y126.643149 Z-0.125000 I-0.362711 J-2.334400
G02 X26.264764 Y126.286718 Z-0.125000 I-1.235769 J-2.507799
G02 X26.679138 Y125.820532 Z-0.125000 I-1.319997 J-1.590547
G02 X26.866360 Y125.271409 Z-0.125000 I-0.997211 J-0.646473
G02 X26.790340 Y124.618239 Z-0.125000 I-1.654221 J-0.138481
G02 X26.510504 Y124.057639 Z-0.125000 I-2.023371 J0.659870
G02 X26.119121 Y123.699894 Z-0.125000 I-0.992378 J0.692722
G02 X25.673744 Y123.553097 Z-0.125000 I-0.582409 J1.017981
G02 X25.138084 Y123.571203 Z-0.125000 I-0.208291 J1.770481
G02 X24.667144 Y123.773329 Z-0.125000 I0.214919 J1.150437
G02 X24.345131 Y124.160048 Z-0.125000 I0.595360 J0.823170
G02 X24.231656 Y124.541656 Z-0.125000 I1.164087 J0.553828
G02 X24.240812 Y124.924737 Z-0.125000 I1.171387 J0.163651
G03 X24.244720 Y125.096592 Z-0.125000 I-0.517714 J0.097744
G03 X24.168899 Y125.200050 Z-0.125000 I-0.135843 J-0.020043
G03 X23.934901 Y125.260211 Z-0.125000 I-0.264829 J-0.544914
G03 X23.631946 Y125.248410 Z-0.125000 I-0.086013 J-1.686574
G03 X23.162221 Y125.096592 Z-0.125000 I0.173497 J-1.339376
G03 X22.774010 Y124.797727 Z-0.125000 I0.733878 J-1.354834
G03 X22.421891 Y124.298403 Z-0.125000 I1.584767 J-1.491383
G03 X22.217423 Y123.725043 Z-0.125000 I2.088917 J-1.068073
G03 X22.158731 Y123.098945 Z-0.125000 I2.589144 J-0.558512
G03 X22.266892 Y122.506588 Z-0.125000 I1.986478 J0.056667
G03 X22.606662 Y121.996537 Z-0.125000 I1.148405 J0.396814
G03 X23.196199 Y121.654986 Z-0.125000 I1.124023 J1.260565
G03 X23.906905 Y121.556072 Z-0.125000 I0.621522 J1.863006
G03 X24.529237 Y121.710957 Z-0.125000 I-0.071187 J1.613743
G03 X25.136849 Y122.046930 Z-0.125000 I-2.431551 J5.114921
G02 X25.763631 Y122.436428 Z-0.125000 I16.818672 J-26.365642
G02 X26.448913 Y122.715715 Z-0.125000 I1.223476 J-2.021647
G02 X27.181860 Y122.748238 Z-0.125000 I0.452712 J-1.927212
G02 X27.846208 Y122.534054 Z-0.125000 I-0.292288 J-2.044023
G02 X28.384228 Y122.109846 Z-0.125000 I-0.858483 J-1.642094
G02 X28.681102 Y121.572870 Z-0.125000 I-1.098106 J-0.957655
G02 X28.733826 Y120.953761 Z-0.125000 I-1.440834 J-0.434504
G02 X28.558544 Y120.351635 Z-0.125000 I-1.949644 J0.240977
G02 X28.201110 Y119.840940 Z-0.125000 I-1.680486 J0.795734
G02 X27.742313 Y119.554693 Z-0.125000 I-0.830076 J0.819646
G02 X27.197152 Y119.505767 Z-0.125000 I-0.374543 J1.111659
G02 X26.663546 Y119.671652 Z-0.125000 I0.262493 J1.785545
G02 X26.205577 Y119.993512 Z-0.125000 I0.795845 J1.619144
G02 X25.956811 Y120.348525 Z-0.125000 I0.792531 J0.820008
G02 X25.862772 Y120.791177 Z-0.125000 I0.992545 J0.442176
G03 X25.849805 Y121.032242 Z-0.125000 I-2.229210 J0.000976
G03 X25.774302 Y121.161801 Z-0.125000 I-0.182906 J-0.019814
G03 X25.652591 Y121.193995 Z-0.125000 I-0.103008 J-0.143260
G03 X25.476565 Y121.148371 Z-0.125000 I0.065073 J-0.613440
G03 X25.201550 Y120.921504 Z-0.125000 I0.245105 J-0.577248
G03 X25.046008 Y120.564946 Z-0.125000 I0.897493 J-0.603719
G03 X24.997493 Y119.972140 Z-0.125000 I1.951881 J-0.458133
G03 X25.118526 Y119.432441 Z-0.125000 I1.825002 J0.125857
G03 X25.478396 Y118.827427 Z-0.125000 I2.005352 J0.783273
G03 X26.025316 Y118.331572 Z-0.125000 I2.119455 J1.788176
G03 X26.845207 Y117.932810 Z-0.125000 I1.726628 J2.507842
G03 X27.743382 Y117.790063 Z-0.125000 I0.936295 J2.994158
G03 X28.677368 Y117.922848 Z-0.125000 I0.037516 J3.087244
G03 X29.550166 Y118.302986 Z-0.125000 I-1.188481 J3.920801
G02 X30.340311 Y118.678108 Z-0.125000 I2.623670 J-4.506681
G02 X31.159231 Y118.850302 Z-0.125000 I0.971412 J-2.586445
G02 X31.919889 Y118.768939 Z-0.125000 I0.131066 J-2.371028
G02 X32.645787 Y118.439638 Z-0.125000 I-0.661745 J-2.423441
G02 X33.165387 Y117.922224 Z-0.125000 I-1.029105 J-1.553059
G02 X33.439058 Y117.240228 Z-0.125000 I-1.471886 J-0.986545
G02 X33.459652 Y116.598963 Z-0.125000 I-2.254631 J-0.393368
G02 X33.294355 Y115.966692 Z-0.125000 I-2.193492 J0.235710
G02 X33.134280 Y115.676971 Z-0.125000 I-1.518057 J0.649663
G02 X32.967039 Y115.566400 Z-0.125000 I-0.221460 J0.153199
G02 X32.836282 Y115.615382 Z-0.125000 I-0.026415 J0.128505
G02 X32.697620 Y115.840263 Z-0.125000 I1.132531 J0.853512
G03 X32.432521 Y116.235642 Z-0.125000 I-1.628434 J-0.805293
G03 X32.093688 Y116.520709 Z-0.125000 I-1.118055 J-0.985021
G03 X31.680994 Y116.700992 Z-0.125000 I-0.853298 J-1.390826
G03 X31.231892 Y116.765764 Z-0.125000 I-0.470859 J-1.675412
G03 X30.849833 Y116.740808 Z-0.125000 I-0.030821 J-2.465144
G03 X30.485694 Y116.650999 Z-0.125000 I0.261156 J-1.842012
G03 X30.328492 Y116.540484 Z-0.125000 I0.121081 J-0.339292
G03 X30.301045 Y116.399989 Z-0.125000 I0.117514 J-0.095886
G03 X30.492110 Y116.094418 Z-0.125000 I0.669259 J0.205949
G03 X30.860650 Y115.789479 Z-0.125000 I2.640159 J2.815651
G02 X31.508663 Y115.252060 Z-0.125000 I-3.926335 J-5.393720
G02 X32.023542 Y114.661087 Z-0.125000 I-2.781316 J-2.942967
G02 X32.432521 Y113.818682 Z-0.125000 I-2.282219 J-1.628472
G02 X32.581568 Y112.816141 Z-0.125000 I-3.597787 J-1.047230
G02 X32.500957 Y111.808591 Z-0.125000 I-5.514814 J-0.065776
G02 X32.235318 Y110.882689 Z-0.125000 I-4.450156 J0.775681
G02 X31.997035 Y110.404453 Z-0.125000 I-3.257908 J1.324789
G02 X31.694427 Y110.032264 Z-0.125000 I-1.417958 J0.843755
G02 X31.591408 Y110.014380 Z-0.125000 I-0.065448 J0.071350
G02 X31.525376 Y110.101541 Z-0.125000 I0.042410 J0.100722
G02 X31.519862 Y110.589224 Z-0.125000 I2.143941 J0.268114
G02 X31.578846 Y111.136075 Z-0.125000 I36.879107 J-3.701253
G03 X31.550348 Y111.955414 Z-0.125000 I-2.731575 J0.315154
G03 X31.274917 Y112.742761 Z-0.125000 I-2.686028 J-0.497780
G03 X30.833035 Y113.313515 Z-0.125000 I-1.893181 J-1.009284
G03 X30.263287 Y113.637235 Z-0.125000 I-0.985046 J-1.070445
G03 X29.772311 Y113.714787 Z-0.125000 I-0.535641 J-1.798155
G03 X29.252333 Y113.659152 Z-0.125000 I-0.044878 J-2.038290
G03 X28.992788 Y113.525659 Z-0.125000 I0.143147 J-0.597373
G03 X28.899116 Y113.324335 Z-0.125000 I0.178518 J-0.205515
G03 X28.977237 Y112.823902 Z-0.125000 I1.494502 J-0.023009
G03 X29.208807 Y112.219673 Z-0.125000 I7.500872 J2.528212
G03 X29.660952 Y111.183356 Z-0.125000 I114.528618 J49.351930
G02 X30.083835 Y110.174994 Z-0.125000 I-26.547936 J-11.726443
G02 X30.410616 Y109.045108 Z-0.125000 I-5.659063 J-2.248886
G02 X30.497441 Y107.899403 Z-0.125000 I-5.183275 J-0.968948
G02 X30.340314 Y106.646811 Z-0.125000 I-6.922072 J0.232163
G02 X29.959478 Y105.389195 Z-0.125000 I-8.236040 J1.807599
G02 X29.403393 Y104.262824 Z-0.125000 I-6.768896 J2.641323
G02 X28.654040 Y103.300496 Z-0.125000 I-4.525113 J2.750731
G02 X27.917755 Y102.796473 Z-0.125000 I-1.654300 J1.626828
G02 X27.042033 Y102.646361 Z-0.125000 I-0.748565 J1.737529
G02 X26.326357 Y102.851842 Z-0.125000 I0.118734 J1.762609
G02 X25.760339 Y103.345187 Z-0.125000 I0.797382 J1.486212
G02 X25.501418 Y103.914434 Z-0.125000 I1.256527 J0.915039
G02 X25.508044 Y104.527864 Z-0.125000 I1.291855 J0.292795
G02 X25.743425 Y104.960850 Z-0.125000 I0.953517 J-0.237881
G02 X26.173000 Y105.229449 Z-0.125000 I0.715643 J-0.666727
G02 X26.616267 Y105.270670 Z-0.125000 I0.321218 J-1.050254
G02 X27.013762 Y105.128336 Z-0.125000 I-0.101830 J-0.910584
G02 X27.283809 Y104.879973 Z-0.125000 I-0.600518 J-0.923942
G02 X27.493077 Y104.559490 Z-0.125000 I-1.821116 J-1.417716
G03 X27.685702 Y104.421466 Z-0.125000 I0.237872 J0.128548
G03 X27.926088 Y104.473775 Z-0.125000 I0.054372 J0.328640
G03 X28.353865 Y104.860065 Z-0.125000 I-1.137142 J1.689271
G03 X28.669654 Y105.328951 Z-0.125000 I-2.141644 J1.783157
G03 X28.961684 Y106.055169 Z-0.125000 I-3.179013 J1.700182
G03 X29.099697 Y106.841986 Z-0.125000 I-3.855284 J1.081754
G03 X29.050646 Y107.745485 Z-0.125000 I-3.535622 J0.261134
G03 X28.751149 Y108.668428 Z-0.125000 I-3.697748 J-0.689863
G03 X28.414833 Y109.149626 Z-0.125000 I-1.596533 J-0.757712
G03 X28.034380 Y109.290477 Z-0.125000 I-0.340073 J-0.334324
G03 X27.767201 Y109.141526 Z-0.125000 I0.031493 J-0.370591
G03 X27.575890 Y108.771397 Z-0.125000 I1.050988 J-0.777735
G02 X27.311804 Y108.164165 Z-0.125000 I-3.380681 J1.109222
G02 X26.923955 Y107.636534 Z-0.125000 I-2.193732 J1.206197
G02 X26.371772 Y107.268304 Z-0.125000 I-1.108755 J1.064516
G02 X25.720881 Y107.170374 Z-0.125000 I-0.541350 J1.386042
G02 X25.051620 Y107.344826 Z-0.125000 I0.141181 J1.912610
G02 X24.491672 Y107.744558 Z-0.125000 I0.795888 J1.706944
G02 X24.165091 Y108.274282 Z-0.125000 I1.051512 J1.013802
G02 X24.094158 Y108.896893 Z-0.125000 I1.319874 J0.465716
G02 X24.272096 Y109.437659 Z-0.125000 I1.385769 J-0.156327
G02 X24.654620 Y109.850976 Z-0.125000 I1.101382 J-0.635655
G02 X25.087704 Y110.026188 Z-0.125000 I0.615131 J-0.897610
G02 X25.559666 Y109.996187 Z-0.125000 I0.172462 J-1.014231
G02 X25.876559 Y109.837686 Z-0.125000 I-0.307740 J-1.011311
G02 X26.113888 Y109.594669 Z-0.125000 I-0.610729 J-0.833826
G03 X26.246102 Y109.474986 Z-0.125000 I0.325630 J0.226854
G03 X26.395661 Y109.464240 Z-0.125000 I0.086344 J0.155601
G03 X26.652351 Y109.639228 Z-0.125000 I-0.236795 J0.623121
G03 X26.871878 Y109.936551 Z-0.125000 I-1.352931 J1.228633
G03 X27.143208 Y110.482208 Z-0.125000 I-3.581617 J2.121262
G03 X27.322954 Y111.028058 Z-0.125000 I-3.718379 J1.526966
G03 X27.446184 Y111.784941 Z-0.125000 I-4.370892 J1.100107
G03 X27.451206 Y112.592516 Z-0.125000 I-5.652456 J0.438960
G03 X27.309316 Y113.516318 Z-0.125000 I-5.346043 J-0.348324
G03 X27.013582 Y114.379625 Z-0.125000 I-4.915782 J-1.201638
G03 X26.602581 Y115.135088 Z-0.125000 I-5.042233 J-2.253642
G03 X26.077875 Y115.819643 Z-0.125000 I-4.654016 J-3.023891
G03 X25.563008 Y116.320238 Z-0.125000 I-3.948934 J-3.546454
G03 X24.952953 Y116.756023 Z-0.125000 I-2.944654 J-3.477316
G03 X24.627330 Y116.877663 Z-0.125000 I-0.496258 J-0.831795
G03 X24.409863 Y116.798919 Z-0.125000 I-0.040684 J-0.227306
G03 X24.320622 Y116.565356 Z-0.125000 I0.292030 J-0.245411
G03 X24.346735 Y116.225839 Z-0.125000 I1.623935 J-0.045866
G02 X24.434471 Y115.695623 Z-0.125000 I-14.876672 J-2.734066
G02 X24.488929 Y115.169413 Z-0.125000 I-6.376978 J-0.925883
G02 X24.474910 Y114.611882 Z-0.125000 I-3.195586 J-0.198585
G02 X24.360536 Y114.024509 Z-0.125000 I-3.637554 J0.403483
G03 X24.282672 Y113.688024 Z-0.125000 I3.556761 J-1.000300
G03 X24.304290 Y113.468583 Z-0.125000 I0.394054 J-0.071967
G03 X24.367904 Y113.433573 Z-0.125000 I0.052989 J0.020982
G03 X24.493236 Y113.488278 Z-0.125000 I-0.057367 J0.302352
G03 X24.685188 Y113.681801 Z-0.125000 I-0.527928 J0.715600
G03 X24.812262 Y113.910301 Z-0.125000 I-0.861677 J0.628784
G03 X24.905421 Y114.181369 Z-0.125000 I-2.477538 J1.003003
G03 X24.984458 Y114.485495 Z-0.125000 I-7.598809 J2.137139
G02 X25.049754 Y114.555268 Z-0.125000 I0.093875 J-0.022412
G02 X25.123798 Y114.528435 Z-0.125000 I0.019305 J-0.062307
G02 X25.256922 Y114.209986 Z-0.125000 I-0.813225 J-0.527009
G02 X25.295101 Y113.868549 Z-0.125000 I-1.561290 J-0.347432
G02 X25.245723 Y113.271199 Z-0.125000 I-3.480150 J-0.013046
G02 X25.099081 Y112.657639 Z-0.125000 I-4.721246 J0.804085
G02 X24.810857 Y111.965357 Z-0.125000 I-3.815539 J1.182415
G02 X24.404266 Y111.381248 Z-0.125000 I-2.633889 J1.399850
G02 X23.852783 Y110.945691 Z-0.125000 I-1.510111 J1.345127
G02 X23.162481 Y110.708877 Z-0.125000 I-1.060689 J1.967361
G02 X22.413806 Y110.691866 Z-0.125000 I-0.433094 J2.577349
G02 X21.716651 Y110.897581 Z-0.125000 I0.266904 J2.188681
G02 X21.229900 Y111.292838 Z-0.125000 I0.602536 J1.239353
G02 X20.964432 Y111.877140 Z-0.125000 I1.093168 J0.849118
G02 X20.969851 Y112.505985 Z-0.125000 I1.544956 J0.301133
G02 X21.230359 Y113.075475 Z-0.125000 I1.407851 J-0.299681
G02 X21.627438 Y113.364519 Z-0.125000 I0.677147 J-0.512974
G02 X22.145406 Y113.391785 Z-0.125000 I0.305691 J-0.873655
G03 X22.570581 Y113.299816 Z-0.125000 I2.714772 J11.521766
G03 X22.907603 Y113.297720 Z-0.125000 I0.174006 J0.882630
G03 X23.127384 Y113.419264 Z-0.125000 I-0.071700 J0.389133
G03 X23.292079 Y113.678766 Z-0.125000 I-0.660581 J0.601256
G03 X23.450890 Y114.236738 Z-0.125000 I-2.329066 J0.964488
G03 X23.493995 Y114.812595 Z-0.125000 I-3.341684 J0.539684
G03 X23.420405 Y115.652697 Z-0.125000 I-5.503550 J-0.058817
G03 X23.217397 Y116.497760 Z-0.125000 I-5.910307 J-0.972913
G03 X22.808234 Y117.372255 Z-0.125000 I-3.568592 J-1.136722
G03 X22.188608 Y118.094065 Z-0.125000 I-2.810667 J-1.785910
G03 X21.450132 Y118.563625 Z-0.125000 I-1.904592 J-2.179869
G03 X20.615214 Y118.770979 Z-0.125000 I-1.017123 J-2.310887
G03 X19.863711 Y118.688051 Z-0.125000 I-0.150617 J-2.081658
G03 X19.209401 Y118.351024 Z-0.125000 I0.582113 J-1.933779
G03 X18.601417 Y117.755484 Z-0.125000 I2.247844 J-2.902932
G03 X18.126702 Y117.019727 Z-0.125000 I3.250841 J-2.618485
G03 X17.834958 Y116.045260 Z-0.125000 I2.577635 J-1.302620
G03 X17.876589 Y115.015507 Z-0.125000 I3.353745 J-0.380132
G03 X18.228141 Y113.809338 Z-0.125000 I6.863927 J1.346257
G03 X18.767274 Y112.633874 Z-0.125000 I10.662155 J4.178884
G02 X19.257138 Y111.620699 Z-0.125000 I-13.756466 J-7.276177
G02 X19.601558 Y110.631836 Z-0.125000 I-6.134253 J-2.690965
G02 X19.729332 Y109.875634 Z-0.125000 I-4.147965 J-1.089769
G02 X19.719430 Y109.058991 Z-0.125000 I-4.652605 J-0.351970
G02 X19.630414 Y108.501979 Z-0.125000 I-4.782288 J0.478643
G02 X19.466546 Y107.988362 Z-0.125000 I-2.928229 J0.651290
G02 X19.368498 Y107.856836 Z-0.125000 I-0.315704 J0.133038
G02 X19.249218 Y107.848675 Z-0.125000 I-0.065364 J0.079571
G02 X19.111560 Y107.966330 Z-0.125000 I0.304822 J0.496005
G02 X18.955024 Y108.155179 Z-0.125000 I5.179984 J4.452973
G03 X18.832848 Y108.251264 Z-0.125000 I-0.266077 J-0.212607
G03 X18.747802 Y108.234560 Z-0.125000 I-0.031150 J-0.066258
G03 X18.647454 Y108.042228 Z-0.125000 I0.307639 J-0.282851
G03 X18.598805 Y107.758685 Z-0.125000 I3.059944 J-0.670964
G02 X18.481969 Y107.120239 Z-0.125000 I-5.652002 J0.704404
G02 X18.287538 Y106.472144 Z-0.125000 I-5.962869 J1.435668
G02 X17.932632 Y105.688105 Z-0.125000 I-5.166238 J1.866228
G02 X17.460680 Y104.983698 Z-0.125000 I-4.261810 J2.345097
G02 X16.948428 Y104.479314 Z-0.125000 I-2.428601 J1.954169
G02 X16.363270 Y104.154707 Z-0.125000 I-1.327083 J1.702563
G02 X15.759545 Y104.033250 Z-0.125000 I-0.697466 J1.905695
G02 X15.100036 Y104.089734 Z-0.125000 I-0.114038 J2.546950
G02 X14.481698 Y104.331248 Z-0.125000 I0.454913 J2.077000
G02 X14.011316 Y104.745945 Z-0.125000 I0.823195 J1.407857
G02 X13.760654 Y105.326028 Z-0.125000 I1.025470 J0.787317
G02 X13.789212 Y106.026751 Z-0.125000 I1.711576 J0.281189
G02 X14.081049 Y106.620672 Z-0.125000 I1.522770 J-0.379588
G02 X14.569867 Y106.977536 Z-0.125000 I0.883658 J-0.697187
G02 X15.055298 Y107.048693 Z-0.125000 I0.407326 J-1.087381
G02 X15.531717 Y106.907305 Z-0.125000 I-0.076113 J-1.129827
G02 X15.825490 Y106.652399 Z-0.125000 I-0.466239 J-0.834068
G02 X15.999265 Y106.295134 Z-0.125000 I-0.799295 J-0.609673
G03 X16.086783 Y106.037118 Z-0.125000 I1.802524 J0.467562
G03 X16.226449 Y105.868064 Z-0.125000 I0.350025 J0.146957
G03 X16.421487 Y105.832436 Z-0.125000 I0.138886 J0.208640
G03 X16.647730 Y105.934557 Z-0.125000 I-0.141343 J0.614809
G03 X17.022461 Y106.283478 Z-0.125000 I-1.171185 J1.633505
G03 X17.307567 Y106.706847 Z-0.125000 I-1.958221 J1.626394
G03 X17.568066 Y107.378422 Z-0.125000 I-2.603587 J1.396221
G03 X17.675204 Y108.087720 Z-0.125000 I-3.557558 J0.900106
G03 X17.672583 Y109.028922 Z-0.125000 I-8.579521 J0.446706
G03 X17.573146 Y109.974552 Z-0.125000 I-10.064028 J-0.580231
G03 X17.329169 Y111.026567 Z-0.125000 I-7.035568 J-1.077345
G03 X16.898573 Y112.108040 Z-0.125000 I-7.402379 J-2.320853
G03 X16.513562 Y112.746125 Z-0.125000 I-3.772134 J-1.840853
G03 X16.075437 Y113.122175 Z-0.125000 I-1.027198 J-0.753509
G03 X15.860952 Y113.160461 Z-0.125000 I-0.168248 J-0.322618
G03 X15.671042 Y113.063966 Z-0.125000 I0.041615 J-0.317029
G03 X15.459680 Y112.672713 Z-0.125000 I0.612923 J-0.583829
G03 X15.372151 Y112.098608 Z-0.125000 I3.699384 J-0.857740
G02 X15.243802 Y111.146018 Z-0.125000 I-8.104277 J0.607001
G02 X15.009340 Y110.284916 Z-0.125000 I-6.042318 J1.182745
G02 X14.644695 Y109.415262 Z-0.125000 I-7.587061 J2.669968
G02 X14.182294 Y108.588619 Z-0.125000 I-7.771832 J3.804702
G02 X13.610722 Y107.794623 Z-0.125000 I-6.987665 J4.427470
G02 X12.938585 Y107.064340 Z-0.125000 I-6.142698 J4.979148
G02 X12.233957 Y106.487536 Z-0.125000 I-4.039399 J4.215778
G02 X11.476607 Y106.076314 Z-0.125000 I-2.242254 J3.226549
G02 X10.628249 Y105.873497 Z-0.125000 I-1.082318 J2.651499
G02 X9.829070 Y105.902194 Z-0.125000 I-0.277538 J3.413384
G02 X9.076045 Y106.145367 Z-0.125000 I0.379589 J2.462977
G00 Z5.000000

(End cutting path id: path2368)


(Start cutting path id: path2365)
(Change tool to Default tool)

G00 Z5.000000
G00 X9.072932 Y110.324824

G01 Z-0.125000 F100.0(Penetrate)
G03 X9.129404 Y110.596071 Z-0.125000 I-0.623195 J0.271247 F400.000000
G03 X9.072932 Y110.867318 Z-0.125000 I-0.679666 J-0.000000
G00 Z5.000000

(End cutting path id: path2365)


(Start cutting path id: path2362)
(Change tool to Default tool)

G00 Z5.000000
G00 X9.072932 Y121.783764

G01 Z-0.125000 F100.0(Penetrate)
G02 X9.411469 Y121.798274 Z-0.125000 I0.934755 J-17.851639 F400.000000
G02 X9.734874 Y121.805551 Z-0.125000 I0.496651 J-14.882542
G02 X11.016664 Y121.768932 Z-0.125000 I0.205108 J-15.272387
G02 X11.942178 Y121.645040 Z-0.125000 I-0.526752 J-7.453884
G02 X12.837526 Y121.395302 Z-0.125000 I-1.187279 J-5.986429
G03 X13.187052 Y121.297895 Z-0.125000 I0.810549 J2.232694
G03 X13.351961 Y121.364097 Z-0.125000 I0.031554 J0.159896
G03 X13.353782 Y121.518128 Z-0.125000 I-0.111508 J0.078344
G03 X13.131366 Y121.772802 Z-0.125000 I-1.079910 J-0.718662
G03 X12.605364 Y122.142121 Z-0.125000 I-1.934031 J-2.195305
G03 X12.048387 Y122.375065 Z-0.125000 I-1.373488 J-2.501711
G03 X11.420214 Y122.495489 Z-0.125000 I-0.909722 J-3.046836
G03 X10.721252 Y122.502076 Z-0.125000 I-0.391037 J-4.405781
G02 X10.359489 Y122.520381 Z-0.125000 I-0.105126 J1.506387
G02 X10.268082 Y122.637495 Z-0.125000 I0.018774 J0.108881
G02 X10.400549 Y122.873748 Z-0.125000 I0.319489 J-0.023873
G02 X10.858884 Y123.138273 Z-0.125000 I1.548677 J-2.154010
G02 X11.818997 Y123.451703 Z-0.125000 I1.925487 J-4.271005
G02 X12.764079 Y123.551628 Z-0.125000 I0.954056 J-4.504164
G02 X13.753187 Y123.459802 Z-0.125000 I0.010257 J-5.262583
G02 X14.719386 Y123.185877 Z-0.125000 I-1.036065 J-5.495423
G02 X15.450347 Y122.848876 Z-0.125000 I-2.190674 J-5.712833
G02 X16.134975 Y122.422866 Z-0.125000 I-3.379062 J-6.193527
G03 X16.427707 Y122.282741 Z-0.125000 I0.561120 J0.796387
G03 X16.579494 Y122.353848 Z-0.125000 I0.034962 J0.122928
G03 X16.594436 Y122.731915 Z-0.125000 I-0.468575 J0.207847
G03 X16.312983 Y123.322910 Z-0.125000 I-2.918938 J-1.027583
G03 X15.687377 Y124.096239 Z-0.125000 I-3.275599 J-2.010178
G03 X14.987910 Y124.572227 Z-0.125000 I-1.794066 J-1.884455
G03 X14.152591 Y124.836567 Z-0.125000 I-1.446808 J-3.119963
G03 X13.237086 Y124.902812 Z-0.125000 I-0.767504 J-4.247655
G03 X12.187295 Y124.720229 Z-0.125000 I0.132887 J-3.873331
G03 X11.180626 Y124.273960 Z-0.125000 I1.570609 J-4.901417
G02 X10.253105 Y123.750957 Z-0.125000 I-24.180924 J41.799761
G02 X9.594262 Y123.415845 Z-0.125000 I-5.522928 J10.043077
G02 X9.073554 Y123.200999 Z-0.125000 I-2.546326 J5.432934
G00 Z5.000000

(End cutting path id: path2362)


(Start cutting path id: path2359)
(Change tool to Default tool)

G00 Z5.000000
G00 X9.072932 Y123.975515

G01 Z-0.125000 F100.0(Penetrate)
G03 X9.410292 Y124.168138 Z-0.125000 I-3.863095 J7.157578 F400.000000
G03 X9.792732 Y124.417224 Z-0.125000 I-3.405804 J5.647309
G03 X10.792512 Y125.235171 Z-0.125000 I-5.043818 J7.185075
G03 X11.664087 Y126.115005 Z-0.125000 I-13.852751 J14.594326
G03 X12.393953 Y126.959396 Z-0.125000 I-11.014554 J10.258283
G03 X12.816887 Y127.535941 Z-0.125000 I-6.520857 J5.226878
G03 X13.207135 Y128.203306 Z-0.125000 I-5.208578 J3.493545
G03 X13.290947 Y128.526366 Z-0.125000 I-0.702682 J0.354700
G03 X13.169846 Y128.741906 Z-0.125000 I-0.236629 J0.008840
G03 X12.949400 Y128.780194 Z-0.125000 I-0.164741 J-0.294749
G03 X12.742396 Y128.693095 Z-0.125000 I0.080851 J-0.481692
G03 X12.255107 Y128.268183 Z-0.125000 I2.195794 J-3.010006
G03 X11.732381 Y127.718286 Z-0.125000 I31.974186 J-30.917654
G02 X10.644423 Y126.668076 Z-0.125000 I-10.729382 J10.026407
G02 X9.950061 Y126.099955 Z-0.125000 I-9.618387 J11.047271
G02 X9.073554 Y125.473593 Z-0.125000 I-9.475372 J12.333018
G00 Z5.000000

(End cutting path id: path2359)


(Start cutting path id: path2356)
(Change tool to Default tool)

G00 Z5.000000
G00 X9.072932 Y126.977894

G01 Z-0.125000 F100.0(Penetrate)
G03 X9.202156 Y127.058361 Z-0.125000 I-13.939546 J22.529888 F400.000000
G03 X9.327382 Y127.137782 Z-0.125000 I-7.305541 J11.657392
G03 X10.611706 Y128.025651 Z-0.125000 I-11.291455 J17.706192
G03 X11.484915 Y128.745356 Z-0.125000 I-7.169946 J9.588787
G03 X12.300894 Y129.578817 Z-0.125000 I-6.593041 J7.270913
G03 X12.670687 Y130.064883 Z-0.125000 I-3.550183 J3.084636
G03 X12.885524 Y130.537354 Z-0.125000 I-1.344997 J0.896663
G03 X12.862924 Y130.660259 Z-0.125000 I-0.139373 J0.037902
G03 X12.761711 Y130.696090 Z-0.125000 I-0.076989 J-0.056611
G03 X12.360868 Y130.479843 Z-0.125000 I0.244392 J-0.932646
G03 X11.942421 Y130.061325 Z-0.125000 I3.788279 J-4.206093
G02 X11.097330 Y129.240569 Z-0.125000 I-6.539393 J5.887820
G02 X10.207307 Y128.571029 Z-0.125000 I-6.179957 J7.288730
G02 X9.072932 Y127.865046 Z-0.125000 I-12.349131 J18.578252
G00 Z5.000000

(End cutting path id: path2356)


(Start cutting path id: path2353)
(Change tool to Default tool)

G00 Z5.000000
G00 X9.072932 Y129.455822

G01 Z-0.125000 F100.0(Penetrate)
G03 X9.318792 Y129.659370 Z-0.125000 I-8.529112 J10.552369 F400.000000
G03 X9.550103 Y129.858960 Z-0.125000 I-11.446998 J13.500094
G03 X10.506292 Y130.799741 Z-0.125000 I-8.431279 J9.525687
G03 X11.209935 Y131.666238 Z-0.125000 I-7.017361 J6.417426
G03 X11.859191 Y132.696044 Z-0.125000 I-8.066018 J5.804904
G03 X12.116373 Y133.259501 Z-0.125000 I-3.721942 J2.039251
G03 X12.142236 Y133.662179 Z-0.125000 I-0.654197 J0.244187
G03 X12.052294 Y133.777734 Z-0.125000 I-0.170148 J-0.039654
G03 X11.821534 Y133.856292 Z-0.125000 I-0.380882 J-0.740616
G03 X11.606852 Y133.823770 Z-0.125000 I-0.060113 J-0.328019
G03 X11.487981 Y133.707470 Z-0.125000 I0.129447 J-0.251207
G02 X11.190649 Y133.189202 Z-0.125000 I-11.323803 J6.152066
G02 X10.777167 Y132.557070 Z-0.125000 I-9.178638 J5.552516
G02 X9.971904 Y131.541811 Z-0.125000 I-9.444088 J6.663699
G02 X9.550189 Y131.095693 Z-0.125000 I-7.428529 J6.599795
G02 X9.072932 Y130.649061 Z-0.125000 I-7.593589 J7.635964
G00 Z5.000000

(End cutting path id: path2353)


(Start cutting path id: path2350)
(Change tool to Default tool)

G00 Z5.000000
G00 X9.072932 Y133.046112

G01 Z-0.125000 F100.0(Penetrate)
G03 X9.744076 Y133.530390 Z-0.125000 I-4.668511 J7.177132 F400.000000
G03 X10.310341 Y134.039647 Z-0.125000 I-4.024912 J5.044924
G03 X11.324650 Y135.423651 Z-0.125000 I-4.181872 J4.128498
G03 X11.875610 Y136.797532 Z-0.125000 I-6.271420 J3.312408
G03 X12.140914 Y138.271954 Z-0.125000 I-7.349389 J2.083512
G03 X12.112640 Y139.577813 Z-0.125000 I-6.426931 J0.514082
G03 X11.792479 Y140.866911 Z-0.125000 I-5.523039 J-0.687398
G03 X11.283346 Y141.688688 Z-0.125000 I-2.372493 J-0.901275
G03 X10.490821 Y142.217517 Z-0.125000 I-1.491966 J-1.377653
G03 X9.798331 Y142.386714 Z-0.125000 I-1.098479 J-2.994147
G03 X9.363092 Y142.413935 Z-0.125000 I-0.423980 J-3.285922
G03 X9.072932 Y142.394786 Z-0.125000 I0.007910 J-2.327766
G00 Z5.000000

(End cutting path id: path2350)


(Start cutting path id: path2347)
(Change tool to Default tool)

G00 Z5.000000
G00 X9.072932 Y139.478273

G01 Z-0.125000 F100.0(Penetrate)
G03 X9.560564 Y138.954237 Z-0.125000 I0.876503 J0.326718 F400.000000
G03 X10.276746 Y138.928315 Z-0.125000 I0.389394 J0.851899
G03 X10.800707 Y139.416304 Z-0.125000 I-0.328335 J0.877824
G03 X10.826705 Y140.132128 Z-0.125000 I-0.851119 J0.389296
G03 X10.338820 Y140.656372 Z-0.125000 I-0.876016 J-0.326115
G03 X9.622892 Y140.682089 Z-0.125000 I-0.389044 J-0.852362
G03 X9.288582 Y140.467329 Z-0.125000 I0.326014 J-0.875081
G03 X9.072932 Y140.132128 Z-0.125000 I0.664427 J-0.664424
G00 Z5.000000

(End cutting path id: path2347)


(Start cutting path id: path2344)
(Change tool to Default tool)

G00 Z5.000000
G00 X9.072932 Y143.941406

G01 Z-0.125000 F100.0(Penetrate)
G02 X9.934574 Y143.808399 Z-0.125000 I-0.310769 J-4.870662 F400.000000
G02 X10.646911 Y143.569375 Z-0.125000 I-1.113310 J-4.498832
G02 X11.453611 Y143.107299 Z-0.125000 I-1.571376 J-3.678550
G02 X11.886186 Y142.746926 Z-0.125000 I-2.889647 J-3.908403
G02 X12.270766 Y142.368743 Z-0.125000 I-7.535688 J-8.047781
G03 X12.472851 Y142.220607 Z-0.125000 I0.535348 J0.518405
G03 X12.688760 Y142.201854 Z-0.125000 I0.131744 J0.264523
G03 X12.874744 Y142.369292 Z-0.125000 I-0.082933 J0.279130
G03 X12.939910 Y142.660393 Z-0.125000 I-0.785150 J0.328606
G03 X12.965575 Y143.520849 Z-0.125000 I-30.155116 J1.330062
G03 X12.977495 Y144.508820 Z-0.125000 I-88.669957 J1.563915
G03 X12.912072 Y145.659719 Z-0.125000 I-9.114453 J0.059194
G03 X12.680704 Y146.686806 Z-0.125000 I-5.113925 J-0.612389
G03 X12.389486 Y147.245517 Z-0.125000 I-1.915622 J-0.643232
G03 X11.931488 Y147.635824 Z-0.125000 I-1.070032 J-0.791741
G03 X11.547127 Y147.778059 Z-0.125000 I-0.765873 J-1.479166
G03 X11.115187 Y147.827332 Z-0.125000 I-0.424670 J-1.804893
G03 X10.926868 Y147.772471 Z-0.125000 I0.001394 J-0.355435
G03 X10.836187 Y147.630941 Z-0.125000 I0.105812 J-0.167611
G02 X10.803687 Y147.392351 Z-0.125000 I-34.862485 J4.627408
G02 X10.739576 Y147.149223 Z-0.125000 I-1.014438 J0.137484
G02 X10.534928 Y146.871632 Z-0.125000 I-0.636233 J0.254815
G02 X10.203044 Y146.694969 Z-0.125000 I-0.619339 J0.763436
G02 X9.721187 Y146.655130 Z-0.125000 I-0.332472 J1.087327
G02 X9.386321 Y146.755528 Z-0.125000 I0.142326 J1.083366
G02 X9.071066 Y146.966196 Z-0.125000 I0.605595 J1.247467
G00 Z5.000000

(End cutting path id: path2344)


(Start cutting path id: path2341)
(Change tool to Default tool)

G00 Z5.000000
G00 X9.072932 Y144.659963

G01 Z-0.125000 F100.0(Penetrate)
G03 X9.579153 Y144.962866 Z-0.125000 I-0.112660 J0.762740 F400.000000
G03 X9.723054 Y145.534048 Z-0.125000 I-0.618471 J0.459533
G03 X9.505430 Y145.966518 Z-0.125000 I-0.762627 J-0.112772
G03 X9.072932 Y146.183548 Z-0.125000 I-0.543608 J-0.543846
G00 Z5.000000

(End cutting path id: path2341)


(Start cutting path id: path2338)
(Change tool to Default tool)

G00 Z5.000000
G00 X9.072932 Y155.180113

G01 Z-0.125000 F100.0(Penetrate)
G03 X9.101393 Y155.202320 Z-0.125000 I-0.052425 J0.096529 F400.000000
G03 X9.143232 Y155.257258 Z-0.125000 I-0.275958 J0.253564
G03 X9.256493 Y155.508669 Z-0.125000 I-0.896072 J0.554898
G03 X9.407014 Y156.174892 Z-0.125000 I-4.683830 J1.408340
G03 X9.475020 Y156.826664 Z-0.125000 I-6.669752 J1.025359
G03 X9.498466 Y157.638757 Z-0.125000 I-15.291718 J0.847877
G03 X9.491369 Y158.492009 Z-0.125000 I-40.060292 J0.093413
G02 X9.507799 Y159.123770 Z-0.125000 I7.027635 J0.133320
G02 X9.611767 Y159.679773 Z-0.125000 I2.482509 J-0.176486
G02 X9.711235 Y159.834860 Z-0.125000 I0.328250 J-0.101087
G02 X9.814326 Y159.832528 Z-0.125000 I0.050281 J-0.057057
G02 X9.972527 Y159.510734 Z-0.125000 I-0.366841 J-0.380132
G02 X9.990837 Y158.905879 Z-0.125000 I-3.826657 J-0.418538
G03 X9.947644 Y157.879518 Z-0.125000 I80.653462 J-3.908251
G03 X9.935624 Y156.886434 Z-0.125000 I21.034988 J-0.751218
G03 X9.997414 Y156.454851 Z-0.125000 I1.672351 J0.019218
G03 X10.176549 Y156.304162 Z-0.125000 I0.200578 J0.056622
G03 X10.313454 Y156.367131 Z-0.125000 I0.015226 J0.147208
G03 X10.403649 Y156.582472 Z-0.125000 I-0.465174 J0.321396
G03 X10.464631 Y157.123012 Z-0.125000 I-3.502522 J0.668852
G03 X10.470297 Y157.712297 Z-0.125000 I-11.164462 J0.402023
G02 X10.457166 Y158.588742 Z-0.125000 I245.931359 J4.122925
G02 X10.448578 Y159.494078 Z-0.125000 I173.951851 J2.102868
G03 X10.429170 Y160.218714 Z-0.125000 I-18.220554 J-0.125429
G03 X10.385129 Y160.901133 Z-0.125000 I-17.779570 J-0.804788
G02 X10.411751 Y161.087202 Z-0.125000 I0.418365 J0.035082
G02 X10.513156 Y161.131035 Z-0.125000 I0.072206 J-0.027830
G02 X10.704150 Y160.970864 Z-0.125000 I-0.153716 J-0.377257
G02 X10.824729 Y160.697873 Z-0.125000 I-0.873397 J-0.548898
G02 X10.964199 Y159.972351 Z-0.125000 I-4.407594 J-1.223457
G02 X11.029868 Y159.074241 Z-0.125000 I-12.406964 J-1.358647
G03 X11.069960 Y158.245952 Z-0.125000 I36.161228 J1.335212
G03 X11.149436 Y157.601299 Z-0.125000 I5.052427 J0.295664
G03 X11.231713 Y157.468915 Z-0.125000 I0.212203 J0.040125
G03 X11.370831 Y157.460904 Z-0.125000 I0.075568 J0.100335
G03 X11.583214 Y157.711544 Z-0.125000 I-0.251074 J0.428053
G03 X11.664965 Y158.083029 Z-0.125000 I-1.216002 J0.462336
G03 X11.684621 Y158.886120 Z-0.125000 I-8.824410 J0.617766
G03 X11.645018 Y159.758931 Z-0.125000 I-17.091677 J-0.338212
G03 X11.537177 Y160.598209 Z-0.125000 I-7.421996 J-0.527104
G03 X11.336261 Y161.347080 Z-0.125000 I-4.853527 J-0.900776
G02 X11.220515 Y161.688174 Z-0.125000 I12.490534 J4.428688
G02 X11.179110 Y161.977881 Z-0.125000 I0.831647 J0.266670
G02 X11.234823 Y162.060829 Z-0.125000 I0.093269 J-0.002461
G02 X11.359462 Y162.067194 Z-0.125000 I0.070546 J-0.157895
G02 X11.691464 Y161.843083 Z-0.125000 I-0.230173 J-0.698954
G02 X11.942875 Y161.450945 Z-0.125000 I-1.356306 J-1.146231
G02 X12.208451 Y160.664777 Z-0.125000 I-3.337049 J-1.565228
G02 X12.324088 Y159.804191 Z-0.125000 I-5.350139 J-1.156961
G03 X12.380157 Y159.106973 Z-0.125000 I13.393990 J0.726271
G03 X12.504621 Y158.506402 Z-0.125000 I3.161738 J0.342063
G03 X12.601634 Y158.368510 Z-0.125000 I0.262143 J0.081357
G03 X12.709304 Y158.377785 Z-0.125000 I0.048668 J0.064619
G03 X12.869149 Y158.706324 Z-0.125000 I-0.449982 J0.422084
G03 X12.898517 Y159.228085 Z-0.125000 I-2.686694 J0.412936
G03 X12.808802 Y160.122905 Z-0.125000 I-7.507586 J-0.300807
G03 X12.632848 Y160.947739 Z-0.125000 I-8.066039 J-1.289466
G03 X12.401932 Y161.734213 Z-0.125000 I-16.658627 J-4.464001
G03 X12.144850 Y162.490747 Z-0.125000 I-22.217709 J-7.127965
G03 X11.876235 Y163.217361 Z-0.125000 I-38.769673 J-13.919431
G03 X11.578158 Y163.997746 Z-0.125000 I-158.261496 J-60.002612
G02 X11.375424 Y164.559909 Z-0.125000 I13.148016 J5.059246
G02 X11.256699 Y165.053048 Z-0.125000 I2.698123 J0.910443
G02 X11.290815 Y165.292152 Z-0.125000 I0.419447 J0.062139
G02 X11.460754 Y165.460606 Z-0.125000 I0.309244 J-0.142024
G02 X11.755543 Y165.414710 Z-0.125000 I0.112077 J-0.249793
G02 X11.976887 Y165.114782 Z-0.125000 I-0.600665 J-0.674925
G02 X12.449835 Y164.059719 Z-0.125000 I-79.892898 J-36.446763
G03 X12.953950 Y162.931322 Z-0.125000 I93.495589 J41.092612
G02 X13.622543 Y161.440569 Z-0.125000 I-161.688923 J-73.411777
G02 X14.234152 Y159.965495 Z-0.125000 I-29.794403 J-13.217959
G02 X14.520893 Y158.779112 Z-0.125000 I-4.344670 J-1.677924
G02 X14.422853 Y157.602590 Z-0.125000 I-3.100716 J-0.333961
G02 X14.119000 Y156.877897 Z-0.125000 I-3.072126 J0.862049
G02 X13.665219 Y156.308073 Z-0.125000 I-2.093692 J1.201722
G02 X13.206341 Y155.983278 Z-0.125000 I-1.463092 J1.580533
G02 X12.638243 Y155.732074 Z-0.125000 I-2.128355 J4.045308
G03 X12.089003 Y155.478735 Z-0.125000 I1.232763 J-3.394682
G03 X11.631815 Y155.147362 Z-0.125000 I1.255603 J-2.213396
G03 X11.170122 Y154.702943 Z-0.125000 I7.708697 J-8.470352
G02 X10.670437 Y154.201599 Z-0.125000 I-40.268582 J39.635715
G02 X10.170366 Y153.764156 Z-0.125000 I-3.767844 J3.802725
G02 X9.657660 Y153.440297 Z-0.125000 I-2.005387 J2.606995
G02 X9.235932 Y153.254011 Z-0.125000 I-1.899256 J3.729154
G02 X9.152596 Y153.222923 Z-0.125000 I-1.962549 J5.133766
G02 X9.070447 Y153.193043 Z-0.125000 I-159.881329 J439.420162
G00 Z5.000000

(End cutting path id: path2338)


(Start cutting path id: path2335)
(Change tool to Default tool)

G00 Z5.000000
G00 X9.072932 Y162.850927

G01 Z-0.125000 F100.0(Penetrate)
G02 X9.089558 Y162.832085 Z-0.125000 I-0.966199 J-0.869360 F400.000000
G03 X9.105283 Y162.814224 Z-0.125000 I1.059436 J0.916816
G02 X9.341340 Y162.537895 Z-0.125000 I-6.765234 J-6.018288
G02 X9.387728 Y162.373136 Z-0.125000 I-0.165082 J-0.135388
G02 X9.333391 Y162.242200 Z-0.125000 I-0.281144 J0.039929
G02 X9.072932 Y161.915250 Z-0.125000 I-6.174173 J4.651325
G00 Z5.000000

(End cutting path id: path2335)


(Start cutting path id: path2332)
(Change tool to Default tool)

G00 Z5.000000
G00 X9.072932 Y165.230560

G01 Z-0.125000 F100.0(Penetrate)
G03 X9.150212 Y165.233539 Z-0.125000 I-5.111678 J133.607570 F400.000000
G03 X9.245261 Y165.238660 Z-0.125000 I-0.123107 J3.169748
G03 X9.602555 Y165.279520 Z-0.125000 I-0.246358 J3.736800
G03 X10.073311 Y165.394192 Z-0.125000 I-0.507391 J3.106565
G03 X10.554415 Y165.582732 Z-0.125000 I-1.342943 J4.134931
G02 X10.768848 Y165.616911 Z-0.125000 I0.167808 J-0.363059
G02 X10.857484 Y165.522471 Z-0.125000 I-0.011712 J-0.099808
G02 X10.826083 Y165.091215 Z-0.125000 I-1.716155 J-0.091813
G02 X10.695869 Y164.529291 Z-0.125000 I-9.786430 J1.971762
G02 X10.493246 Y163.865626 Z-0.125000 I-8.452161 J2.217755
G02 X10.243594 Y163.292108 Z-0.125000 I-3.991356 J1.396341
G02 X10.069578 Y163.082993 Z-0.125000 I-0.578893 J0.304764
G02 X9.867285 Y163.043414 Z-0.125000 I-0.139461 J0.176041
G02 X9.612315 Y163.196220 Z-0.125000 I0.163987 J0.562749
G02 X9.366371 Y163.494441 Z-0.125000 I1.630609 J1.595300
G02 X9.072932 Y163.940282 Z-0.125000 I9.671398 J6.684901
G00 Z5.000000

(End cutting path id: path2332)


(Start cutting path id: path2329)
(Change tool to Default tool)

G00 Z5.000000
G00 X9.072932 Y168.945897

G01 Z-0.125000 F100.0(Penetrate)
G02 X9.161047 Y168.857532 Z-0.125000 I-0.420118 J-0.507045 F400.000000
G02 X9.291298 Y168.690824 Z-0.125000 I-3.160318 J-2.603448
G02 X9.543178 Y168.347507 Z-0.125000 I-79.117258 J-58.309495
G03 X9.933955 Y167.881439 Z-0.125000 I3.670570 J2.680751
G03 X10.378299 Y167.478034 Z-0.125000 I3.141301 J3.013669
G03 X10.747073 Y167.200835 Z-0.125000 I6.060143 J7.678270
G02 X11.076084 Y166.947820 Z-0.125000 I-3.494139 J-4.884072
G02 X11.163276 Y166.780900 Z-0.125000 I-0.154191 J-0.186775
G02 X11.106009 Y166.603942 Z-0.125000 I-0.243424 J-0.018968
G02 X10.694193 Y166.255201 Z-0.125000 I-1.256920 J1.066735
G02 X10.137475 Y165.985958 Z-0.125000 I-1.808130 J3.028502
G02 X9.249616 Y165.774921 Z-0.125000 I-1.255277 J3.307929
G02 X9.161958 Y165.766926 Z-0.125000 I-0.313541 J2.953157
G02 X9.073554 Y165.761234 Z-0.125000 I-0.284841 J3.734043
G00 Z5.000000

(End cutting path id: path2329)


(Start cutting path id: path2326)
(Change tool to Default tool)

G00 Z5.000000
G00 X9.072932 Y174.164914

G01 Z-0.125000 F100.0(Penetrate)
G02 X9.160052 Y174.106094 Z-0.125000 I-0.151297 J-0.318018 F400.000000
G02 X9.273257 Y173.988852 Z-0.125000 I-0.931597 J-1.012796
G02 X9.486765 Y173.720255 Z-0.125000 I-3.811716 J-3.249093
G03 X9.818239 Y173.348685 Z-0.125000 I2.200249 J1.629184
G03 X10.215374 Y173.041099 Z-0.125000 I1.859964 J1.991298
G03 X10.645045 Y172.806813 Z-0.125000 I1.947810 J3.061047
G03 X11.106993 Y172.617484 Z-0.125000 I2.354528 J5.086664
G02 X11.285212 Y172.494505 Z-0.125000 I-0.142414 J-0.397011
G02 X11.299819 Y172.350517 Z-0.125000 I-0.096569 J-0.082531
G02 X11.040095 Y172.047195 Z-0.125000 I-0.866152 J0.478797
G02 X10.611554 Y171.767123 Z-0.125000 I-1.979614 J2.561137
G02 X9.823838 Y171.456176 Z-0.125000 I-1.643914 J3.011272
G02 X9.463894 Y171.384766 Z-0.125000 I-0.810730 J3.143641
G02 X9.072310 Y171.350413 Z-0.125000 I-0.527087 J3.759242
G00 Z5.000000

(End cutting path id: path2326)


(Start cutting path id: path2323)
(Change tool to Default tool)

G00 Z5.000000
G00 X9.072932 Y176.446249

G01 Z-0.125000 F100.0(Penetrate)
G03 X9.287847 Y176.749701 Z-0.125000 I-1.223884 J1.094626 F400.000000
G03 X9.403281 Y177.022338 Z-0.125000 I-1.270937 J0.698870
G03 X9.478612 Y177.335938 Z-0.125000 I-2.390306 J0.740031
G02 X9.559435 Y177.553632 Z-0.125000 I0.624502 J-0.108007
G02 X9.708647 Y177.695046 Z-0.125000 I0.333156 J-0.202102
G02 X10.003633 Y177.819282 Z-0.125000 I0.813453 J-1.519126
G02 X10.395433 Y177.926743 Z-0.125000 I1.715392 J-5.486310
G02 X10.695437 Y177.953039 Z-0.125000 I0.240092 J-1.014679
G02 X10.849243 Y177.864204 Z-0.125000 I-0.011316 J-0.197159
G02 X10.958596 Y177.576029 Z-0.125000 I-0.596029 J-0.391009
G02 X11.005131 Y177.113378 Z-0.125000 I-5.131519 J-0.749813
G02 X10.993435 Y176.474245 Z-0.125000 I-4.334125 J-0.240360
G02 X10.880008 Y175.941981 Z-0.125000 I-2.305133 J0.213016
G02 X10.666197 Y175.543544 Z-0.125000 I-1.305270 J0.443851
G02 X10.318744 Y175.213645 Z-0.125000 I-1.235944 J0.953789
G02 X9.872986 Y174.992962 Z-0.125000 I-0.974662 J1.408186
G02 X9.461374 Y174.910947 Z-0.125000 I-0.551790 J1.695384
G02 X9.073554 Y174.912710 Z-0.125000 I-0.183346 J2.324748
G00 Z5.000000

(End cutting path id: path2323)


(Start cutting path id: path2320)
(Change tool to Default tool)

G00 Z5.000000
G00 X9.072932 Y178.568320

G01 Z-0.125000 F100.0(Penetrate)
G03 X9.168219 Y178.485848 Z-0.125000 I3.028762 J3.403115 F400.000000
G03 X9.249616 Y178.418389 Z-0.125000 I4.500855 J5.347966
G02 X9.438944 Y178.252318 Z-0.125000 I-2.076018 J-2.557706
G02 X9.476070 Y178.158962 Z-0.125000 I-0.082150 J-0.086729
G02 X9.429803 Y178.063055 Z-0.125000 I-0.135962 J0.006476
G02 X9.201090 Y177.918199 Z-0.125000 I-0.578352 J0.660171
G02 X9.141517 Y177.893736 Z-0.125000 I-0.459703 J1.034718
G02 X9.072932 Y177.869673 Z-0.125000 I-0.540210 J1.429987
G00 Z5.000000

(End cutting path id: path2320)


(Start cutting path id: path2317)
(Change tool to Default tool)

G00 Z5.000000
G00 X9.072932 Y179.364644

G01 Z-0.125000 F100.0(Penetrate)
G03 X9.148405 Y179.193498 Z-0.125000 I1.289161 J0.466288 F400.000000
G03 X9.253971 Y179.024340 Z-0.125000 I1.188710 J0.624316
G03 X9.479458 Y178.783597 Z-0.125000 I1.101340 J0.805576
G03 X9.757893 Y178.600050 Z-0.125000 I0.939874 J1.122801
G03 X10.074422 Y178.484353 Z-0.125000 I0.634701 J1.245604
G03 X10.340825 Y178.461315 Z-0.125000 I0.213009 J0.911362
G03 X10.576158 Y178.526756 Z-0.125000 I-0.032970 J0.574431
G03 X10.722810 Y178.667239 Z-0.125000 I-0.172053 J0.326396
G03 X10.784514 Y178.859551 Z-0.125000 I-0.396648 J0.233320
G03 X10.780046 Y179.267590 Z-0.125000 I-2.031960 J0.181795
G03 X10.697790 Y179.782654 Z-0.125000 I-5.489212 J-0.612532
G03 X10.569145 Y180.150387 Z-0.125000 I-1.460646 J-0.304611
G03 X10.381971 Y180.303421 Z-0.125000 I-0.265870 J-0.134201
G03 X10.189648 Y180.311519 Z-0.125000 I-0.113827 J-0.415458
G03 X9.938737 Y180.257566 Z-0.125000 I0.818963 J-4.419000
G02 X9.621647 Y180.187717 Z-0.125000 I-1.641667 J6.697940
G03 X9.302185 Y180.124801 Z-0.125000 I26.822172 J-137.035464
G03 X9.105905 Y180.029074 Z-0.125000 I0.083137 J-0.419557
G03 X9.088560 Y180.013091 Z-0.125000 I0.106232 J-0.132685
G03 X9.073554 Y179.996723 Z-0.125000 I0.546058 J-0.515676
G00 Z5.000000

(End cutting path id: path2317)


(Start cutting path id: path2314)
(Change tool to Default tool)

G00 Z5.000000
G00 X9.072932 Y180.743274

G01 Z-0.125000 F100.0(Penetrate)
G03 X9.320524 Y180.613800 Z-0.125000 I0.595543 J0.837379 F400.000000
G03 X9.613560 Y180.546681 Z-0.125000 I0.424167 J1.178634
G03 X9.923547 Y180.566840 Z-0.125000 I0.096553 J0.908721
G03 X10.146722 Y180.676085 Z-0.125000 I-0.133276 J0.554849
G03 X10.303417 Y180.868401 Z-0.125000 I-0.361547 J0.454576
G03 X10.401793 Y181.147656 Z-0.125000 I-1.020679 J0.516522
G03 X10.439486 Y181.477505 Z-0.125000 I-1.644448 J0.354992
G03 X10.401793 Y181.690773 Z-0.125000 I-0.573675 J0.008575
G03 X10.291343 Y181.806771 Z-0.125000 I-0.191595 J-0.071849
G03 X10.116860 Y181.849413 Z-0.125000 I-0.212905 J-0.492871
G03 X9.900511 Y181.853049 Z-0.125000 I-0.141462 J-1.978788
G03 X9.617915 Y181.824521 Z-0.125000 I0.085350 J-2.259425
G03 X9.347591 Y181.757629 Z-0.125000 I0.286772 J-1.738561
G03 X9.112126 Y181.633527 Z-0.125000 I0.258698 J-0.776270
G03 X9.092388 Y181.618213 Z-0.125000 I0.907399 J-1.189901
G03 X9.072932 Y181.601800 Z-0.125000 I0.242162 J-0.306794
G00 Z5.000000

(End cutting path id: path2314)


(Start cutting path id: path2311)
(Change tool to Default tool)

G00 Z5.000000
G00 X9.072932 Y183.382334

G01 Z-0.125000 F100.0(Penetrate)
G02 X9.150504 Y183.412095 Z-0.125000 I1.291675 J-3.250756 F400.000000
G02 X9.229086 Y183.439569 Z-0.125000 I0.796883 J-2.153187
G02 X9.583649 Y183.526661 Z-0.125000 I0.732136 J-2.215329
G02 X9.831926 Y183.529155 Z-0.125000 I0.132250 J-0.806453
G02 X10.008015 Y183.444151 Z-0.125000 I-0.045925 J-0.320026
G02 X10.134279 Y183.251064 Z-0.125000 I-0.340588 J-0.360545
G02 X10.208610 Y182.954065 Z-0.125000 I-1.392043 J-0.506193
G02 X10.206446 Y182.630804 Z-0.125000 I-1.082231 J-0.154392
G02 X10.104861 Y182.391258 Z-0.125000 I-0.527839 J0.082529
G02 X9.913424 Y182.226422 Z-0.125000 I-0.477057 J0.360461
G02 X9.654931 Y182.133100 Z-0.125000 I-0.432072 J0.792134
G02 X9.243395 Y182.122528 Z-0.125000 I-0.236957 J1.208762
G02 X9.160444 Y182.137022 Z-0.125000 I0.219827 J1.502717
G02 X9.072932 Y182.156745 Z-0.125000 I0.426691 J2.097290
G00 Z5.000000

(End cutting path id: path2311)


(Start cutting path id: path2308)
(Change tool to Default tool)

G00 Z5.000000
G00 X9.072932 Y186.945249

G01 Z-0.125000 F100.0(Penetrate)
G02 X9.590580 Y185.703213 Z-0.125000 I-7.202381 J-3.730655 F400.000000
G02 X9.792732 Y184.936405 Z-0.125000 I-6.981793 J-2.250643
G02 X9.846280 Y184.149364 Z-0.125000 I-2.822159 J-0.587353
G02 X9.805796 Y184.006325 Z-0.125000 I-0.361677 J0.025115
G02 X9.711528 Y183.927748 Z-0.125000 I-0.141733 J0.074202
G02 X9.546992 Y183.905540 Z-0.125000 I-0.148115 J0.476742
G02 X9.332511 Y183.916953 Z-0.125000 I0.191572 J5.621517
G02 X9.072309 Y183.972732 Z-0.125000 I0.069366 J0.958371
G00 Z5.000000

(End cutting path id: path2308)


(Start cutting path id: path2305)
(Change tool to Default tool)

G00 Z5.000000
G00 X9.072932 Y198.464535

G01 Z-0.125000 F100.0(Penetrate)
G03 X9.672529 Y198.712896 Z-0.125000 I0.000000 J0.847959 F400.000000
G03 X9.920890 Y199.312492 Z-0.125000 I-0.599594 J0.599596
G00 Z5.000000

(End cutting path id: path2305)


(Start cutting path id: path2302)
(Change tool to Default tool)

G00 Z5.000000
G00 X14.433793 Y199.312492

G01 Z-0.125000 F100.0(Penetrate)
G03 X14.112883 Y198.851268 Z-0.125000 I0.396178 J-0.617905 F400.000000
G03 X14.211694 Y198.298428 Z-0.125000 I0.718099 J-0.156903
G03 X14.673087 Y197.977218 Z-0.125000 I0.618643 J0.396652
G03 X15.226381 Y198.076327 Z-0.125000 I0.157077 J0.717075
G03 X15.547128 Y198.537443 Z-0.125000 I-0.395938 J0.617522
G03 X15.447858 Y199.090394 Z-0.125000 I-0.717477 J0.156579
G03 X15.348782 Y199.214028 Z-0.125000 I-0.624798 J-0.399177
G03 X15.226381 Y199.312492 Z-0.125000 I-0.503983 J-0.501193
G00 Z5.000000

(End cutting path id: path2302)


(Start cutting path id: path2299)
(Change tool to Default tool)

G00 Z5.000000
G00 X16.586349 Y199.312492

G01 Z-0.125000 F100.0(Penetrate)
G03 X16.814805 Y198.951546 Z-0.125000 I5.731700 J3.375039 F400.000000
G03 X17.064141 Y198.609490 Z-0.125000 I5.231145 J3.551265
G03 X17.877863 Y197.712288 Z-0.125000 I6.302512 J4.898481
G02 X18.641231 Y196.972678 Z-0.125000 I-32.104224 J-33.899256
G02 X19.360007 Y196.197383 Z-0.125000 I-8.679718 J-8.767806
G02 X19.781588 Y195.620175 Z-0.125000 I-3.687306 J-3.135698
G02 X20.063976 Y194.985638 Z-0.125000 I-2.139762 J-1.332361
G02 X20.031061 Y194.691964 Z-0.125000 I-0.371536 J-0.107040
G02 X19.797946 Y194.525754 Z-0.125000 I-0.288505 J0.158059
G02 X19.234739 Y194.512789 Z-0.125000 I-0.325638 J1.906373
G02 X18.641096 Y194.641232 Z-0.125000 I0.417027 J3.363514
G02 X18.056433 Y194.917795 Z-0.125000 I0.695828 J2.227287
G02 X17.614537 Y195.329848 Z-0.125000 I0.991403 J1.506180
G02 X17.340365 Y195.822365 Z-0.125000 I1.560661 J1.191350
G02 X17.180778 Y196.392385 Z-0.125000 I3.046039 J1.160144
G03 X17.028058 Y196.872514 Z-0.125000 I-1.972924 J-0.363196
G03 X16.737501 Y197.253430 Z-0.125000 I-0.999024 J-0.460767
G03 X16.404688 Y197.400699 Z-0.125000 I-0.419544 J-0.498433
G03 X16.072810 Y197.334276 Z-0.125000 I-0.068542 J-0.519850
G03 X15.740257 Y196.962724 Z-0.125000 I0.404681 J-0.696804
G03 X15.603195 Y196.411672 Z-0.125000 I1.520286 J-0.670711
G03 X15.618320 Y195.489529 Z-0.125000 I5.205240 J-0.375814
G03 X15.783785 Y194.600836 Z-0.125000 I5.764103 J0.613462
G03 X16.140906 Y193.697184 Z-0.125000 I4.116877 J1.104588
G03 X16.705254 Y192.883951 Z-0.125000 I3.769577 J2.013486
G03 X17.322324 Y192.319175 Z-0.125000 I2.940390 J2.593154
G03 X18.026102 Y191.937761 Z-0.125000 I1.728535 J2.349460
G03 X18.535470 Y191.825207 Z-0.125000 I0.649706 J1.731403
G03 X19.071428 Y191.878033 Z-0.125000 I0.118022 J1.547820
G03 X19.296952 Y191.981981 Z-0.125000 I-0.210743 J0.753848
G03 X19.375383 Y192.123169 Z-0.125000 I-0.098893 J0.147315
G03 X19.321215 Y192.275625 Z-0.125000 I-0.220211 J0.007609
G03 X19.146044 Y192.458957 Z-0.125000 I-2.109296 J-1.840043
G02 X19.013262 Y192.751550 Z-0.125000 I0.297848 J0.311592
G02 X19.100991 Y193.066870 Z-0.125000 I0.526963 J0.023251
G02 X19.440663 Y193.366213 Z-0.125000 I0.728835 J-0.484637
G02 X19.853516 Y193.453253 Z-0.125000 I0.374778 J-0.755019
G02 X20.348967 Y193.335728 Z-0.125000 I-0.061625 J-1.362890
G02 X20.760211 Y193.047300 Z-0.125000 I-0.543154 J-1.211829
G02 X21.013398 Y192.545006 Z-0.125000 I-0.679578 J-0.657506
G02 X20.967686 Y191.939530 Z-0.125000 I-1.250381 J-0.210064
G02 X20.558001 Y191.315685 Z-0.125000 I-1.359136 J0.446114
G02 X19.893652 Y190.966066 Z-0.125000 I-1.042323 J1.174618
G02 X19.141420 Y190.918768 Z-0.125000 I-0.505870 J2.039998
G02 X18.436498 Y191.124579 Z-0.125000 I0.259000 J2.197220
G03 X17.940095 Y191.315062 Z-0.125000 I-1.373978 J-2.838560
G03 X17.481666 Y191.325395 Z-0.125000 I-0.248815 J-0.864377
G03 X17.192299 Y191.102918 Z-0.125000 I0.104244 J-0.435009
G03 X17.091568 Y190.683711 Z-0.125000 I0.739856 J-0.399486
G03 X17.258245 Y189.872353 Z-0.125000 I2.323471 J0.054510
G03 X17.677346 Y189.168504 Z-0.125000 I2.463648 J0.990259
G03 X18.570930 Y188.480656 Z-0.125000 I1.964602 J1.627866
G03 X19.767558 Y188.157877 Z-0.125000 I1.540028 J3.329792
G03 X20.991001 Y188.223718 Z-0.125000 I0.390160 J4.149924
G03 X21.985323 Y188.639276 Z-0.125000 I-0.558873 J2.734596
G03 X22.637146 Y189.184281 Z-0.125000 I-2.229326 J3.328553
G03 X23.225098 Y189.848988 Z-0.125000 I-7.259346 J7.013480
G02 X23.752619 Y190.354499 Z-0.125000 I2.251601 J-1.821634
G02 X24.406523 Y190.687487 Z-0.125000 I1.310757 J-1.765448
G02 X25.019267 Y190.824828 Z-0.125000 I1.133200 J-3.620217
G02 X25.668637 Y190.876525 Z-0.125000 I0.768398 J-5.547638
G03 X25.968632 Y190.903836 Z-0.125000 I-0.046073 J2.167370
G03 X26.150595 Y190.998070 Z-0.125000 I-0.051896 J0.323009
G03 X26.303335 Y191.189394 Z-0.125000 I-0.870545 J0.851616
G02 X26.510225 Y191.494042 Z-0.125000 I5.652378 J-3.616011
G02 X26.843963 Y191.910438 Z-0.125000 I4.195110 J-3.020409
G02 X27.179500 Y192.227149 Z-0.125000 I1.954047 J-1.734098
G02 X27.521458 Y192.420580 Z-0.125000 I0.796746 J-1.009555
G02 X27.979413 Y192.533700 Z-0.125000 I0.700916 J-1.854032
G03 X28.158516 Y192.627127 Z-0.125000 I-0.035340 J0.286135
G03 X28.166968 Y192.766496 Z-0.125000 I-0.082137 J0.074923
G03 X27.881669 Y193.062616 Z-0.125000 I-1.132732 J-0.805844
G03 X27.533577 Y193.310271 Z-0.125000 I-3.388681 J-4.394514
G02 X26.966522 Y193.744464 Z-0.125000 I2.660994 J4.062629
G02 X26.445701 Y194.282904 Z-0.125000 I3.283762 J3.697418
G02 X25.935659 Y195.058395 Z-0.125000 I3.218146 J2.672055
G02 X25.592232 Y195.954011 Z-0.125000 I4.100725 J2.086088
G02 X25.452267 Y196.642328 Z-0.125000 I5.553862 J1.487735
G02 X25.430058 Y197.275913 Z-0.125000 I3.010789 J0.422719
G02 X25.483373 Y197.414386 Z-0.125000 I0.251983 J-0.017519
G02 X25.591883 Y197.442361 Z-0.125000 I0.072509 J-0.056816
G03 X25.851672 Y197.344085 Z-0.125000 I1.362007 J3.207879
G03 X26.163486 Y197.281448 Z-0.125000 I0.406262 J1.214978
G03 X26.623730 Y197.361498 Z-0.125000 I0.070713 J0.956544
G03 X27.004612 Y197.639569 Z-0.125000 I-0.462611 J1.033538
G03 X27.311180 Y198.180837 Z-0.125000 I-1.085647 J0.972350
G03 X27.379204 Y198.708099 Z-0.125000 I-1.480137 J0.458978
G03 X27.243368 Y199.311241 Z-0.125000 I-1.749606 J-0.077168
G00 Z5.000000

(End cutting path id: path2299)


(Start cutting path id: path2296)
(Change tool to Default tool)

G00 Z5.000000
G00 X19.186214 Y199.312492

G01 Z-0.125000 F100.0(Penetrate)
G03 X19.186996 Y198.931821 Z-0.125000 I3.067421 J-0.184028 F400.000000
G03 X19.209232 Y198.639352 Z-0.125000 I12.357043 J0.792375
G02 X19.230017 Y198.214233 Z-0.125000 I-5.001831 J-0.457622
G02 X19.170038 Y198.090015 Z-0.125000 I-0.156520 J-0.001013
G02 X19.033458 Y198.068094 Z-0.125000 I-0.087924 J0.111370
G02 X18.742637 Y198.264211 Z-0.125000 I0.249632 J0.683865
G02 X18.544349 Y198.566235 Z-0.125000 I0.866538 J0.785014
G02 X18.371850 Y199.114657 Z-0.125000 I2.167136 J0.982982
G02 X18.355451 Y199.211059 Z-0.125000 I2.059907 J0.400006
G02 X18.341988 Y199.312492 Z-0.125000 I3.825279 J0.559343
G00 Z5.000000

(End cutting path id: path2296)


(Start cutting path id: path2293)
(Change tool to Default tool)

G00 Z5.000000
G00 X23.531764 Y199.312492

G01 Z-0.125000 F100.0(Penetrate)
G03 X23.293886 Y198.995430 Z-0.125000 I2.963951 J-2.471495 F400.000000
G03 X23.095654 Y198.659260 Z-0.125000 I2.722822 J-1.832122
G03 X22.777516 Y197.752343 Z-0.125000 I3.084032 J-1.591105
G03 X22.698737 Y196.899266 Z-0.125000 I3.955404 J-0.795446
G03 X22.803551 Y196.055312 Z-0.125000 I3.937306 J0.060505
G03 X23.012289 Y195.413628 Z-0.125000 I3.973084 J0.937638
G03 X23.331499 Y194.808783 Z-0.125000 I3.602316 J1.514486
G03 X23.592110 Y194.463643 Z-0.125000 I2.473150 J1.596483
G03 X23.908052 Y194.179757 Z-0.125000 I1.366902 J1.203501
G03 X24.015156 Y194.145737 Z-0.125000 I0.107104 J0.151580
G01 X24.063777 Y194.193135 Z-0.125000
G03 X24.028220 Y194.498480 Z-0.125000 I-1.090295 J0.027780
G03 X23.920922 Y194.889450 Z-0.125000 I-15.245171 J-3.973676
G02 X23.780614 Y195.587824 Z-0.125000 I4.155628 J1.198176
G02 X23.761763 Y196.284363 Z-0.125000 I3.896663 J0.453982
G02 X23.885131 Y196.986362 Z-0.125000 I3.179882 J-0.196986
G02 X24.176440 Y197.655711 Z-0.125000 I2.821264 J-0.829784
G02 X24.464330 Y198.014117 Z-0.125000 I1.399280 J-0.829148
G02 X24.825975 Y198.204657 Z-0.125000 I0.528487 J-0.564596
G02 X24.947722 Y198.183956 Z-0.125000 I0.035395 J-0.160197
G02 X24.986902 Y198.094747 Z-0.125000 I-0.043968 J-0.072518
G02 X24.895464 Y197.808814 Z-0.125000 I-1.323692 J0.265715
G03 X24.752495 Y197.479657 Z-0.125000 I16.694971 J-7.447070
G03 X24.581912 Y196.872514 Z-0.125000 I2.310296 J-0.976633
G03 X24.553927 Y196.226666 Z-0.125000 I3.070139 J-0.456561
G03 X24.651591 Y195.495749 Z-0.125000 I5.129379 J0.313391
G03 X24.849758 Y194.817629 Z-0.125000 I4.345808 J0.901961
G03 X25.126273 Y194.271404 Z-0.125000 I2.738908 J1.043412
G03 X25.531745 Y193.754562 Z-0.125000 I3.004558 J1.939658
G02 X25.758353 Y193.461398 Z-0.125000 I-1.360099 J-1.285485
G02 X25.763735 Y193.260227 Z-0.125000 I-0.169042 J-0.105180
G02 X25.544964 Y193.117361 Z-0.125000 I-0.243571 J0.134046
G02 X25.069106 Y193.130396 Z-0.125000 I-0.182251 J2.039126
G02 X24.184996 Y193.352526 Z-0.125000 I0.640465 J4.419663
G02 X23.434500 Y193.713354 Z-0.125000 I1.434029 J3.943580
G02 X22.651455 Y194.285092 Z-0.125000 I3.039436 J4.984856
G02 X21.937147 Y195.006077 Z-0.125000 I4.446732 J5.119895
G02 X21.400982 Y195.796858 Z-0.125000 I3.311076 J2.822130
G02 X21.087700 Y196.655594 Z-0.125000 I2.981420 J1.574186
G02 X21.013397 Y197.378304 Z-0.125000 I3.193762 J0.693530
G02 X21.110256 Y198.154337 Z-0.125000 I3.400122 J-0.030318
G02 X21.248561 Y198.485064 Z-0.125000 I1.116072 J-0.272441
G02 X21.450314 Y198.605964 Z-0.125000 I0.217505 J-0.134175
G02 X21.688404 Y198.585228 Z-0.125000 I0.049765 J-0.805821
G03 X22.007750 Y198.533918 Z-0.125000 I0.499206 J2.087560
G03 X22.385807 Y198.633132 Z-0.125000 I0.049031 J0.583070
G03 X22.599931 Y198.870297 Z-0.125000 I-0.380132 J0.558443
G03 X22.752240 Y199.312492 Z-0.125000 I-1.260591 J0.681524
G00 Z5.000000

(End cutting path id: path2293)


(Start cutting path id: path2290)
(Change tool to Default tool)

G00 Z5.000000
G00 X28.382482 Y199.312492

G01 Z-0.125000 F100.0(Penetrate)
G03 X29.052044 Y198.969276 Z-0.125000 I0.748905 J0.636287 F400.000000
G03 X29.768577 Y199.200512 Z-0.125000 I0.079371 J0.979837
G03 X29.826548 Y199.254038 Z-0.125000 I-0.721404 J0.839456
G03 X29.880560 Y199.312492 Z-0.125000 I-0.642015 J0.647415
G00 Z5.000000

(End cutting path id: path2290)


(Start cutting path id: path2287)
(Change tool to Default tool)

G00 Z5.000000
G00 X39.983887 Y199.312492

G01 Z-0.125000 F100.0(Penetrate)
G02 X40.922024 Y198.998336 Z-0.125000 I-1.683526 J-6.585178 F400.000000
G02 X41.759435 Y198.573408 Z-0.125000 I-2.462960 J-5.891405
G02 X42.853669 Y197.714237 Z-0.125000 I-2.919269 J-4.844351
G02 X43.633901 Y196.719471 Z-0.125000 I-3.851115 J-3.823937
G02 X44.197976 Y195.517642 Z-0.125000 I-5.162268 J-3.156185
G02 X44.426491 Y194.467374 Z-0.125000 I-4.445669 J-1.517272
G02 X44.376740 Y193.397338 Z-0.125000 I-3.662343 J-0.365895
G02 X44.235497 Y192.938189 Z-0.125000 I-2.229684 J0.434594
G02 X44.047782 Y192.779839 Z-0.125000 I-0.251406 J0.107588
G02 X43.893949 Y192.848604 Z-0.125000 I-0.032195 J0.134429
G02 X43.733940 Y193.218541 Z-0.125000 I2.021156 J1.093785
G03 X43.434201 Y193.857068 Z-0.125000 I-2.832333 J-0.939946
G03 X43.014496 Y194.351320 Z-0.125000 I-1.882762 J-1.173462
G03 X42.580642 Y194.637839 Z-0.125000 I-1.260174 J-1.436451
G03 X42.083000 Y194.772763 Z-0.125000 I-0.614518 J-1.281338
G03 X41.852754 Y194.723070 Z-0.125000 I-0.033326 J-0.403837
G03 X41.766660 Y194.568710 Z-0.125000 I0.083063 J-0.147517
G03 X41.868926 Y194.267673 Z-0.125000 I0.561018 J0.022695
G03 X42.139943 Y193.954496 Z-0.125000 I1.715093 J1.210350
