%
(Header)
(Generated by gcodetools from Inkscape.)
(Using default header. To add your own header create file "header" in the output dir.)
M3
(Header end.)
G21 (All units in mm)

(Start cutting path id: path3327)
(Change tool to Default tool)

G00 Z5.000000
G00 X85.187014 Y202.523678

G01 Z-0.125000 F100.0(Penetrate)
G03 X85.114452 Y202.487267 Z-0.125000 I0.026951 J-0.144217 F400.000000
G03 X85.072362 Y202.417845 Z-0.125000 I0.099513 J-0.107805
G02 X84.720166 Y201.171096 Z-0.125000 I-43.057420 J11.490223
G02 X84.243334 Y199.798470 Z-0.125000 I-15.654001 J4.668857
G02 X83.629263 Y198.370353 Z-0.125000 I-26.375241 J10.494910
G03 X83.079167 Y196.905692 Z-0.125000 I9.577432 J-4.432717
G03 X82.871522 Y195.862881 Z-0.125000 I5.771042 J-1.691209
G03 X82.823403 Y194.647914 Z-0.125000 I8.837620 J-0.958453
G03 X82.823138 Y194.639095 Z-0.125000 I0.146448 J-0.008819
G03 X82.823403 Y194.630275 Z-0.125000 I0.146713 J-0.000000
G03 X82.841415 Y194.211553 Z-0.125000 I16.078258 J0.481880
G03 X82.876320 Y193.721873 Z-0.125000 I16.185378 J0.907620
G03 X83.112646 Y191.700914 Z-0.125000 I33.549926 J2.898944
G03 X83.590695 Y188.615414 Z-0.125000 I217.910821 J32.182052
G03 X84.117926 Y185.390321 Z-0.125000 I1247.196878 J202.233193
G02 X84.516737 Y182.556456 Z-0.125000 I-60.019776 J-9.891602
G03 X84.516671 Y182.552053 Z-0.125000 I0.146647 J-0.004403
G03 X84.516737 Y182.547651 Z-0.125000 I0.146713 J0.000000
G02 X84.724811 Y179.992051 Z-0.125000 I-36.159264 J-4.230323
G03 X84.807778 Y178.331956 Z-0.125000 I211.888905 J9.757529
G03 X84.933222 Y176.648528 Z-0.125000 I40.905059 J2.201730
G02 X85.072362 Y175.183414 Z-0.125000 I-2434.263571 J-231.917307
G02 X85.072362 Y175.165775 Z-0.125000 I-0.086431 J-0.008819
G03 X85.072362 Y175.148137 Z-0.125000 I0.086431 J-0.008819
G03 X85.120965 Y175.056660 Z-0.125000 I0.145521 J0.018667
G03 X85.217882 Y175.020091 Z-0.125000 I0.096918 J0.110144
G03 X85.314800 Y175.056660 Z-0.125000 I0.000000 J0.146713
G03 X85.363403 Y175.148137 Z-0.125000 I-0.096918 J0.110144
G03 X85.363404 Y175.165753 Z-0.125000 I-0.086375 J0.008814
G02 X85.363403 Y175.183414 Z-0.125000 I0.086705 J0.008836
G03 X85.494342 Y176.649888 Z-0.125000 I-142.759956 J13.485877
G03 X85.610348 Y178.331956 Z-0.125000 I-55.778000 J4.691819
G03 X85.696896 Y179.991162 Z-0.125000 I-478.093007 J25.770382
G02 X85.910209 Y182.547651 Z-0.125000 I38.984358 J-1.965702
G01 X85.910208 Y182.552070 Z-0.125000
G01 X85.910209 Y182.556456 Z-0.125000
G02 X86.305222 Y185.389531 Z-0.125000 I64.991490 J-7.617622
G02 X86.827431 Y188.615414 Z-0.125000 I17105.474350 J-2767.397344
G03 X87.305620 Y191.701923 Z-0.125000 I-219.434096 J35.576938
G03 X87.541806 Y193.721873 Z-0.125000 I-33.222562 J4.908390
G03 X87.570588 Y195.555001 Z-0.125000 I-12.979088 J1.120575
G03 X87.338959 Y196.905692 Z-0.125000 I-5.956665 J-0.326298
G03 X86.788903 Y198.370366 Z-0.125000 I-10.118032 J-2.964191
G02 X86.174792 Y199.798470 Z-0.125000 I25.743489 J11.916253
G02 X85.703054 Y201.170140 Z-0.125000 I14.200189 J5.650616
G02 X85.354584 Y202.417845 Z-0.125000 I54.441812 J15.877504
G03 X85.291371 Y202.503334 Z-0.125000 I-0.141557 J-0.038555
G03 X85.187014 Y202.523678 Z-0.125000 I-0.078344 J-0.124044
G01 X85.187014 Y202.523678 Z-0.125000
G00 Z5.000000

(End cutting path id: path3327)


(Start cutting path id: path3327)
(Change tool to Default tool)

G00 Z5.000000
G00 X85.213459 Y201.888678

G01 Z-0.125000 F100.0(Penetrate)
G03 X85.503959 Y200.846810 Z-0.125000 I65.939769 J17.824347 F400.000000
G03 X85.901375 Y199.683817 Z-0.125000 I11.950831 J3.434417
G03 X86.528844 Y198.223903 Z-0.125000 I27.123297 J10.792753
G02 X87.056723 Y196.817498 Z-0.125000 I-9.211016 J-4.259520
G02 X87.277281 Y195.538100 Z-0.125000 I-5.465155 J-1.600863
G02 X87.250750 Y193.748331 Z-0.125000 I-12.542664 J-0.709151
G02 X87.016354 Y191.750069 Z-0.125000 I-32.705703 J2.823495
G02 X86.536375 Y188.659511 Z-0.125000 I-232.311353 J34.496578
G03 X86.015493 Y185.434691 Z-0.125000 I3638.115077 J-589.293159
G03 X85.619153 Y182.582914 Z-0.125000 I65.801515 J-10.598528
G03 X85.404600 Y179.996227 Z-0.125000 I38.332137 J-4.481698
G02 X85.319292 Y178.340761 Z-0.125000 I-350.179671 J17.215335
G02 X85.268373 Y177.632599 Z-0.125000 I-19.708768 J1.061215
G03 X85.213459 Y176.982567 Z-0.125000 I59.197028 J-5.328245
G03 X85.153469 Y177.632877 Z-0.125000 I-38.866337 J-3.257434
G02 X85.098806 Y178.340761 Z-0.125000 I15.164929 J1.527087
G02 X85.016975 Y179.996086 Z-0.125000 I185.623577 J10.006014
G03 X84.807764 Y182.582914 Z-0.125000 I-36.255960 J-1.630336
G03 X84.407037 Y185.438363 Z-0.125000 I-61.886018 J-7.229100
G02 X83.881722 Y188.659511 Z-0.125000 I1772.820767 J290.770308
G02 X83.401891 Y191.748988 Z-0.125000 I229.650534 J37.249382
G02 X83.167347 Y193.748331 Z-0.125000 I32.558013 J4.832820
G02 X83.137116 Y194.237947 Z-0.125000 I9.932207 J0.859017
G02 X83.123250 Y194.656734 Z-0.125000 I52.785682 J1.957264
G02 X83.167076 Y195.830117 Z-0.125000 I8.871337 J0.256166
G02 X83.361375 Y196.817498 Z-0.125000 I5.521301 J-0.573688
G02 X83.889313 Y198.223938 Z-0.125000 I9.748440 J-2.856978
G03 X84.516722 Y199.683817 Z-0.125000 I-26.513113 J12.259257
G03 X84.917500 Y200.845303 Z-0.125000 I-12.260585 J4.880480
G03 X85.213459 Y201.888678 Z-0.125000 I-55.956276 J16.435915
G01 X85.213459 Y201.888678 Z-0.125000
G00 Z5.000000

(End cutting path id: path3327)


(Start cutting path id: path3327)
(Change tool to Default tool)

G00 Z5.000000
G00 X92.330764 Y193.254442

G01 Z-0.125000 F100.0(Penetrate)
G03 X91.905269 Y193.197393 Z-0.125000 I0.236572 J-3.379711 F400.000000
G03 X91.440001 Y193.069234 Z-0.125000 I0.654538 J-3.284876
G03 X90.571342 Y192.631969 Z-0.125000 I1.299298 J-3.662608
G03 X89.587917 Y191.799234 Z-0.125000 I3.250121 J-4.835316
G03 X88.813367 Y190.809041 Z-0.125000 I4.888866 J-4.622209
G03 X87.956320 Y189.206317 Z-0.125000 I9.669991 J-6.201481
G03 X87.291453 Y187.421188 Z-0.125000 I15.711138 J-6.867951
G03 X86.677501 Y185.061178 Z-0.125000 I25.079988 J-7.784383
G03 X86.258880 Y182.611536 Z-0.125000 I31.410101 J-6.628283
G03 X86.024862 Y180.457428 Z-0.125000 I48.119165 J-6.317336
G03 X85.900164 Y178.386923 Z-0.125000 I40.382857 J-3.471097
G03 X85.883750 Y177.273609 Z-0.125000 I28.072899 J-0.970650
G03 X85.882686 Y177.255970 Z-0.125000 I0.145649 J-0.017639
G03 X85.883750 Y177.238331 Z-0.125000 I0.146713 J0.000000
G02 X85.883749 Y177.233928 Z-0.125000 I-0.362573 J-0.002072
G03 X85.883750 Y177.229525 Z-0.125000 I0.324409 J-0.002085
G02 X85.883747 Y177.220649 Z-0.125000 I-0.687813 J-0.004202
G03 X85.883750 Y177.211887 Z-0.125000 I0.613271 J-0.004168
G03 X85.923056 Y176.265831 Z-0.125000 I13.947562 J0.105634
G03 X85.971945 Y175.791956 Z-0.125000 I8.691211 J0.657196
G02 X85.971945 Y175.774317 Z-0.125000 I-0.067469 J-0.008819
G03 X85.971945 Y175.756678 Z-0.125000 I0.067469 J-0.008819
G03 X85.994153 Y175.682195 Z-0.125000 I0.149938 J0.004153
G03 X86.050657 Y175.628826 Z-0.125000 I0.127730 J0.078637
G03 X86.126285 Y175.610901 Z-0.125000 I0.071226 J0.132006
G03 X86.200732 Y175.633233 Z-0.125000 I-0.004403 J0.149931
G03 X86.254007 Y175.689826 Z-0.125000 I-0.078849 J0.127599
G03 X86.271806 Y175.765484 Z-0.125000 I-0.132124 J0.071006
G02 X86.357473 Y176.684144 Z-0.125000 I203.491366 J-18.512666
G02 X86.465834 Y177.714581 Z-0.125000 I54.092169 J-5.167420
G02 X86.596201 Y178.745784 Z-0.125000 I45.193807 J-5.189655
G02 X86.809792 Y180.122289 Z-0.125000 I41.163154 J-5.682437
G02 X87.082822 Y181.557197 Z-0.125000 I42.204425 J-7.287106
G02 X87.488889 Y183.173817 Z-0.125000 I19.902438 J-4.139842
G02 X88.036627 Y184.753571 Z-0.125000 I17.258311 J-5.099022
G02 X88.582501 Y185.934303 Z-0.125000 I11.438349 J-4.571607
G02 X89.245985 Y186.973518 Z-0.125000 I6.627784 J-3.500087
G02 X89.711389 Y187.477706 Z-0.125000 I2.882101 J-2.193506
G02 X90.225423 Y187.822466 Z-0.125000 I1.481370 J-1.653116
G02 X90.822639 Y188.042150 Z-0.125000 I1.410958 J-2.914105
G02 X91.593824 Y188.225299 Z-0.125000 I4.705908 J-18.099941
G03 X92.339584 Y188.483123 Z-0.125000 I-0.688384 J3.198646
G03 X92.851908 Y188.900381 Z-0.125000 I-0.637553 J1.305961
G03 X93.142153 Y189.382706 Z-0.125000 I-1.919844 J1.483786
G03 X93.387496 Y189.945175 Z-0.125000 I-19.035919 J8.638017
G02 X93.697778 Y190.511595 Z-0.125000 I2.854988 J-1.195751
G02 X94.153683 Y191.013790 Z-0.125000 I2.123326 J-1.469569
G02 X94.588542 Y191.278886 Z-0.125000 I1.068490 J-1.263514
G02 X95.020602 Y191.361503 Z-0.125000 I0.416049 J-1.004736
G02 X95.435209 Y191.331803 Z-0.125000 I-0.053915 J-3.661484
G03 X95.513814 Y191.345697 Z-0.125000 I0.014729 J0.145972
G03 X95.573510 Y191.398689 Z-0.125000 I-0.063876 J0.132078
G03 X95.596627 Y191.475092 Z-0.125000 I-0.123572 J0.079086
G03 X95.576320 Y191.552289 Z-0.125000 I-0.146689 J0.002683
G03 X95.203231 Y192.148794 Z-0.125000 I-9.445418 J-5.492794
G03 X94.685556 Y192.689998 Z-0.125000 I-1.816093 J-1.218952
G03 X94.000318 Y193.037318 Z-0.125000 I-1.378473 J-1.870004
G03 X93.177431 Y193.219164 Z-0.125000 I-1.471945 J-4.708042
G03 X92.763763 Y193.257826 Z-0.125000 I-0.703089 J-5.290489
G03 X92.330764 Y193.254442 Z-0.125000 I-0.189278 J-3.485214
G01 X92.330764 Y193.254442 Z-0.125000
G00 Z5.000000

(End cutting path id: path3327)


(Start cutting path id: path3327)
(Change tool to Default tool)

G00 Z5.000000
G00 X78.069723 Y193.219164

G01 Z-0.125000 F100.0(Penetrate)
G03 X77.636867 Y193.222498 Z-0.125000 I-0.243194 J-3.473833 F400.000000
G03 X77.223056 Y193.183886 Z-0.125000 I0.293689 J-5.384352
G03 X76.404798 Y193.001570 Z-0.125000 I0.632639 J-4.766733
G03 X75.723750 Y192.654720 Z-0.125000 I0.703944 J-2.224261
G03 X75.217110 Y192.131092 Z-0.125000 I1.304150 J-1.768757
G03 X74.850625 Y191.552289 Z-0.125000 I7.447280 J-5.120871
G03 X74.841430 Y191.543845 Z-0.125000 I0.094547 J-0.112186
G03 X74.832987 Y191.534650 Z-0.125000 I0.103742 J-0.103742
G03 X74.828584 Y191.525831 Z-0.125000 I0.067501 J-0.039205
G02 X74.824181 Y191.517011 Z-0.125000 I-0.071904 J0.030386
G03 X74.812824 Y191.491399 Z-0.125000 I0.127827 J-0.072007
G03 X74.806542 Y191.464095 Z-0.125000 I0.139184 J-0.046395
G03 X74.811194 Y191.413252 Z-0.125000 I0.146200 J-0.012260
G03 X74.832987 Y191.367081 Z-0.125000 I0.141549 J0.038584
G01 X74.832987 Y191.358276 Z-0.125000
G03 X74.894789 Y191.307401 Z-0.125000 I0.120608 J0.083537
G03 X74.974098 Y191.296539 Z-0.125000 I0.058805 J0.134412
G01 X74.978500 Y191.296539 Z-0.125000
G01 X74.982903 Y191.296539 Z-0.125000
G02 X75.393292 Y191.325648 Z-0.125000 I0.459210 J-3.566748
G02 X75.820750 Y191.243623 Z-0.125000 I0.014643 J-1.078517
G02 X76.253891 Y190.979894 Z-0.125000 I-0.632366 J-1.526131
G02 X76.711514 Y190.476331 Z-0.125000 I-1.665533 J-1.973308
G02 X77.016879 Y189.910434 Z-0.125000 I-2.391009 J-1.655556
G03 X77.258320 Y189.347442 Z-0.125000 I13.474742 J5.445413
G03 X77.552031 Y188.864894 Z-0.125000 I2.125566 J0.963104
G03 X78.069709 Y188.447859 Z-0.125000 I1.171773 J0.924732
G03 X78.815309 Y188.189928 Z-0.125000 I1.431635 J2.931810
G02 X79.586653 Y188.006887 Z-0.125000 I-3.942003 J-18.328495
G02 X80.179099 Y187.790971 Z-0.125000 I-0.834981 J-3.211838
G02 X80.689084 Y187.451262 Z-0.125000 I-0.924816 J-1.941030
G02 X81.154564 Y186.944121 Z-0.125000 I-2.357227 J-2.630782
G02 X81.817972 Y185.899039 Z-0.125000 I-6.236458 J-4.691949
G02 X82.363926 Y184.718281 Z-0.125000 I-10.902096 J-5.757461
G02 X82.911584 Y183.138553 Z-0.125000 I-16.662197 J-6.661215
G02 X83.322448 Y181.521935 Z-0.125000 I-20.887950 J-6.169208
G02 X83.599500 Y180.087026 Z-0.125000 I-36.006051 J-7.696240
G02 X83.808125 Y178.710493 Z-0.125000 I-33.534880 J-5.786569
G02 X83.934639 Y177.679317 Z-0.125000 I-65.385981 J-8.545482
G02 X84.047552 Y176.667688 Z-0.125000 I-152.682517 J-17.553720
G02 X84.137486 Y175.765498 Z-0.125000 I-53.108427 J-5.749677
G02 X84.137486 Y175.747859 Z-0.125000 I-0.087533 J-0.008819
G03 X84.137486 Y175.730220 Z-0.125000 I0.087533 J-0.008819
G03 X84.183158 Y175.636968 Z-0.125000 I0.146069 J0.013730
G03 X84.279119 Y175.597304 Z-0.125000 I0.100398 J0.106982
G03 X84.377302 Y175.631094 Z-0.125000 I0.004437 J0.146646
G03 X84.428528 Y175.721415 Z-0.125000 I-0.093747 J0.112855
G03 X84.428530 Y175.739025 Z-0.125000 I-0.066752 J0.008812
G02 X84.428528 Y175.756692 Z-0.125000 I0.067081 J0.008841
G03 X84.483300 Y176.229849 Z-0.125000 I-14.756571 J1.947956
G03 X84.534361 Y177.194262 Z-0.125000 I-10.370769 J1.032642
G03 X84.512839 Y178.311708 Z-0.125000 I-21.914082 J0.136862
G03 X84.375611 Y180.413359 Z-0.125000 I-51.466993 J-2.305245
G03 X84.145933 Y182.571620 Z-0.125000 I-53.297767 J-4.580506
G03 X83.731792 Y185.025929 Z-0.125000 I-30.224780 J-3.838046
G03 X83.112479 Y187.387706 Z-0.125000 I-24.647720 J-5.201118
G03 X82.444153 Y189.171067 Z-0.125000 I-16.946206 J-5.333786
G03 X81.587011 Y190.773762 Z-0.125000 I-10.552342 J-4.612977
G03 X80.812556 Y191.763984 Z-0.125000 I-5.659530 J-3.628371
G03 X79.829072 Y192.596600 Z-0.125000 I-4.229893 J-3.999187
G03 X78.960472 Y193.033984 Z-0.125000 I-2.173012 J-3.234209
G03 X78.495183 Y193.162149 Z-0.125000 I-1.119682 J-3.156220
G03 X78.069709 Y193.219192 Z-0.125000 I-0.662060 J-3.322866
G01 X78.069723 Y193.219164 Z-0.125000
G00 Z5.000000

(End cutting path id: path3327)


(Start cutting path id: path3327)
(Change tool to Default tool)

G00 Z5.000000
G00 X92.357223 Y192.963400

G01 Z-0.125000 F100.0(Penetrate)
G02 X92.752063 Y192.965533 Z-0.125000 I0.214021 J-3.072036 F400.000000
G02 X93.142153 Y192.928123 Z-0.125000 I-0.312209 J-5.307967
G02 X93.926649 Y192.755388 Z-0.125000 I-0.624271 J-4.703005
G02 X94.509167 Y192.460692 Z-0.125000 I-0.583550 J-1.876563
G02 X94.866951 Y192.102331 Z-0.125000 I-1.001537 J-1.357708
G02 X95.170626 Y191.649303 Z-0.125000 I-5.061664 J-3.721238
G03 X94.859041 Y191.645037 Z-0.125000 I-0.128147 J-2.021072
G03 X94.482709 Y191.552289 Z-0.125000 I0.116749 J-1.283598
G03 X93.951354 Y191.229214 Z-0.125000 I0.779547 J-1.880593
G03 X93.450834 Y190.679164 Z-0.125000 I1.807337 J-2.147345
G01 X93.459639 Y190.679164 Z-0.125000
G01 X93.459639 Y190.670359 Z-0.125000
G03 X93.111199 Y190.036968 Z-0.125000 I2.995380 J-2.060353
G02 X92.877556 Y189.506192 Z-0.125000 I-23.562795 J10.055327
G02 X92.616765 Y189.077769 Z-0.125000 I-1.886828 J0.854970
G02 X92.207278 Y188.747720 Z-0.125000 I-0.928311 J0.732694
G02 X91.564802 Y188.522836 Z-0.125000 I-1.277602 J2.619813
G03 X90.743250 Y188.324387 Z-0.125000 I5.307610 J-23.772537
G03 X90.098173 Y188.087406 Z-0.125000 I0.882650 J-3.399101
G03 X89.517348 Y187.698206 Z-0.125000 I1.087514 J-2.250957
G03 X89.008695 Y187.146027 Z-0.125000 I2.616020 J-2.920177
G03 X88.326723 Y186.075428 Z-0.125000 I6.227412 J-4.719374
G03 X87.763778 Y184.858637 Z-0.125000 I11.284159 J-5.959201
G03 X87.206653 Y183.253206 Z-0.125000 I16.881532 J-6.757696
G03 X86.793869 Y181.615157 Z-0.125000 I20.135662 J-5.945171
G03 X86.518736 Y180.175220 Z-0.125000 I40.260603 J-8.438950
G03 X86.329772 Y178.942456 Z-0.125000 I33.033623 J-5.694440
G03 X86.210056 Y177.996817 Z-0.125000 I62.399311 J-8.380008
G02 X86.235423 Y178.957605 Z-0.125000 I53.895891 J-0.942236
G02 X86.324709 Y180.430984 Z-0.125000 I29.255641 J-1.033481
G02 X86.556015 Y182.574822 Z-0.125000 I49.758094 J-4.284187
G02 X86.968528 Y184.999456 Z-0.125000 I30.918394 J-4.012863
G02 X87.577271 Y187.334081 Z-0.125000 I25.119774 J-5.303195
G02 X88.229709 Y189.082859 Z-0.125000 I16.203417 J-5.049106
G02 X89.069309 Y190.652032 Z-0.125000 I10.276263 J-4.489203
G02 X89.808389 Y191.596401 Z-0.125000 I5.414760 J-3.476298
G02 X90.743916 Y192.388100 Z-0.125000 I4.015658 J-3.796590
G02 X91.537000 Y192.787026 Z-0.125000 I1.981923 J-2.952353
G02 X91.965372 Y192.908198 Z-0.125000 I1.141675 J-3.218297
G02 X92.357209 Y192.963414 Z-0.125000 I0.587208 J-2.749131
G01 X92.357223 Y192.963400 Z-0.125000
G00 Z5.000000

(End cutting path id: path3327)


(Start cutting path id: path3327)
(Change tool to Default tool)

G00 Z5.000000
G00 X78.052084 Y192.928123

G01 Z-0.125000 F100.0(Penetrate)
G02 X78.439681 Y192.872626 Z-0.125000 I-0.187482 J-2.690673 F400.000000
G02 X78.863473 Y192.751734 Z-0.125000 I-0.746000 J-3.418382
G02 X79.660627 Y192.352934 Z-0.125000 I-1.220951 J-3.436650
G02 X80.600903 Y191.561109 Z-0.125000 I-3.002314 J-4.519379
G02 X81.339836 Y190.616794 Z-0.125000 I-4.672003 J-4.417141
G02 X82.179584 Y189.047567 Z-0.125000 I-9.460889 J-6.072153
G02 X82.831560 Y187.300509 Z-0.125000 I-15.539036 J-6.794123
G02 X83.440764 Y184.964164 Z-0.125000 I-24.477508 J-7.630132
G02 X83.853402 Y182.539508 Z-0.125000 I-30.504093 J-6.438749
G02 X84.084584 Y180.395692 Z-0.125000 I-49.291835 J-6.399835
G02 X84.179611 Y178.868564 Z-0.125000 I-32.440515 J-2.785171
G02 X84.208056 Y177.890970 Z-0.125000 I-51.119483 J-1.976623
G03 X84.082245 Y178.862737 Z-0.125000 I-41.167732 J-4.835787
G03 X83.881737 Y180.139928 Z-0.125000 I-42.245015 J-5.977795
G03 X83.606677 Y181.579861 Z-0.125000 I-40.434619 J-6.977677
G03 X83.193820 Y183.217914 Z-0.125000 I-20.525683 J-4.302268
G03 X82.636743 Y184.823399 Z-0.125000 I-17.389810 J-5.134585
G03 X82.073750 Y186.040136 Z-0.125000 I-11.857264 J-4.747820
G03 X81.397050 Y187.110549 Z-0.125000 I-7.227472 J-3.820008
G03 X80.891945 Y187.662914 Z-0.125000 I-3.020439 J-2.254882
G03 X80.306859 Y188.052481 Z-0.125000 I-1.643601 J-1.834355
G03 X79.657223 Y188.289095 Z-0.125000 I-1.567102 J-3.292453
G03 X78.835307 Y188.487506 Z-0.125000 I-6.156129 J-23.700040
G02 X78.193195 Y188.712428 Z-0.125000 I0.633088 J2.836375
G02 X77.783636 Y189.042443 Z-0.125000 I0.517248 J1.061066
G02 X77.522917 Y189.470900 Z-0.125000 I1.628334 J1.284405
G02 X77.293534 Y190.006191 Z-0.125000 I12.420614 J5.639289
G03 X76.949653 Y190.643886 Z-0.125000 I-3.031204 J-1.223025
G03 X76.459916 Y191.191739 Z-0.125000 I-2.443627 J-1.691592
G03 X75.935417 Y191.517011 Z-0.125000 I-1.255536 J-1.439029
G03 X75.551112 Y191.610735 Z-0.125000 I-0.494960 J-1.194781
G03 X75.229862 Y191.614025 Z-0.125000 I-0.182399 J-2.123904
G02 X75.533550 Y192.062153 Z-0.125000 I4.712211 J-2.866422
G02 X75.891320 Y192.416595 Z-0.125000 I1.389253 J-1.044510
G02 X76.477230 Y192.715862 Z-0.125000 I1.200778 J-1.627717
G02 X77.267153 Y192.892845 Z-0.125000 I1.392702 J-4.364698
G02 X77.657413 Y192.930215 Z-0.125000 I0.706486 J-5.321459
G02 X78.052084 Y192.928123 Z-0.125000 I0.181073 J-3.068498
G01 X78.052084 Y192.928123 Z-0.125000
G00 Z5.000000

(End cutting path id: path3327)


(Start cutting path id: path3327)
(Change tool to Default tool)

G00 Z5.000000
G00 X93.080417 Y186.860345

G01 Z-0.125000 F100.0(Penetrate)
G03 X92.689638 Y186.794559 Z-0.125000 I0.338219 J-3.202604 F400.000000
G03 X92.260209 Y186.675136 Z-0.125000 I1.176487 J-5.062323
G03 X91.431123 Y186.320881 Z-0.125000 I1.553809 J-4.783786
G03 X90.443403 Y185.634442 Z-0.125000 I2.509234 J-4.664380
G03 X89.634314 Y184.769499 Z-0.125000 I3.996987 J-4.549775
G03 X88.758889 Y183.429581 Z-0.125000 I8.432660 J-6.465343
G03 X88.007229 Y181.882820 Z-0.125000 I14.780223 J-8.138587
G03 X87.418334 Y180.298678 Z-0.125000 I17.119022 J-7.265418
G03 X87.022523 Y178.767475 Z-0.125000 I13.121140 J-4.208532
G03 X86.853889 Y177.705761 Z-0.125000 I13.869489 J-2.747157
G03 X86.771082 Y176.665280 Z-0.125000 I12.911258 J-1.551081
G03 X86.748056 Y175.844859 Z-0.125000 I36.562737 J-1.436725
G03 X86.759338 Y175.787456 Z-0.125000 I0.146710 J-0.000974
G03 X86.792153 Y175.739025 Z-0.125000 I0.135428 J0.056428
G03 X86.816677 Y175.718485 Z-0.125000 I0.105906 J0.101532
G03 X86.845070 Y175.703747 Z-0.125000 I0.081382 J0.122073
G03 X86.955650 Y175.710096 Z-0.125000 I0.047503 J0.138810
G03 X87.030278 Y175.791942 Z-0.125000 I-0.063077 J0.132462
G03 X87.034693 Y175.814012 Z-0.125000 I-0.086557 J0.028791
G02 X87.039084 Y175.836039 Z-0.125000 I0.091296 J-0.006746
G02 X87.197038 Y176.311087 Z-0.125000 I7426.582706 J-2469.083839
G03 X87.383042 Y176.876734 Z-0.125000 I-84.672408 J28.156666
G02 X87.580708 Y177.464079 Z-0.125000 I29.649852 J-9.651474
G02 X87.938667 Y178.402498 Z-0.125000 I15.898519 J-5.526994
G02 X88.394883 Y179.411314 Z-0.125000 I16.745303 J-6.965149
G02 X89.032278 Y180.572081 Z-0.125000 I12.676945 J-6.205721
G02 X89.774632 Y181.638315 Z-0.125000 I9.381031 J-5.739900
G02 X90.364014 Y182.283053 Z-0.125000 I4.686319 J-3.692199
G02 X90.997521 Y182.747304 Z-0.125000 I2.177730 J-2.307320
G02 X91.378250 Y182.900414 Z-0.125000 I0.794867 J-1.426626
G02 X91.780920 Y182.964370 Z-0.125000 I0.524646 J-2.003622
G03 X92.269014 Y183.006248 Z-0.125000 I-0.541109 J9.172084
G03 X92.827108 Y183.101162 Z-0.125000 I-0.562783 J4.997382
G03 X93.336167 Y183.279650 Z-0.125000 I-0.535695 J2.343012
G03 X93.715824 Y183.552834 Z-0.125000 I-0.588073 J1.217679
G03 X93.962348 Y183.861734 Z-0.125000 I-1.420976 J1.386861
G03 X94.194310 Y184.232776 Z-0.125000 I-12.564813 J8.113089
G02 X94.447417 Y184.567289 Z-0.125000 I1.734407 J-1.049316
G02 X94.768078 Y184.823006 Z-0.125000 I1.031050 J-0.964000
G02 X95.064778 Y184.920067 Z-0.125000 I0.374676 J-0.643307
G01 X95.069110 Y184.920084 Z-0.125000
G01 X95.073583 Y184.920067 Z-0.125000
G02 X95.382646 Y184.882977 Z-0.125000 I0.062121 J-0.788576
G02 X95.708583 Y184.743678 Z-0.125000 I-0.641195 J-1.951267
G02 X95.992781 Y184.571649 Z-0.125000 I-1.441078 J-2.701466
G02 X96.237750 Y184.399720 Z-0.125000 I-6.310540 J-9.251923
G03 X96.320247 Y184.371980 Z-0.125000 I0.085904 J0.118934
G03 X96.403943 Y184.395859 Z-0.125000 I0.003407 J0.146674
G03 X96.459383 Y184.462953 Z-0.125000 I-0.080289 J0.122795
G03 X96.467056 Y184.549650 Z-0.125000 I-0.135729 J0.055700
G03 X96.346690 Y185.043786 Z-0.125000 I-17.349300 J-3.964368
G03 X96.167195 Y185.537428 Z-0.125000 I-2.665687 J-0.689827
G03 X95.892221 Y185.960870 Z-0.125000 I-1.739253 J-0.828430
G03 X95.382264 Y186.384095 Z-0.125000 I-1.482450 J-1.267406
G03 X94.707994 Y186.676125 Z-0.125000 I-1.624500 J-2.826385
G03 X93.874139 Y186.851525 Z-0.125000 I-1.405844 J-4.613626
G03 X93.475328 Y186.878208 Z-0.125000 I-0.455611 J-3.816060
G03 X93.080389 Y186.860331 Z-0.125000 I-0.048709 J-3.295345
G01 X93.080417 Y186.860345 Z-0.125000
G00 Z5.000000

(End cutting path id: path3327)


(Start cutting path id: path3327)
(Change tool to Default tool)

G00 Z5.000000
G00 X77.311250 Y186.807428

G01 Z-0.125000 F100.0(Penetrate)
G03 X76.916318 Y186.825303 Z-0.125000 I-0.346272 J-3.278852 F400.000000
G03 X76.517500 Y186.798623 Z-0.125000 I0.056706 J-3.841789
G03 X75.683915 Y186.623399 Z-0.125000 I0.570201 J-4.782992
G03 X75.009375 Y186.331192 Z-0.125000 I0.949399 J-3.116295
G03 X74.499403 Y185.907878 Z-0.125000 I0.969490 J-1.686800
G03 X74.224445 Y185.484526 Z-0.125000 I1.471446 J-1.256639
G03 X74.055746 Y185.022216 Z-0.125000 I2.353112 J-1.120595
G03 X73.942223 Y184.558484 Z-0.125000 I15.139676 J-3.952014
G03 X73.942157 Y184.554081 Z-0.125000 I0.146647 J-0.004403
G03 X73.942223 Y184.549679 Z-0.125000 I0.146713 J-0.000000
G03 X73.942157 Y184.545276 Z-0.125000 I0.146647 J-0.004403
G03 X73.942223 Y184.540873 Z-0.125000 I0.146713 J-0.000000
G01 X73.937785 Y184.536469 Z-0.125000
G01 X73.933417 Y184.532068 Z-0.125000
G03 X73.928385 Y184.519055 Z-0.125000 I0.134167 J-0.059363
G03 X73.924612 Y184.505624 Z-0.125000 I0.139199 J-0.046350
G01 X73.924623 Y184.501110 Z-0.125000
G01 X73.924612 Y184.496818 Z-0.125000
G03 X73.920116 Y184.492509 Z-0.125000 I0.099246 J-0.108051
G03 X73.915807 Y184.488013 Z-0.125000 I0.103742 J-0.103742
G03 X73.915541 Y184.479194 Z-0.125000 I0.146448 J-0.008819
G03 X73.915807 Y184.470374 Z-0.125000 I0.146713 J-0.000000
G03 X73.915741 Y184.465971 Z-0.125000 I0.146647 J-0.004403
G03 X73.915807 Y184.461569 Z-0.125000 I0.146713 J0.000000
G03 X73.919112 Y184.443656 Z-0.125000 I0.145652 J0.017617
G03 X73.924612 Y184.426291 Z-0.125000 I0.142346 J0.035530
G03 X73.924546 Y184.421888 Z-0.125000 I0.146647 J-0.004403
G03 X73.924612 Y184.417486 Z-0.125000 I0.146713 J0.000000
G03 X73.924546 Y184.413083 Z-0.125000 I0.146647 J-0.004403
G03 X73.924612 Y184.408680 Z-0.125000 I0.146713 J0.000000
G03 X73.928921 Y184.404184 Z-0.125000 I0.108051 J0.099246
G03 X73.933417 Y184.399875 Z-0.125000 I0.103742 J0.103742
G03 X73.973467 Y184.349620 Z-0.125000 I0.131975 J0.064090
G03 X74.031153 Y184.321303 Z-0.125000 I0.091925 J0.114344
G03 X74.095407 Y184.320355 Z-0.125000 I0.034239 J0.142662
G03 X74.153903 Y184.346958 Z-0.125000 I-0.030016 J0.143610
G03 X74.163098 Y184.355402 Z-0.125000 I-0.094547 J0.112186
G03 X74.171542 Y184.364597 Z-0.125000 I-0.103742 J0.103742
G02 X74.408151 Y184.527586 Z-0.125000 I4.043823 J-5.617137
G02 X74.683070 Y184.690917 Z-0.125000 I1.897200 J-2.880335
G02 X75.017019 Y184.837129 Z-0.125000 I1.112457 J-2.086377
G02 X75.335709 Y184.876125 Z-0.125000 I0.249167 J-0.714555
G02 X75.626000 Y184.780895 Z-0.125000 I-0.063451 J-0.683486
G02 X75.944251 Y184.523347 Z-0.125000 I-0.761610 J-1.266520
G02 X76.208876 Y184.181250 Z-0.125000 I-1.693651 J-1.583500
G03 X76.446959 Y183.808972 Z-0.125000 I46.797319 J29.666066
G03 X76.689487 Y183.500533 Z-0.125000 I1.774708 J1.145893
G03 X77.064320 Y183.226889 Z-0.125000 I0.935683 J0.888143
G03 X77.568079 Y183.049033 Z-0.125000 I1.054496 J2.184398
G03 X78.122653 Y182.953486 Z-0.125000 I1.093886 J4.691953
G03 X78.616455 Y182.916463 Z-0.125000 I0.742932 J6.597352
G02 X79.022237 Y182.856472 Z-0.125000 I-0.070591 J-1.879854
G02 X79.398557 Y182.700913 Z-0.125000 I-0.379273 J-1.450479
G02 X80.027653 Y182.230292 Z-0.125000 I-1.739270 J-2.980725
G02 X80.617034 Y181.585988 Z-0.125000 I-4.063596 J-4.308922
G02 X81.359390 Y180.519319 Z-0.125000 I-8.639832 J-6.804609
G02 X81.997024 Y179.358197 Z-0.125000 I-12.049602 J-7.372725
G02 X82.453001 Y178.349736 Z-0.125000 I-16.219376 J-7.940919
G02 X82.810840 Y177.416794 Z-0.125000 I-16.456086 J-6.847001
G02 X83.008626 Y176.832792 Z-0.125000 I-24.916064 J-8.763870
G03 X83.200174 Y176.264117 Z-0.125000 I28.027951 J9.124131
G02 X83.361403 Y175.792097 Z-0.125000 I-39.736678 J-13.836554
G02 X83.365817 Y175.770061 Z-0.125000 I-0.085233 J-0.028532
G03 X83.370209 Y175.748000 Z-0.125000 I0.090573 J0.006563
G03 X83.433877 Y175.675524 Z-0.125000 I0.135930 J0.055207
G03 X83.528788 Y175.658252 Z-0.125000 I0.072262 J0.127683
G03 X83.613907 Y175.703653 Z-0.125000 I-0.022649 J0.144954
G03 X83.652431 Y175.792097 Z-0.125000 I-0.107768 J0.099553
G02 X83.652431 Y175.814139 Z-0.125000 I0.655846 J0.011217
G03 X83.652431 Y175.836194 Z-0.125000 I-0.656466 J0.010835
G01 X83.652439 Y175.840644 Z-0.125000
G01 X83.652431 Y175.845000 Z-0.125000
G03 X83.628677 Y176.642411 Z-0.125000 I-30.821275 J-0.519057
G03 X83.546598 Y177.652986 Z-0.125000 I-13.219535 J-0.565081
G03 X83.374190 Y178.716137 Z-0.125000 I-12.940418 J-1.552946
G03 X82.973334 Y180.245903 Z-0.125000 I-14.304442 J-2.930903
G03 X82.384339 Y181.830547 Z-0.125000 I-17.699042 J-5.676750
G03 X81.632778 Y183.376805 Z-0.125000 I-15.501308 J-6.578656
G03 X80.757579 Y184.721939 Z-0.125000 I-9.576355 J-5.273480
G03 X79.948264 Y185.590486 Z-0.125000 I-4.740638 J-3.606010
G03 X78.960248 Y186.277056 Z-0.125000 I-3.495773 J-3.976439
G03 X78.131459 Y186.631180 Z-0.125000 I-2.384651 J-4.434104
G03 X77.702020 Y186.745884 Z-0.125000 I-1.293779 J-3.982527
G03 X77.311250 Y186.807569 Z-0.125000 I-0.795541 J-3.771103
G01 X77.311250 Y186.807428 Z-0.125000
G00 Z5.000000

(End cutting path id: path3327)


(Start cutting path id: path3327)
(Change tool to Default tool)

G00 Z5.000000
G00 X93.106876 Y186.569303

G01 Z-0.125000 F100.0(Penetrate)
G02 X93.468944 Y186.585479 Z-0.125000 I0.313990 J-2.967962 F400.000000
G02 X93.838889 Y186.560498 Z-0.125000 I-0.058228 J-3.614094
G02 X94.629586 Y186.391623 Z-0.125000 I-0.524487 J-4.391239
G02 X95.232362 Y186.128345 Z-0.125000 I-0.892174 J-2.864301
G02 X95.668070 Y185.770821 Z-0.125000 I-0.854755 J-1.485934
G02 X95.902639 Y185.413970 Z-0.125000 I-1.177016 J-1.029208
G02 X95.996866 Y185.144937 Z-0.125000 I-1.200636 J-0.571531
G03 X96.070209 Y184.849526 Z-0.125000 I10.696635 J2.498879
G02 X95.962818 Y184.922785 Z-0.125000 I1.020856 J1.611814
G03 X95.840903 Y184.999456 Z-0.125000 I-0.597379 J-0.814626
G03 X95.491769 Y185.153961 Z-0.125000 I-1.221630 J-2.288787
G03 X95.038334 Y185.211123 Z-0.125000 I-0.355994 J-0.996906
G03 X94.608058 Y185.073497 Z-0.125000 I0.098516 J-1.049425
G03 X94.226945 Y184.770151 Z-0.125000 I0.835746 J-1.441082
G03 X93.926728 Y184.365605 Z-0.125000 I1.633046 J-1.525569
G02 X93.715417 Y184.020498 Z-0.125000 I-7.312579 J4.240276
G02 X93.501968 Y183.752677 Z-0.125000 I-1.454622 J0.940347
G02 X93.212709 Y183.544248 Z-0.125000 I-0.735852 J0.716285
G02 X92.777424 Y183.390757 Z-0.125000 I-0.908157 J1.881488
G02 X92.233751 Y183.297303 Z-0.125000 I-1.075314 J4.627557
G02 X91.779382 Y183.257953 Z-0.125000 I-0.987699 J8.761791
G03 X91.307709 Y183.182651 Z-0.125000 I0.147958 J-2.441630
G03 X90.852029 Y182.999933 Z-0.125000 I0.499468 J-1.905199
G03 X90.161181 Y182.494734 Z-0.125000 I1.663161 J-2.999290
G03 X89.534648 Y181.809930 Z-0.125000 I4.378236 J-4.634695
G03 X88.776528 Y180.722026 Z-0.125000 I8.749271 J-6.905147
G03 X88.127306 Y179.539268 Z-0.125000 I12.224297 J-7.479546
G03 X87.665278 Y178.517164 Z-0.125000 I16.593619 J-8.116392
G03 X87.304259 Y177.559554 Z-0.125000 I14.007332 J-5.827621
G03 X87.109653 Y176.973762 Z-0.125000 I48.321415 J-16.378064
G01 X87.105234 Y176.964923 Z-0.125000
G01 X87.100848 Y176.956123 Z-0.125000
G03 X87.116126 Y177.288646 Z-0.125000 I-11.225130 J0.682359
G02 X87.144945 Y177.670498 Z-0.125000 I4.329574 J-0.134749
G02 X87.311126 Y178.710098 Z-0.125000 I13.396519 J-1.608360
G02 X87.700570 Y180.210498 Z-0.125000 I13.476585 J-2.697245
G02 X88.279147 Y181.771345 Z-0.125000 I17.806404 J-5.712846
G02 X89.014667 Y183.288484 Z-0.125000 I14.965537 J-6.318541
G02 X89.870567 Y184.595746 Z-0.125000 I8.971930 J-4.940344
G02 X90.637445 Y185.413970 Z-0.125000 I4.589066 J-3.532598
G02 X91.570410 Y186.066539 Z-0.125000 I3.399772 J-3.867381
G02 X92.348417 Y186.401748 Z-0.125000 I2.190642 J-4.013933
G02 X92.750913 Y186.511341 Z-0.125000 I1.334925 J-4.108790
G02 X93.106890 Y186.569317 Z-0.125000 I0.694233 J-3.140765
G01 X93.106876 Y186.569303 Z-0.125000
G00 Z5.000000

(End cutting path id: path3327)


(Start cutting path id: path3327)
(Change tool to Default tool)

G00 Z5.000000
G00 X77.284792 Y186.516386

G01 Z-0.125000 F100.0(Penetrate)
G02 X77.640766 Y186.458404 Z-0.125000 I-0.338566 J-3.200299 F400.000000
G02 X78.043264 Y186.348817 Z-0.125000 I-0.932459 J-4.218740
G02 X78.820965 Y186.017267 Z-0.125000 I-1.472738 J-4.532410
G02 X79.754237 Y185.369859 Z-0.125000 I-2.343690 J-4.374931
G02 X80.521345 Y184.548092 Z-0.125000 I-3.756303 J-4.275383
G02 X81.377014 Y183.235553 Z-0.125000 I-8.381370 J-6.399162
G02 X82.112419 Y181.718948 Z-0.125000 I-14.201438 J-7.822907
G02 X82.691112 Y180.157567 Z-0.125000 I-17.218225 J-7.269497
G02 X83.086311 Y178.655106 Z-0.125000 I-13.897254 J-4.458662
G02 X83.255556 Y177.617567 Z-0.125000 I-12.183009 J-2.519891
G02 X83.284929 Y177.215777 Z-0.125000 I-4.314146 J-0.517360
G03 X83.299653 Y176.867914 Z-0.125000 I11.084834 J0.294940
G03 X83.290899 Y176.894154 Z-0.125000 I-2.213925 J-0.724030
G02 X83.282014 Y176.920831 Z-0.125000 I2.063471 J0.702059
G03 X83.087392 Y177.506579 Z-0.125000 I-49.670104 J-16.178349
G03 X82.726389 Y178.464234 Z-0.125000 I-14.342782 J-4.859857
G03 X82.264699 Y179.490129 Z-0.125000 I-17.983204 J-7.476266
G03 X81.615139 Y180.677914 Z-0.125000 I-12.519376 J-6.074918
G03 X80.857049 Y181.760702 Z-0.125000 I-9.110448 J-5.571707
G03 X80.230487 Y182.441803 Z-0.125000 I-5.103234 J-4.065851
G03 X79.546407 Y182.951864 Z-0.125000 I-2.537160 J-2.689004
G03 X79.092778 Y183.138539 Z-0.125000 I-0.915892 J-1.581149
G03 X78.615925 Y183.209551 Z-0.125000 I-0.565286 J-2.159384
G02 X78.157917 Y183.244373 Z-0.125000 I0.251033 J6.331399
G02 X77.625726 Y183.338056 Z-0.125000 I0.487630 J4.328580
G02 X77.196598 Y183.491317 Z-0.125000 I0.500812 J2.079667
G02 X76.902245 Y183.699610 Z-0.125000 I0.474102 J0.982115
G02 X76.685070 Y183.967567 Z-0.125000 I1.129707 J1.137599
G02 X76.467605 Y184.320561 Z-0.125000 I8.366309 J5.397629
G03 X76.164723 Y184.726039 Z-0.125000 I-1.983060 J-1.165433
G03 X75.789705 Y185.027953 Z-0.125000 I-1.247187 J-1.165303
G03 X75.362153 Y185.167011 Z-0.125000 I-0.521996 J-0.878134
G03 X74.904894 Y185.106098 Z-0.125000 I-0.095208 J-1.032005
G03 X74.550764 Y184.946525 Z-0.125000 I1.021128 J-2.738865
G03 X74.428863 Y184.869877 Z-0.125000 I0.473339 J-0.888063
G02 X74.321459 Y184.796595 Z-0.125000 I-1.125970 J1.534890
G03 X74.394765 Y185.092162 Z-0.125000 I-11.188290 J2.931771
G02 X74.489028 Y185.361039 Z-0.125000 I1.295881 J-0.303350
G02 X74.723802 Y185.718069 Z-0.125000 I1.417190 J-0.676203
G02 X75.159306 Y186.075414 Z-0.125000 I1.287521 J-1.125076
G02 X75.762326 Y186.338855 Z-0.125000 I1.494401 J-2.598822
G02 X76.552778 Y186.507567 Z-0.125000 I1.313326 J-4.217149
G02 X76.922722 Y186.532561 Z-0.125000 I0.427942 J-3.583762
G02 X77.284792 Y186.516372 Z-0.125000 I0.047963 J-2.984319
G01 X77.284792 Y186.516386 Z-0.125000
G00 Z5.000000

(End cutting path id: path3327)


(Start cutting path id: path3327)
(Change tool to Default tool)

G00 Z5.000000
G00 X67.283542 Y184.055761

G01 Z-0.125000 F100.0(Penetrate)
G03 X66.684679 Y183.931691 Z-0.125000 I0.043014 J-1.714945 F400.000000
G03 X66.234028 Y183.650067 Z-0.125000 I0.570858 J-1.414856
G03 X66.229625 Y183.650133 Z-0.125000 I-0.004403 J-0.146647
G03 X66.225223 Y183.650067 Z-0.125000 I0.000000 J-0.146713
G03 X65.886222 Y183.213916 Z-0.125000 I1.056167 J-1.170734
G03 X65.757792 Y182.856317 Z-0.125000 I1.206043 J-0.635005
G03 X65.769333 Y182.503060 Z-0.125000 I0.730670 J-0.152945
G03 X65.837167 Y182.318331 Z-0.125000 I1.182274 J0.329319
G03 X65.877896 Y182.264308 Z-0.125000 I0.134358 J0.058930
G03 X65.938535 Y182.234305 Z-0.125000 I0.093629 J0.112953
G03 X66.006190 Y182.234702 Z-0.125000 I0.032990 J0.142956
G03 X66.066473 Y182.265414 Z-0.125000 I-0.034665 J0.142559
G02 X66.322031 Y182.462786 Z-0.125000 I28.658680 J-36.843280
G03 X66.569181 Y182.662289 Z-0.125000 I-3.873368 J5.051279
G02 X66.813344 Y182.867355 Z-0.125000 I20.012252 J-23.579815
G02 X67.001334 Y182.979789 Z-0.125000 I0.455149 J-0.547634
G02 X67.198199 Y183.015392 Z-0.125000 I0.183340 J-0.451695
G02 X67.521681 Y182.926873 Z-0.125000 I-0.019624 J-0.707032
G02 X67.850552 Y182.679311 Z-0.125000 I-0.725726 J-1.306307
G02 X68.236056 Y182.203678 Z-0.125000 I-2.037183 J-2.045197
G02 X68.480106 Y181.700956 Z-0.125000 I-1.914715 J-1.240109
G02 X68.597653 Y181.154164 Z-0.125000 I-2.259307 J-0.771730
G02 X68.587045 Y180.591793 Z-0.125000 I-2.464992 J-0.234786
G02 X68.447723 Y179.998817 Z-0.125000 I-3.082795 J0.411459
G02 X68.202153 Y179.444584 Z-0.125000 I-3.261733 J1.113692
G02 X67.812723 Y178.887567 Z-0.125000 I-2.837304 J1.569017
G02 X67.306074 Y178.391555 Z-0.125000 I-3.307727 J2.871901
G02 X66.727931 Y177.943886 Z-0.125000 I-6.702963 J8.059395
G02 X66.138024 Y177.555333 Z-0.125000 I-5.007975 J6.961099
G02 X65.651959 Y177.308886 Z-0.125000 I-1.951606 J3.246585
G02 X65.189720 Y177.165332 Z-0.125000 I-0.977680 J2.332109
G02 X64.452514 Y177.070761 Z-0.125000 I-0.976055 J4.687997
G02 X63.560590 Y177.057276 Z-0.125000 I-0.639829 J12.815830
G02 X62.291751 Y177.114859 Z-0.125000 I0.485468 J24.705755
G02 X61.112308 Y177.222956 Z-0.125000 I2.050193 J28.857985
G03 X59.866403 Y177.335345 Z-0.125000 I-3.188091 J-28.380069
G03 X58.565700 Y177.384465 Z-0.125000 I-1.458563 J-21.376768
G03 X57.396959 Y177.344150 Z-0.125000 I-0.102971 J-13.975983
G03 X56.331860 Y177.198833 Z-0.125000 I0.692217 J-9.049539
G03 X55.262653 Y176.920817 Z-0.125000 I1.797573 J-9.108201
G03 X54.142045 Y176.493120 Z-0.125000 I3.656502 J-11.262290
G03 X52.899042 Y175.818386 Z-0.125000 I3.481149 J-7.895325
G03 X51.818190 Y174.961342 Z-0.125000 I4.152671 J-6.347167
G03 X50.905848 Y173.948664 Z-0.125000 I6.193494 J-6.497161
G03 X50.157644 Y172.816350 Z-0.125000 I7.322174 J-5.651661
G03 X49.591751 Y171.620331 Z-0.125000 I8.427479 J-4.719321
G03 X49.194639 Y170.352416 Z-0.125000 I8.842661 J-3.465673
G03 X49.000848 Y169.106789 Z-0.125000 I7.752527 J-1.844004
G03 X48.985345 Y168.791549 Z-0.125000 I6.062181 J-0.456123
G03 X48.983209 Y168.480608 Z-0.125000 I9.532510 J-0.220968
G03 X48.982612 Y168.467386 Z-0.125000 I0.146116 J-0.013222
G03 X48.983209 Y168.454164 Z-0.125000 I0.146713 J-0.000000
G03 X48.986982 Y168.440732 Z-0.125000 I0.142973 J0.032919
G03 X48.992014 Y168.427720 Z-0.125000 I0.139199 J0.046350
G03 X48.991948 Y168.423317 Z-0.125000 I0.146647 J-0.004403
G03 X48.992014 Y168.418915 Z-0.125000 I0.146713 J0.000000
G03 X49.052871 Y167.531349 Z-0.125000 I8.782626 J0.156321
G03 X49.194861 Y166.690303 Z-0.125000 I8.801835 J1.053469
G03 X49.512024 Y165.524788 Z-0.125000 I11.715734 J2.562197
G03 X49.856320 Y164.608915 Z-0.125000 I10.690864 J3.496269
G03 X50.271742 Y163.747975 Z-0.125000 I9.440964 J4.024780
G03 X50.570695 Y163.259540 Z-0.125000 I4.745643 J2.568918
G03 X50.904081 Y162.845449 Z-0.125000 I2.900031 J1.993580
G03 X51.135139 Y162.606901 Z-0.125000 I7.569837 J7.100969
G03 X51.209642 Y162.562456 Z-0.125000 I0.109055 J0.098142
G03 X51.296227 Y162.567866 Z-0.125000 I0.034552 J0.142587
G03 X51.364618 Y162.621239 Z-0.125000 I-0.052032 J0.137177
G03 X51.390903 Y162.703915 Z-0.125000 I-0.120424 J0.083803
G01 X51.390903 Y163.585859 Z-0.125000
G03 X51.386525 Y163.622247 Z-0.125000 I-0.146711 J0.000805
G03 X51.373264 Y163.656415 Z-0.125000 I-0.142333 J-0.035583
G02 X51.048139 Y164.220982 Z-0.125000 I130.590155 J75.580734
G02 X50.808820 Y164.670651 Z-0.125000 I7.071279 J4.051935
G02 X50.634561 Y165.062666 Z-0.125000 I4.921650 J2.422511
G02 X50.438403 Y165.579053 Z-0.125000 I15.892838 J6.332597
G02 X50.213823 Y166.224693 Z-0.125000 I26.511916 J9.583829
G02 X49.988611 Y167.016623 Z-0.125000 I8.572827 J2.865954
G02 X49.868846 Y167.742544 Z-0.125000 I5.256750 J1.240117
G02 X49.838681 Y168.374817 Z-0.125000 I6.611159 J0.632273
G02 X49.867974 Y168.989980 Z-0.125000 I6.473886 J0.000000
G02 X49.988611 Y169.768290 Z-0.125000 I6.692491 J-0.638825
G02 X50.206421 Y170.606758 Z-0.125000 I10.089488 J-2.173437
G02 X50.570695 Y171.567456 Z-0.125000 I7.417490 J-2.263118
G02 X51.042608 Y172.425797 Z-0.125000 I6.044914 J-2.764577
G02 X51.620209 Y173.216692 Z-0.125000 I7.557932 J-4.913289
G02 X52.290414 Y173.948040 Z-0.125000 I6.782662 J-5.542857
G02 X53.031320 Y174.574887 Z-0.125000 I4.831576 J-4.959429
G02 X53.846333 Y175.082050 Z-0.125000 I3.764336 J-5.140852
G02 X54.689375 Y175.456831 Z-0.125000 I3.395785 J-6.503000
G02 X55.617362 Y175.743143 Z-0.125000 I3.022952 J-8.150877
G02 X56.276875 Y175.871345 Z-0.125000 I1.576133 J-6.347661
G02 X56.858942 Y175.896742 Z-0.125000 I0.421988 J-2.988672
G02 X57.194098 Y175.844901 Z-0.125000 I-0.089726 J-1.689419
G02 X57.550343 Y175.725170 Z-0.125000 I-0.667074 J-2.574644
G02 X57.855556 Y175.580318 Z-0.125000 I-1.349683 J-3.237847
G02 X58.139712 Y175.423126 Z-0.125000 I-5.353457 J-10.012877
G03 X58.437639 Y175.298095 Z-0.125000 I0.657811 J1.149987
G03 X58.759575 Y175.252330 Z-0.125000 I0.331627 J1.177616
G03 X59.116736 Y175.280456 Z-0.125000 I0.016423 J2.073206
G03 X59.493915 Y175.365480 Z-0.125000 I-0.561831 J3.371500
G03 X59.787014 Y175.500943 Z-0.125000 I-0.287985 J1.007929
G03 X59.900343 Y175.607718 Z-0.125000 I-0.259092 J0.388523
G03 X59.954584 Y175.739068 Z-0.125000 I-0.223745 J0.169270
G03 X59.943333 Y175.877035 Z-0.125000 I-0.318519 J0.043468
G03 X59.901667 Y175.986012 Z-0.125000 I-0.835042 J-0.256813
G03 X59.766154 Y176.230780 Z-0.125000 I-1.741382 J-0.804200
G02 X59.707639 Y176.338790 Z-0.125000 I0.626743 J0.409395
G02 X59.715098 Y176.340210 Z-0.125000 I0.017363 J-0.070900
G02 X59.778195 Y176.347595 Z-0.125000 I0.220062 J-1.606901
G02 X60.070400 Y176.353289 Z-0.125000 I0.182764 J-1.878630
G02 X60.589584 Y176.285859 Z-0.125000 I-0.213540 J-3.676645
G02 X60.701227 Y176.243925 Z-0.125000 I-0.075044 J-0.369377
G03 X60.810070 Y176.197665 Z-0.125000 I0.252427 J0.442746
G02 X60.669683 Y176.216514 Z-0.125000 I0.019242 J0.675513
G03 X60.580764 Y176.206470 Z-0.125000 I-0.030742 J-0.126461
G03 X60.528613 Y176.169529 Z-0.125000 I0.093183 J-0.186832
G03 X60.474931 Y176.100637 Z-0.125000 I0.219569 J-0.226454
G03 X60.448952 Y176.012988 Z-0.125000 I0.170132 J-0.098101
G03 X60.466126 Y175.915428 Z-0.125000 I0.219299 J-0.011688
G03 X60.479968 Y175.882391 Z-0.125000 I0.141225 J0.039753
G03 X60.501403 Y175.853692 Z-0.125000 I0.127383 J0.072790
G03 X60.510075 Y175.848993 Z-0.125000 I0.074200 J0.126567
G03 X60.519042 Y175.844887 Z-0.125000 I0.065528 J0.131266
G01 X60.528292 Y175.826414 Z-0.125000
G01 X60.536681 Y175.809609 Z-0.125000
G03 X60.724926 Y175.666169 Z-0.125000 I0.622768 J0.622051
G02 X61.101126 Y175.448012 Z-0.125000 I-11.639806 J-20.505652
G02 X61.468813 Y175.221275 Z-0.125000 I-6.185186 J-10.441715
G02 X62.018348 Y174.830651 Z-0.125000 I-3.826885 J-5.965558
G02 X62.575478 Y174.351221 Z-0.125000 I-5.038162 J-6.418115
G02 X63.156056 Y173.728220 Z-0.125000 I-4.495576 J-4.771477
G02 X63.610915 Y173.077162 Z-0.125000 I-4.057825 J-3.319401
G02 X63.985084 Y172.361206 Z-0.125000 I-6.635528 J-3.923578
G02 X64.306173 Y171.575501 Z-0.125000 I-9.290307 J-4.255071
G02 X64.531889 Y170.817803 Z-0.125000 I-6.540280 J-2.360804
G02 X64.658608 Y170.075048 Z-0.125000 I-5.740934 J-1.361621
G02 X64.690639 Y169.433151 Z-0.125000 I-5.790085 J-0.610685
G02 X64.654328 Y168.743972 Z-0.125000 I-7.475649 J0.048328
G02 X64.602445 Y168.268984 Z-0.125000 I-23.807317 J2.360163
G02 X64.550342 Y167.883428 Z-0.125000 I-12.384624 J1.477328
G02 X64.487792 Y167.625165 Z-0.125000 I-1.499975 J0.226578
G02 X64.358592 Y167.318060 Z-0.125000 I-2.155867 J0.726252
G02 X64.179112 Y166.981345 Z-0.125000 I-9.337050 J4.760772
G02 X64.007067 Y166.678392 Z-0.125000 I-18.079892 J10.067113
G03 X63.905709 Y166.478637 Z-0.125000 I1.752401 J-1.014779
G03 X63.867737 Y166.373060 Z-0.125000 I0.749209 J-0.329077
G03 X63.852792 Y166.284609 Z-0.125000 I0.395684 J-0.112344
G03 X63.856635 Y166.193767 Z-0.125000 I0.451976 J-0.026381
G03 X63.905709 Y166.090581 Z-0.125000 I0.190697 J0.027431
G03 X64.011209 Y166.033295 Z-0.125000 I0.136502 J0.125596
G03 X64.117376 Y166.037665 Z-0.125000 I0.042784 J0.252390
G03 X64.197157 Y166.069870 Z-0.125000 I-0.079881 J0.312812
G03 X64.267306 Y166.117040 Z-0.125000 I-0.280179 J0.492416
G03 X64.403050 Y166.248314 Z-0.125000 I-0.580241 J0.735818
G03 X64.593626 Y166.505095 Z-0.125000 I-1.948559 J1.645272
G03 X64.758622 Y166.788712 Z-0.125000 I-2.840044 J1.842023
G03 X64.955223 Y167.228290 Z-0.125000 I-3.696690 J1.917094
G03 X65.101352 Y167.683540 Z-0.125000 I-4.257912 J1.617813
G03 X65.219806 Y168.268984 Z-0.125000 I-4.942912 J1.304812
G03 X65.274456 Y168.866612 Z-0.125000 I-5.985204 J0.848631
G03 X65.281542 Y169.556623 Z-0.125000 I-11.027720 J0.458288
G03 X65.242558 Y170.248740 Z-0.125000 I-9.823271 J-0.206146
G03 X65.131612 Y170.976553 Z-0.125000 I-6.141416 J-0.563824
G03 X64.932499 Y171.678899 Z-0.125000 I-5.477777 J-1.173532
G03 X64.637723 Y172.414123 Z-0.125000 I-9.364783 J-3.327960
G03 X64.285400 Y173.124526 Z-0.125000 I-9.180657 J-4.110563
G03 X63.826334 Y173.851692 Z-0.125000 I-5.966172 J-3.258000
G03 X63.266891 Y174.534543 Z-0.125000 I-5.975836 J-4.325262
G03 X62.706264 Y175.077595 Z-0.125000 I-5.206108 J-4.813680
G03 X62.136366 Y175.523183 Z-0.125000 I-4.659154 J-5.371732
G03 X61.718487 Y175.800790 Z-0.125000 I-5.481059 J-7.797283
G02 X62.192594 Y175.530637 Z-0.125000 I-13.792194 J-24.755864
G02 X62.697445 Y175.227526 Z-0.125000 I-11.266454 J-19.336977
G03 X63.314567 Y174.855761 Z-0.125000 I15.682747 J25.334967
G03 X63.773417 Y174.636623 Z-0.125000 I1.522207 J2.597367
G03 X64.242753 Y174.536945 Z-0.125000 I0.561213 J1.487714
G03 X64.523070 Y174.592526 Z-0.125000 I0.032914 J0.568672
G03 X64.736166 Y174.807085 Z-0.125000 I-0.196432 J0.408193
G03 X64.787653 Y174.945303 Z-0.125000 I-0.784528 J0.370941
G03 X64.792886 Y174.966452 Z-0.125000 I-0.371417 J0.103113
G02 X64.796459 Y174.980581 Z-0.125000 I0.213143 J-0.046383
G03 X64.808468 Y174.980815 Z-0.125000 I0.004564 J0.074246
G02 X64.831736 Y174.980581 Z-0.125000 I0.010581 J-0.105187
G03 X64.912395 Y174.971033 Z-0.125000 I2.176208 J18.038035
G03 X65.052223 Y174.962942 Z-0.125000 I0.139828 J1.204246
G03 X65.362300 Y174.987560 Z-0.125000 I0.000000 J1.965133
G02 X65.704861 Y175.033498 Z-0.125000 I1.084514 J-6.787068
G02 X66.035963 Y175.056784 Z-0.125000 I0.469208 J-4.306061
G02 X66.234028 Y175.059942 Z-0.125000 I0.198065 J-6.208908
G02 X66.320962 Y175.057836 Z-0.125000 I-0.000000 J-1.795346
G03 X66.401598 Y175.059942 Z-0.125000 I0.026220 J0.540848
G03 X66.495149 Y175.084696 Z-0.125000 I-0.030901 J0.305935
G03 X66.595625 Y175.165775 Z-0.125000 I-0.100771 J0.227675
G03 X66.638673 Y175.270663 Z-0.125000 I-0.193676 J0.140765
G03 X66.648542 Y175.368623 Z-0.125000 I-0.973697 J0.147574
G03 X66.649283 Y175.470290 Z-0.125000 I-1.173545 J0.059388
G03 X66.639737 Y175.597928 Z-0.125000 I-1.654621 J-0.059574
G03 X66.592107 Y175.866340 Z-0.125000 I-2.199196 J-0.251812
G03 X66.436889 Y176.224109 Z-0.125000 I-1.106703 J-0.267588
G03 X66.318427 Y176.378639 Z-0.125000 I-1.131199 J-0.744506
G03 X66.216403 Y176.488692 Z-0.125000 I-2.603057 J-2.310811
G02 X66.136812 Y176.586939 Z-0.125000 I0.515327 J0.498835
G03 X66.119389 Y176.612164 Z-0.125000 I-1.074006 J-0.723180
G02 X66.144627 Y176.626035 Z-0.125000 I0.103077 J-0.157647
G02 X66.207584 Y176.647442 Z-0.125000 I0.140041 J-0.308578
G02 X66.365905 Y176.663585 Z-0.125000 I0.142121 J-0.609416
G02 X66.701473 Y176.629803 Z-0.125000 I-0.058700 J-2.266646
G02 X67.073595 Y176.562627 Z-0.125000 I-8.309036 J-47.092261
G03 X67.618695 Y176.541609 Z-0.125000 I0.345020 J1.868942
G03 X68.117739 Y176.676691 Z-0.125000 I-0.173143 J1.629018
G03 X68.588834 Y176.938484 Z-0.125000 I-1.311494 J2.914796
G03 X69.042974 Y177.297033 Z-0.125000 I-2.106966 J3.135575
G03 X69.303209 Y177.599942 Z-0.125000 I-1.168979 J1.267533
G03 X69.386360 Y177.759596 Z-0.125000 I-0.657837 J0.444096
G03 X69.409042 Y177.899803 Z-0.125000 I-0.323911 J0.124340
G03 X69.372709 Y178.046706 Z-0.125000 I-0.386631 J-0.017679
G03 X69.312028 Y178.146748 Z-0.125000 I-0.500458 J-0.235133
G03 X69.237998 Y178.233589 Z-0.125000 I-0.821357 J-0.625218
G02 X69.179737 Y178.296678 Z-0.125000 I1.991827 J1.897832
G02 X69.119187 Y178.376581 Z-0.125000 I0.458550 J0.410383
G01 X69.118001 Y178.376053 Z-0.125000
G01 X69.119890 Y178.374873 Z-0.125000
G01 X69.135640 Y178.384859 Z-0.125000
G02 X69.180461 Y178.442257 Z-0.125000 I0.550542 J-0.383710
G03 X69.312028 Y178.596525 Z-0.125000 I-6.872233 J5.994210
G03 X69.587214 Y178.941716 Z-0.125000 I-7.750268 J6.460778
G03 X69.911751 Y179.416734 Z-0.125000 I-4.420215 J3.368310
G03 X70.117063 Y179.859263 Z-0.125000 I-1.840086 J1.122605
G03 X70.202792 Y180.298678 Z-0.125000 I-1.659994 J0.551932
G03 X70.189679 Y180.802603 Z-0.125000 I-2.781147 J0.179762
G03 X70.070501 Y181.242359 Z-0.125000 I-1.533628 J-0.179602
G03 X69.807003 Y181.606325 Z-0.125000 I-0.967493 J-0.423064
G02 X69.726542 Y181.692150 Z-0.125000 I0.446802 J0.499501
G01 X69.726504 Y181.696760 Z-0.125000
G01 X69.726542 Y181.700956 Z-0.125000
G02 X69.707067 Y181.733745 Z-0.125000 I0.194803 J0.137884
G02 X69.691265 Y181.780331 Z-0.125000 I0.171718 J0.084221
G02 X69.682110 Y181.844185 Z-0.125000 I0.568688 J0.114115
G03 X69.664820 Y181.983178 Z-0.125000 I-1.886362 J-0.164076
G03 X69.598700 Y182.266178 Z-0.125000 I-2.081444 J-0.337083
G03 X69.373779 Y182.776928 Z-0.125000 I-2.297813 J-0.707000
G03 X69.037372 Y183.232787 Z-0.125000 I-2.332333 J-1.369118
G03 X68.518293 Y183.676511 Z-0.125000 I-2.056889 J-1.880718
G03 X67.905180 Y183.968569 Z-0.125000 I-1.340014 J-2.023498
G03 X67.283570 Y184.055747 Z-0.125000 I-0.572838 J-1.824783
G01 X67.283542 Y184.055761 Z-0.125000
G00 Z5.000000

(End cutting path id: path3327)


(Start cutting path id: path3327)
(Change tool to Default tool)

G00 Z5.000000
G00 X102.914098 Y183.976386

G01 Z-0.125000 F100.0(Penetrate)
G03 X102.892094 Y183.972135 Z-0.125000 I-0.000828 J-0.054779 F400.000000
G02 X102.870001 Y183.967581 Z-0.125000 I-0.022659 J0.054064
G03 X102.278122 Y183.873792 Z-0.125000 I0.020592 J-2.044447
G03 X101.697014 Y183.597164 Z-0.125000 I0.690520 J-2.199240
G03 X101.175597 Y183.142164 Z-0.125000 I1.439824 J-2.176265
G03 X100.841528 Y182.679942 Z-0.125000 I2.271412 J-1.993483
G03 X100.616667 Y182.169421 Z-0.125000 I2.079473 J-1.220695
G03 X100.550487 Y181.886192 Z-0.125000 I2.003909 J-0.617586
G03 X100.532030 Y181.746182 Z-0.125000 I2.324126 J-0.377600
G02 X100.524042 Y181.683345 Z-0.125000 I-1.242780 J0.126046
G02 X100.513669 Y181.636190 Z-0.125000 I-0.368797 J0.056414
G02 X100.497598 Y181.603970 Z-0.125000 I-0.095885 J0.027706
G02 X100.420942 Y181.519384 Z-0.125000 I-0.495406 J0.371935
G03 X100.153640 Y181.145359 Z-0.125000 I0.752329 J-0.820190
G03 X100.031905 Y180.716684 Z-0.125000 I1.510325 J-0.660523
G03 X100.012529 Y180.210498 Z-0.125000 I2.442328 J-0.346954
G03 X100.103671 Y179.767099 Z-0.125000 I1.639896 J0.106022
G03 X100.312390 Y179.328553 Z-0.125000 I2.219292 J0.787294
G03 X100.642022 Y178.853241 Z-0.125000 I4.213720 J2.570287
G03 X100.920932 Y178.508345 Z-0.125000 I11.615901 J9.108283
G02 X101.044943 Y178.356412 Z-0.125000 I-7.273763 J-6.063578
G02 X101.088501 Y178.296678 Z-0.125000 I-0.654489 J-0.523010
G03 X101.104090 Y178.278451 Z-0.125000 I0.082278 J0.054589
G01 X101.106140 Y178.279039 Z-0.125000
G01 X101.104515 Y178.279662 Z-0.125000
G02 X101.053223 Y178.208484 Z-0.125000 I-0.241500 J0.119958
G02 X100.988550 Y178.148788 Z-0.125000 I-0.828649 J0.832867
G03 X100.903293 Y178.058553 Z-0.125000 I0.382118 J-0.446433
G03 X100.842880 Y177.950581 Z-0.125000 I0.351136 J-0.267354
G03 X100.815098 Y177.802789 Z-0.125000 I0.383892 J-0.148671
G03 X100.839780 Y177.661944 Z-0.125000 I0.409210 J-0.000874
G03 X100.920932 Y177.502928 Z-0.125000 I0.684869 J0.249297
G03 X101.174622 Y177.203638 Z-0.125000 I1.495902 J1.010824
G03 X101.626487 Y176.841470 Z-0.125000 I2.398783 J2.529906
G03 X102.111578 Y176.581361 Z-0.125000 I1.543927 J2.296958
G03 X102.614265 Y176.453414 Z-0.125000 I0.694541 J1.677302
G03 X103.149298 Y176.475041 Z-0.125000 I0.194119 J1.826673
G02 X103.513848 Y176.541609 Z-0.125000 I5.679683 J-30.072355
G02 X103.849593 Y176.575434 Z-0.125000 I0.394136 J-2.228959
G02 X104.007737 Y176.559248 Z-0.125000 I0.016089 J-0.623464
G02 X104.074666 Y176.539025 Z-0.125000 I-0.123660 J-0.530138
G02 X104.104751 Y176.523970 Z-0.125000 I-0.055506 J-0.148504
G02 X104.086490 Y176.500098 Z-0.125000 I-0.623695 J0.458180
G02 X103.998918 Y176.400498 Z-0.125000 I-1.063479 J0.846752
G03 X103.894990 Y176.284557 Z-0.125000 I1.425240 J-1.382120
G03 X103.778432 Y176.127095 Z-0.125000 I1.388240 J-1.149488
G03 X103.623193 Y175.769546 Z-0.125000 I0.948734 J-0.624392
G03 X103.575584 Y175.500914 Z-0.125000 I2.148293 J-0.519267
G03 X103.559945 Y175.267054 Z-0.125000 I2.460680 J-0.282006
G03 X103.619682 Y175.077581 Z-0.125000 I0.311168 J-0.006050
G03 X103.714350 Y174.999469 Z-0.125000 I0.198733 J0.144433
G03 X103.804890 Y174.971748 Z-0.125000 I0.143426 J0.306724
G03 X103.893440 Y174.963909 Z-0.125000 I0.101567 J0.643235
G03 X103.990098 Y174.962942 Z-0.125000 I0.096659 J4.834640
G02 X104.188234 Y174.959824 Z-0.125000 I-0.000000 J-6.295765
G02 X104.519265 Y174.936498 Z-0.125000 I-0.134373 J-4.267599
G02 X104.862173 Y174.890486 Z-0.125000 I-0.757128 J-6.943378
G03 X105.171904 Y174.865943 Z-0.125000 I0.309731 J1.942051
G03 X105.314053 Y174.878456 Z-0.125000 I0.000000 J0.813663
G03 X105.392390 Y174.892387 Z-0.125000 I-17.767505 J100.137093
G02 X105.409533 Y174.892571 Z-0.125000 I0.009121 J-0.051038
G01 X105.418834 Y174.892387 Z-0.125000
G03 X105.422661 Y174.880983 Z-0.125000 I0.129059 J0.036964
G02 X105.427640 Y174.865943 Z-0.125000 I-0.151153 J-0.058378
G03 X105.479187 Y174.727704 Z-0.125000 I0.835364 J0.232768
G03 X105.692223 Y174.513165 Z-0.125000 I0.409964 J0.194049
G03 X105.965431 Y174.451555 Z-0.125000 I0.270175 J0.561511
G03 X106.441876 Y174.539609 Z-0.125000 I-0.006666 J1.369066
G03 X106.900946 Y174.758832 Z-0.125000 I-1.060454 J2.810949
G03 X107.517848 Y175.130512 Z-0.125000 I-15.219609 J25.958817
G02 X107.695932 Y175.235335 Z-0.125000 I2.480490 J-4.010397
G03 X107.879445 Y175.342178 Z-0.125000 I-3.025040 J5.406825
G02 X107.703028 Y175.221462 Z-0.125000 I-1.663209 J2.241366
G03 X107.509028 Y175.077595 Z-0.125000 I0.843880 J-1.340682
G03 X106.949834 Y174.536052 Z-0.125000 I4.665443 J-5.376993
G03 X106.388959 Y173.851692 Z-0.125000 I5.399053 J-4.996874
G03 X105.923978 Y173.114048 Z-0.125000 I5.513603 J-3.990921
G03 X105.568751 Y172.396484 Z-0.125000 I9.096500 J-4.949905
G03 X105.274663 Y171.666866 Z-0.125000 I9.483122 J-4.246447
G03 X105.074862 Y170.967734 Z-0.125000 I5.115776 J-1.840127
G03 X104.964052 Y170.244183 Z-0.125000 I6.060836 J-1.298461
G03 X104.924931 Y169.556623 Z-0.125000 I9.512818 J-0.886152
G03 X104.936565 Y168.861302 Z-0.125000 I9.174594 J-0.194247
G03 X104.995487 Y168.260165 Z-0.125000 I7.003122 J0.382964
G03 X105.115263 Y167.675434 Z-0.125000 I4.848800 J0.688597
G03 X105.260070 Y167.228290 Z-0.125000 I4.525004 J1.218394
G03 X105.452590 Y166.791113 Z-0.125000 I4.315594 J1.639488
G03 X105.621667 Y166.496276 Z-0.125000 I2.806995 J1.413797
G03 X105.812217 Y166.240065 Z-0.125000 I2.096692 J1.360398
G03 X105.939167 Y166.117040 Z-0.125000 I0.691060 J0.586092
G01 X105.947973 Y166.117040 Z-0.125000
G03 X106.023857 Y166.063656 Z-0.125000 I0.628855 J0.813292
G03 X106.106723 Y166.028845 Z-0.125000 I0.142702 J0.223657
G03 X106.203118 Y166.028902 Z-0.125000 I0.048075 J0.207659
G03 X106.309570 Y166.090581 Z-0.125000 I-0.047737 J0.205090
G03 X106.361759 Y166.184695 Z-0.125000 I-0.169718 J0.155642
G03 X106.371306 Y166.275790 Z-0.125000 I-0.266987 J0.074027
G03 X106.355890 Y166.360398 Z-0.125000 I-0.362508 J-0.022340
G03 X106.318389 Y166.460998 Z-0.125000 I-0.886178 J-0.273055
G03 X106.205802 Y166.668495 Z-0.125000 I-1.308563 J-0.575729
G02 X106.027348 Y166.963706 Z-0.125000 I3.999878 J2.619458
G02 X105.853639 Y167.302536 Z-0.125000 I4.842188 J2.696400
G02 X105.727487 Y167.616345 Z-0.125000 I2.679684 J1.259504
G02 X105.661066 Y167.878315 Z-0.125000 I1.665702 J0.561729
G02 X105.604014 Y168.268984 Z-0.125000 I7.382904 J1.277677
G02 X105.555912 Y168.739912 Z-0.125000 I13.882032 J1.655893
G02 X105.524639 Y169.433151 Z-0.125000 I8.693036 J0.739472
G02 X105.556711 Y170.070791 Z-0.125000 I5.631248 J0.036387
G02 X105.683389 Y170.808984 Z-0.125000 I5.916333 J-0.635311
G02 X105.905626 Y171.573391 Z-0.125000 I7.742102 J-1.836357
G02 X106.221375 Y172.361206 Z-0.125000 I8.321640 J-2.878060
G02 X106.595611 Y173.076992 Z-0.125000 I7.016008 J-3.212471
G02 X107.050403 Y173.728220 Z-0.125000 I4.530955 J-2.679820
G02 X107.629283 Y174.344737 Z-0.125000 I4.764670 J-3.893764
G02 X108.188112 Y174.821831 Z-0.125000 I6.032545 J-6.500200
G02 X108.749507 Y175.213479 Z-0.125000 I3.748980 J-4.775675
G02 X109.122973 Y175.439192 Z-0.125000 I12.582249 J-20.396807
G03 X109.493528 Y175.663248 Z-0.125000 I-12.315531 J20.786523
G03 X109.678598 Y175.809609 Z-0.125000 I-0.533647 J0.864971
G03 X109.717204 Y175.852511 Z-0.125000 I-0.391911 J0.391485
G03 X109.749153 Y175.906623 Z-0.125000 I-0.166426 J0.134752
G03 X109.766123 Y175.973914 Z-0.125000 I-0.232313 J0.094373
G03 X109.757959 Y176.047734 Z-0.125000 I-0.170412 J0.018513
G03 X109.679836 Y176.155375 Z-0.125000 I-0.213164 J-0.072538
G03 X109.625667 Y176.188845 Z-0.125000 I-0.213142 J-0.284384
G02 X110.145149 Y176.256310 Z-0.125000 I0.732099 J-3.603420
G02 X110.437056 Y176.250581 Z-0.125000 I0.109055 J-1.882873
G02 X110.484870 Y176.244950 Z-0.125000 I-0.119621 J-1.221395
G02 X110.498792 Y176.241776 Z-0.125000 I-0.011176 J-0.081151
G02 X110.438313 Y176.130421 Z-0.125000 I-1.050051 J0.498199
G03 X110.313584 Y175.897818 Z-0.125000 I1.877832 J-1.156700
G03 X110.273293 Y175.781147 Z-0.125000 I0.560874 J-0.258984
G03 X110.269486 Y175.642054 Z-0.125000 I0.332427 J-0.078695
G03 X110.325283 Y175.511248 Z-0.125000 I0.313202 J0.056298
G03 X110.437056 Y175.403929 Z-0.125000 I0.355566 J0.258454
G03 X110.723101 Y175.269989 Z-0.125000 I0.585504 J0.878005
G03 X111.098514 Y175.183443 Z-0.125000 I0.894656 J3.023269
G03 X111.462516 Y175.160219 Z-0.125000 I0.296110 J1.776904
G03 X111.777611 Y175.209887 Z-0.125000 I-0.050784 J1.346499
G03 X112.071664 Y175.326511 Z-0.125000 I-0.416624 J1.479485
G03 X112.368514 Y175.483290 Z-0.125000 I-14.815111 J28.410847
G02 X112.683131 Y175.634804 Z-0.125000 I1.949938 J-3.646605
G02 X113.038792 Y175.756692 Z-0.125000 I0.973913 J-2.261966
G02 X113.364122 Y175.804200 Z-0.125000 I0.380816 J-1.470136
G02 X113.938375 Y175.774331 Z-0.125000 I0.118838 J-3.250446
G02 X114.605107 Y175.649134 Z-0.125000 I-1.046218 J-7.409508
G02 X115.534695 Y175.368637 Z-0.125000 I-1.790881 J-7.615716
G02 X116.375932 Y174.990726 Z-0.125000 I-2.392768 J-6.451617
G02 X117.192750 Y174.477873 Z-0.125000 I-3.177840 J-5.968224
G02 X117.928278 Y173.851869 Z-0.125000 I-3.907429 J-5.336167
G02 X118.595042 Y173.119678 Z-0.125000 I-6.449754 J-6.543113
G02 X119.172433 Y172.328690 Z-0.125000 I-7.004558 J-5.719284
G02 X119.644556 Y171.470442 Z-0.125000 I-5.595276 J-3.636951
G02 X120.008884 Y170.509755 Z-0.125000 I-7.032596 J-3.216450
G02 X120.226639 Y169.671276 Z-0.125000 I-9.888192 J-3.015499
G02 X120.347269 Y168.892949 Z-0.125000 I-6.576507 J-1.417778
G02 X120.376570 Y168.277803 Z-0.125000 I-6.442578 J-0.615145
G02 X120.346446 Y167.645776 Z-0.125000 I-6.645422 J0.000000
G02 X120.226639 Y166.919609 Z-0.125000 I-5.370654 J0.513113
G02 X120.001515 Y166.138340 Z-0.125000 I-8.098897 J1.910645
G02 X119.776847 Y165.499678 Z-0.125000 I-36.266905 J12.399064
G02 X119.580350 Y164.971964 Z-0.125000 I-27.257944 J9.849179
G02 X119.406431 Y164.573637 Z-0.125000 I-4.459998 J1.710216
G02 X119.168193 Y164.129441 Z-0.125000 I-6.452130 J3.174513
G03 X118.841986 Y163.568220 Z-0.125000 I337.405483 J-196.490764
G03 X118.828726 Y163.534053 Z-0.125000 I0.129072 J-0.069751
G03 X118.824347 Y163.497665 Z-0.125000 I0.142333 J-0.035583
G01 X118.824347 Y162.606901 Z-0.125000
G03 X118.850633 Y162.524226 Z-0.125000 I0.146709 J0.001128
G03 X118.919024 Y162.470852 Z-0.125000 I0.120424 J0.083803
G03 X119.005608 Y162.465442 Z-0.125000 I0.052032 J0.137177
G03 X119.080111 Y162.509887 Z-0.125000 I-0.034552 J0.142587
G03 X119.313645 Y162.754330 Z-0.125000 I-5.232099 J5.232359
G03 X119.644556 Y163.171345 Z-0.125000 I-2.853708 J2.604283
G03 X119.942376 Y163.654817 Z-0.125000 I-4.664843 J3.207027
G03 X120.358931 Y164.511901 Z-0.125000 I-8.436396 J4.629972
G03 X120.710879 Y165.430024 Z-0.125000 I-12.266646 J5.228741
G03 X121.038028 Y166.602109 Z-0.125000 I-10.108643 J3.453197
G03 X121.215165 Y167.761262 Z-0.125000 I-9.005907 J1.969360
G03 X121.223236 Y169.009817 Z-0.125000 I-7.635413 J0.673661
G03 X121.025447 Y170.265625 Z-0.125000 I-7.817621 J-0.587795
G03 X120.623514 Y171.540998 Z-0.125000 I-9.576631 J-2.317046
G03 X120.062678 Y172.735421 Z-0.125000 I-9.375305 J-3.673256
G03 X119.318236 Y173.869331 Z-0.125000 I-7.779662 J-4.296220
G03 X118.396667 Y174.883159 Z-0.125000 I-6.750511 J-5.210443
G03 X117.307403 Y175.739053 Z-0.125000 I-5.472938 J-5.844123
G03 X116.067371 Y176.404411 Z-0.125000 I-4.437465 J-6.781934
G03 X114.952611 Y176.823845 Z-0.125000 I-5.146035 J-11.985869
G03 X113.892620 Y177.101360 Z-0.125000 I-2.924362 J-9.006728
G03 X112.835945 Y177.247178 Z-0.125000 I-1.721244 J-8.571497
G03 X111.663501 Y177.287610 Z-0.125000 I-1.068701 J-13.970876
G03 X110.357681 Y177.238373 Z-0.125000 I0.159766 J-21.577799
G03 X109.109219 Y177.130663 Z-0.125000 I2.377959 J-34.851946
G02 X107.923514 Y177.026706 Z-0.125000 I-3.733770 J35.772741
G02 X106.659848 Y176.974424 Z-0.125000 I-1.515494 J21.331770
G02 X105.771570 Y176.991429 Z-0.125000 I-0.169219 J14.369248
G02 X105.031571 Y177.081413 Z-0.125000 I0.261655 J5.239487
G02 X104.572125 Y177.220734 Z-0.125000 I0.448787 J2.307215
G02 X104.079308 Y177.465950 Z-0.125000 I1.631806 J3.897310
G02 X103.478514 Y177.855734 Z-0.125000 I3.704708 J6.368160
G02 X102.904519 Y178.308131 Z-0.125000 I4.866135 J6.764434
G02 X102.402542 Y178.808234 Z-0.125000 I3.206984 J3.720977
G02 X102.013446 Y179.360642 Z-0.125000 I2.518456 J2.187143
G02 X101.767542 Y179.910665 Z-0.125000 I2.865481 J1.611082
G02 X101.628617 Y180.499445 Z-0.125000 I2.946162 J1.005936
G02 X101.617611 Y181.057193 Z-0.125000 I2.415776 J0.326654
G02 X101.735224 Y181.603906 Z-0.125000 I2.385811 J-0.227246
G02 X101.979208 Y182.106707 Z-0.125000 I2.156497 J-0.735844
G02 X102.372432 Y182.580962 Z-0.125000 I2.203129 J-1.426552
G02 X102.711222 Y182.829901 Z-0.125000 I1.142549 J-1.199933
G02 X103.022475 Y182.922119 Z-0.125000 I0.362650 J-0.652628
G02 X103.213931 Y182.891637 Z-0.125000 I0.029678 J-0.430092
G02 X103.414269 Y182.776993 Z-0.125000 I-0.323813 J-0.798226
G02 X103.654903 Y182.582957 Z-0.125000 I-3.846003 J-5.015830
G03 X103.894012 Y182.382202 Z-0.125000 I19.987000 J23.562805
G03 X104.148792 Y182.177262 Z-0.125000 I6.546377 J7.877560
G03 X104.209075 Y182.146550 Z-0.125000 I0.094948 J0.111847
G03 X104.276729 Y182.146153 Z-0.125000 I0.034665 J0.142559
G03 X104.337369 Y182.176156 Z-0.125000 I-0.032990 J0.142956
G03 X104.378097 Y182.230179 Z-0.125000 I-0.093629 J0.112953
G03 X104.446551 Y182.417813 Z-0.125000 I-1.096810 J0.506449
G03 X104.457472 Y182.776984 Z-0.125000 I-0.739133 J0.202226
G03 X104.325197 Y183.130388 Z-0.125000 I-1.224641 J-0.256915
G03 X103.981222 Y183.561915 Z-0.125000 I-1.480119 J-0.826962
G03 X103.530797 Y183.847967 Z-0.125000 I-1.068631 J-1.185040
G03 X102.931708 Y183.976429 Z-0.125000 I-0.639758 J-1.522378
G03 X102.922889 Y183.976694 Z-0.125000 I-0.008819 J-0.146448
G03 X102.914070 Y183.976429 Z-0.125000 I-0.000000 J-0.146713
G01 X102.914098 Y183.976386 Z-0.125000
G00 Z5.000000

(End cutting path id: path3327)


(Start cutting path id: path3327)
(Change tool to Default tool)

G00 Z5.000000
G00 X67.292362 Y183.764720

G01 Z-0.125000 F100.0(Penetrate)
G02 X67.809083 Y183.694090 Z-0.125000 I0.041427 J-1.622374 F400.000000
G02 X68.350695 Y183.438400 Z-0.125000 I-0.611809 J-1.997439
G02 X68.818814 Y183.035394 Z-0.125000 I-1.352716 J-2.044652
G02 X69.117987 Y182.627011 Z-0.125000 I-1.856537 J-1.673834
G02 X69.316346 Y182.180897 Z-0.125000 I-1.870402 J-1.098811
G02 X69.373750 Y181.939095 Z-0.125000 I-1.635260 J-0.515926
G02 X69.392142 Y181.822684 Z-0.125000 I-14.729488 J-2.386711
G03 X69.409028 Y181.727428 Z-0.125000 I2.105260 J0.324085
G03 X69.437987 Y181.630071 Z-0.125000 I0.548222 J0.110082
G03 X69.497223 Y181.524581 Z-0.125000 I0.428138 J0.171036
G03 X69.642710 Y181.352121 Z-0.125000 I1.600528 J1.202612
G02 X69.797084 Y181.118886 Z-0.125000 I-0.592271 J-0.559719
G02 X69.893824 Y180.779029 Z-0.125000 I-1.199083 J-0.525018
G02 X69.911737 Y180.316317 Z-0.125000 I-2.224081 J-0.317799
G02 X69.841907 Y179.951818 Z-0.125000 I-1.485796 J0.095706
G02 X69.664792 Y179.566664 Z-0.125000 I-1.730149 J0.562317
G02 X69.359267 Y179.124740 Z-0.125000 I-4.003902 J2.441533
G02 X69.082709 Y178.781734 Z-0.125000 I-10.630294 J8.287960
G02 X68.967701 Y178.644177 Z-0.125000 I-51.962403 J43.327598
G03 X68.897500 Y178.552428 Z-0.125000 I0.993731 J-0.833073
G03 X68.840063 Y178.439373 Z-0.125000 I0.376826 J-0.262564
G03 X68.835764 Y178.296664 Z-0.125000 I0.227333 J-0.078267
G03 X68.895371 Y178.178778 Z-0.125000 I0.324025 J0.089824
G03 X68.959237 Y178.102636 Z-0.125000 I1.218227 J0.956962
G03 X69.033291 Y178.020738 Z-0.125000 I8.029445 J7.186001
G02 X69.082709 Y177.961525 Z-0.125000 I-0.635768 J-0.580826
G02 X69.112646 Y177.912385 Z-0.125000 I-0.220330 J-0.167918
G02 X69.117987 Y177.890970 Z-0.125000 I-0.050502 J-0.023969
G02 X69.114952 Y177.865380 Z-0.125000 I-0.079488 J-0.003549
G02 X69.065070 Y177.758678 Z-0.125000 I-0.362785 J0.104587
G02 X68.872582 Y177.537344 Z-0.125000 I-0.998095 J0.673648
G02 X68.421250 Y177.185414 Z-0.125000 I-2.713435 J3.014467
G02 X67.982785 Y176.941174 Z-0.125000 I-1.680002 J2.500282
G02 X67.583403 Y176.832636 Z-0.125000 I-0.537112 J1.187330
G02 X67.140624 Y176.845009 Z-0.125000 I-0.175297 J1.655700
G02 X66.745556 Y176.912011 Z-0.125000 I4.844181 J29.761143
G03 X66.388618 Y176.957454 Z-0.125000 I-0.649705 J-3.678659
G03 X66.137014 Y176.938456 Z-0.125000 I-0.064533 J-0.820885
G03 X66.013221 Y176.894016 Z-0.125000 I0.129621 J-0.555720
G03 X65.898889 Y176.814983 Z-0.125000 I0.214066 J-0.431892
G03 X65.823764 Y176.692150 Z-0.125000 I0.182318 J-0.195896
G03 X65.828334 Y176.523942 Z-0.125000 I0.270661 J-0.076814
G01 X65.832748 Y176.519460 Z-0.125000
G01 X65.837139 Y176.515136 Z-0.125000
G03 X65.914586 Y176.387167 Z-0.125000 I0.491362 J0.209952
G03 X66.004708 Y176.285831 Z-0.125000 I1.244083 J1.015673
G02 X66.112576 Y176.173619 Z-0.125000 I-16.183375 J-15.664912
G02 X66.198736 Y176.065345 Z-0.125000 I-0.556389 J-0.531166
G02 X66.306734 Y175.810726 Z-0.125000 I-0.644461 J-0.423563
G02 X66.348667 Y175.562636 Z-0.125000 I-2.299015 J-0.516180
G02 X66.357855 Y175.442375 Z-0.125000 I-1.618100 J-0.184106
G02 X66.357472 Y175.377428 Z-0.125000 I-0.719629 J-0.028234
G03 X66.357838 Y175.355999 Z-0.125000 I0.148230 J-0.008190
G01 X66.357472 Y175.350984 Z-0.125000
G02 X66.323041 Y175.350394 Z-0.125000 I-0.026921 J0.566015
G03 X66.234000 Y175.350984 Z-0.125000 I-0.089041 J-6.717666
G03 X66.022255 Y175.348052 Z-0.125000 I-0.000000 J-7.647852
G03 X65.678375 Y175.324540 Z-0.125000 I0.117625 J-4.246796
G03 X65.301786 Y175.279217 Z-0.125000 I1.771471 J-16.306609
G02 X65.052194 Y175.262803 Z-0.125000 I-0.249592 J1.889463
G02 X64.941905 Y175.265357 Z-0.125000 I-0.000000 J2.383078
G02 X64.866986 Y175.271609 Z-0.125000 I0.047081 J1.016212
G02 X64.799323 Y175.281241 Z-0.125000 I0.193453 J1.601476
G03 X64.708236 Y175.280414 Z-0.125000 I-0.043160 J-0.263116
G03 X64.601838 Y175.223977 Z-0.125000 I0.035598 J-0.195622
G03 X64.549486 Y175.148122 Z-0.125000 I0.193050 J-0.189228
G03 X64.522094 Y175.079210 Z-0.125000 I0.617948 J-0.285524
G03 X64.505389 Y175.024650 Z-0.125000 I1.012645 J-0.339899
G02 X64.468414 Y174.926092 Z-0.125000 I-0.580776 J0.161664
G02 X64.399555 Y174.857081 Z-0.125000 I-0.132607 J0.063456
G02 X64.286626 Y174.832249 Z-0.125000 I-0.108821 J0.225692
G02 X63.879208 Y174.909997 Z-0.125000 I0.019850 J1.210374
G02 X63.482131 Y175.096890 Z-0.125000 I0.983148 J2.604093
G02 X62.847333 Y175.474442 Z-0.125000 I10.326920 J18.085619
G03 X62.203687 Y175.866383 Z-0.125000 I-28.696057 J-46.400217
G03 X61.630250 Y176.188817 Z-0.125000 I-6.076999 J-10.136594
G03 X61.097308 Y176.433287 Z-0.125000 I-2.508988 J-4.766428
G03 X60.642472 Y176.568053 Z-0.125000 I-0.994920 J-2.522939
G03 X60.102382 Y176.642669 Z-0.125000 I-0.862717 J-4.252637
G03 X59.742889 Y176.638609 Z-0.125000 I-0.156121 J-2.093984
G03 X59.591238 Y176.608199 Z-0.125000 I0.074800 J-0.766357
G03 X59.469486 Y176.532775 Z-0.125000 I0.083135 J-0.270181
G03 X59.424825 Y176.461044 Z-0.125000 I0.151712 J-0.144228
G03 X59.407750 Y176.382845 Z-0.125000 I0.271597 J-0.100267
G03 X59.410459 Y176.309175 Z-0.125000 I0.325468 J-0.024918
G03 X59.425389 Y176.250553 Z-0.125000 I0.301166 J0.045490
G03 X59.548776 Y176.015037 Z-0.125000 I0.935010 J0.339775
G02 X59.637055 Y175.862497 Z-0.125000 I-0.782675 J-0.554772
G02 X59.663201 Y175.788511 Z-0.125000 I-0.386224 J-0.178097
G01 X59.663500 Y175.783122 Z-0.125000
G01 X59.662128 Y175.779833 Z-0.125000
G02 X59.628222 Y175.747845 Z-0.125000 I-0.111088 J0.083784
G02 X59.460546 Y175.666528 Z-0.125000 I-0.380910 J0.571907
G02 X59.072597 Y175.571456 Z-0.125000 I-0.824896 J2.526990
G02 X58.752357 Y175.546565 Z-0.125000 I-0.301960 J1.812450
G02 X58.516972 Y175.580261 Z-0.125000 I0.008971 J0.901661
G02 X58.302235 Y175.669055 Z-0.125000 I0.270401 J0.957985
G03 X57.996625 Y175.836025 Z-0.125000 I-9.384984 J-16.814461
G03 X57.667978 Y175.991761 Z-0.125000 I-1.760144 J-3.289756
G03 X57.264611 Y176.127067 Z-0.125000 I-1.164842 J-2.803676
G03 X56.873520 Y176.188620 Z-0.125000 I-0.509232 J-1.962288
G03 X56.232736 Y176.162344 Z-0.125000 I-0.188511 J-3.229326
G03 X55.539186 Y176.025396 Z-0.125000 I0.912088 J-6.443748
G03 X54.592319 Y175.730192 Z-0.125000 I2.312756 J-9.084297
G03 X53.715367 Y175.344124 Z-0.125000 I2.812357 J-7.577299
G03 X52.854889 Y174.812969 Z-0.125000 I2.924023 J-5.699530
G03 X52.080887 Y174.156585 Z-0.125000 I4.208427 J-5.747072
G03 X51.390861 Y173.401858 Z-0.125000 I6.447342 J-6.587430
G03 X50.797330 Y172.587039 Z-0.125000 I7.025568 J-5.741146
G03 X50.306069 Y171.690886 Z-0.125000 I5.922790 J-3.829534
G03 X49.928700 Y170.691179 Z-0.125000 I7.174935 J-3.279473
G03 X49.706347 Y169.829983 Z-0.125000 I10.516870 J-3.174661
G03 X49.574355 Y169.019087 Z-0.125000 I7.872132 J-1.697554
G03 X49.538777 Y168.374775 Z-0.125000 I5.816393 J-0.644312
G03 X49.574597 Y167.713687 Z-0.125000 I6.118380 J0.000000
G03 X49.706347 Y166.946025 Z-0.125000 I6.278139 J0.682344
G03 X49.941343 Y166.122807 Z-0.125000 I8.952636 J2.110477
G03 X50.164958 Y165.481997 Z-0.125000 I28.910361 J9.729031
G03 X50.361208 Y164.956368 Z-0.125000 I25.252537 J9.128903
G03 X50.544194 Y164.538317 Z-0.125000 I4.753525 J1.831599
G03 X50.785697 Y164.085873 Z-0.125000 I7.085099 J3.491173
G03 X51.099819 Y163.541719 Z-0.125000 I356.397165 J205.373567
G01 X51.099819 Y163.091928 Z-0.125000
G03 X50.972026 Y163.227079 Z-0.125000 I-7.156952 J-6.639281
G02 X50.808777 Y163.427067 Z-0.125000 I1.129908 J1.088961
G02 X50.532202 Y163.882285 Z-0.125000 I3.895282 J2.678269
G02 X50.129680 Y164.723525 Z-0.125000 I9.505356 J5.065105
G02 X49.790529 Y165.616022 Z-0.125000 I10.999843 J4.690663
G02 X49.477041 Y166.751997 Z-0.125000 I10.359728 J3.470146
G02 X49.332801 Y167.596647 Z-0.125000 I9.055436 J1.981030
G02 X49.274194 Y168.480608 Z-0.125000 I7.757712 J0.958264
G03 X49.275258 Y168.498247 Z-0.125000 I-0.145649 J0.017639
G03 X49.274194 Y168.515886 Z-0.125000 I-0.146713 J-0.000000
G02 X49.277229 Y168.800172 Z-0.125000 I9.344077 J0.042393
G02 X49.291833 Y169.089150 Z-0.125000 I5.879092 J-0.152243
G02 X49.478799 Y170.284581 Z-0.125000 I7.550342 J-0.568544
G02 X49.865097 Y171.514497 Z-0.125000 I9.065882 J-2.171828
G02 X50.416891 Y172.675866 Z-0.125000 I8.538680 J-3.345161
G02 X51.143916 Y173.772275 Z-0.125000 I7.983835 J-4.504808
G02 X52.027771 Y174.750329 Z-0.125000 I6.737403 J-5.200114
G02 X53.066555 Y175.571442 Z-0.125000 I5.092798 J-5.375229
G02 X54.259805 Y176.220846 Z-0.125000 I4.598333 J-7.028252
G02 X55.350791 Y176.638594 Z-0.125000 I4.577861 J-10.321993
G02 X56.385489 Y176.910240 Z-0.125000 I2.890121 J-8.902056
G02 X57.414541 Y177.053108 Z-0.125000 I1.672517 J-8.269367
G02 X58.554386 Y177.092615 Z-0.125000 I1.043746 J-13.651074
G02 X59.839889 Y177.044303 Z-0.125000 I-0.147830 J-21.060330
G02 X61.072686 Y176.933517 Z-0.125000 I-1.951438 J-28.629637
G03 X62.274055 Y176.823817 Z-0.125000 I3.324704 J29.776928
G03 X63.553582 Y176.765811 Z-0.125000 I1.765745 J24.808388
G03 X64.470097 Y176.779720 Z-0.125000 I0.258067 J13.198182
G03 X65.253019 Y176.882885 Z-0.125000 I-0.243102 J4.867281
G03 X65.766555 Y177.044303 Z-0.125000 I-0.614002 J2.850982
G03 X66.295408 Y177.309107 Z-0.125000 I-1.709808 J4.075237
G03 X66.904264 Y177.705761 Z-0.125000 I-3.982764 J6.779076
G03 X67.492056 Y178.162268 Z-0.125000 I-5.985951 J8.314106
G03 X68.033153 Y178.693539 Z-0.125000 I-3.060907 J3.658703
G03 X68.459612 Y179.298345 Z-0.125000 I-2.770772 J2.406476
G03 X68.729889 Y179.901803 Z-0.125000 I-3.132895 J1.765416
G03 X68.879183 Y180.548570 Z-0.125000 I-3.085387 J1.052821
G03 X68.888639 Y181.180623 Z-0.125000 I-2.858758 J0.358863
G03 X68.757475 Y181.794908 Z-0.125000 I-2.701336 J-0.255651
G03 X68.482944 Y182.362428 Z-0.125000 I-2.410527 J-0.815901
G03 X68.070214 Y182.874289 Z-0.125000 I-2.665044 J-1.726584
G03 X67.662736 Y183.182636 Z-0.125000 I-1.292281 J-1.284324
G03 X67.207900 Y183.309602 Z-0.125000 I-0.493439 J-0.889499
G03 X66.886625 Y183.253192 Z-0.125000 I-0.029448 J-0.775382
G03 X66.597949 Y183.079636 Z-0.125000 I0.404855 J-1.000248
G03 X66.375097 Y182.891595 Z-0.125000 I32.873482 J-39.185329
G02 X66.227589 Y182.770801 Z-0.125000 I-3.445868 J4.057473
G02 X66.066416 Y182.644650 Z-0.125000 I-15.302396 J19.384631
G03 X66.048989 Y182.704219 Z-0.125000 I-0.253960 J-0.041964
G02 X66.039972 Y182.794581 Z-0.125000 I0.138501 J0.059452
G02 X66.135282 Y183.056338 Z-0.125000 I0.948774 J-0.197232
G02 X66.428028 Y183.429581 Z-0.125000 I1.222642 J-0.657530
G02 X66.793625 Y183.659709 Z-0.125000 I0.845961 J-0.938481
G02 X67.292333 Y183.764720 Z-0.125000 I0.533907 J-1.298869
G01 X67.292362 Y183.764720 Z-0.125000
G00 Z5.000000

(End cutting path id: path3327)


(Start cutting path id: path3327)
(Change tool to Default tool)

G00 Z5.000000
G00 X102.922917 Y183.676525

G01 Z-0.125000 F100.0(Penetrate)
G03 X102.931757 Y183.676555 Z-0.125000 I0.003891 J0.159365 F400.000000
G02 X102.940556 Y183.676525 Z-0.125000 I0.003973 J-0.127929
G02 X103.428386 Y183.568953 Z-0.125000 I-0.052482 J-1.397916
G02 X103.787223 Y183.341386 Z-0.125000 I-0.488966 J-1.167721
G02 X104.073274 Y182.973565 Z-0.125000 I-0.894351 J-0.990669
G02 X104.166459 Y182.715206 Z-0.125000 I-0.874274 J-0.461317
G02 X104.157297 Y182.624947 Z-0.125000 I-0.146756 J-0.030698
G03 X104.140015 Y182.565275 Z-0.125000 I0.225754 J-0.097723
G02 X103.991319 Y182.685208 Z-0.125000 I16.074906 J20.082345
G02 X103.848973 Y182.803400 Z-0.125000 I5.547810 J6.826330
G03 X103.613514 Y182.997683 Z-0.125000 I-7.482395 J-8.828424
G03 X103.328626 Y183.164998 Z-0.125000 I-0.712740 J-0.887388
G03 X103.011626 Y183.220431 Z-0.125000 I-0.287553 J-0.710284
G03 X102.561334 Y183.094442 Z-0.125000 I0.038685 J-1.005943
G03 X102.151843 Y182.788502 Z-0.125000 I0.920035 J-1.658455
G03 X101.732306 Y182.274234 Z-0.125000 I2.125389 J-2.162139
G03 X101.453175 Y181.706432 Z-0.125000 I2.258876 J-1.462972
G03 X101.317792 Y181.092428 Z-0.125000 I2.434901 J-0.858804
G03 X101.331966 Y180.464416 Z-0.125000 I2.667060 J-0.253973
G03 X101.485362 Y179.822428 Z-0.125000 I3.464364 J0.488451
G03 X101.755742 Y179.218673 Z-0.125000 I3.393268 J1.157190
G03 X102.182098 Y178.614164 Z-0.125000 I3.200683 J1.804813
G03 X102.722555 Y178.078704 Z-0.125000 I3.835435 J3.330748
G03 X103.310987 Y177.617567 Z-0.125000 I5.901814 J6.924976
G03 X103.923055 Y177.216368 Z-0.125000 I4.870095 J6.762320
G03 X104.457515 Y176.947289 Z-0.125000 I2.189294 J3.683173
G03 X104.973887 Y176.788908 Z-0.125000 I1.054503 J2.517061
G03 X105.753973 Y176.691525 Z-0.125000 I1.044222 J5.191591
G03 X106.666855 Y176.677740 Z-0.125000 I0.653516 J13.043822
G03 X107.941195 Y176.735622 Z-0.125000 I-0.496215 J24.981570
G03 X109.144933 Y176.840773 Z-0.125000 I-2.638105 J37.143105
G02 X110.384181 Y176.947289 Z-0.125000 I3.642628 J-35.117400
G02 X111.670224 Y176.995580 Z-0.125000 I1.435541 J-21.081569
G02 X112.809529 Y176.956094 Z-0.125000 I0.096693 J-13.666390
G02 X113.833764 Y176.817424 Z-0.125000 I-0.672106 J-8.816162
G02 X114.864459 Y176.550400 Z-0.125000 I-1.690754 J-8.648911
G02 X115.957024 Y176.135802 Z-0.125000 I-3.725579 J-11.464686
G02 X117.148695 Y175.492067 Z-0.125000 I-3.221847 J-7.389089
G02 X118.197697 Y174.666318 Z-0.125000 I-4.182201 J-6.392096
G02 X119.088973 Y173.684081 Z-0.125000 I-5.715691 J-6.081875
G02 X119.806200 Y172.588599 Z-0.125000 I-6.680241 J-5.156178
G02 X120.350154 Y171.426303 Z-0.125000 I-8.753478 J-4.805051
G02 X120.741641 Y170.190552 Z-0.125000 I-9.094877 J-3.561152
G02 X120.932237 Y168.992136 Z-0.125000 I-7.136245 J-1.749315
G02 X120.921930 Y167.792297 Z-0.125000 I-7.159095 J-0.538462
G02 X120.747029 Y166.663803 Z-0.125000 I-9.249258 J0.855704
G02 X120.429290 Y165.524031 Z-0.125000 I-10.204150 J2.230473
G02 X120.085570 Y164.626511 Z-0.125000 I-12.231454 J4.169662
G02 X119.683760 Y163.792491 Z-0.125000 I-9.241126 J3.938350
G02 X119.406473 Y163.338872 Z-0.125000 I-4.365172 J2.356768
G02 X119.243554 Y163.140391 Z-0.125000 I-1.239459 J0.851281
G03 X119.115431 Y163.003733 Z-0.125000 I3.415972 J-3.331003
G01 X119.115431 Y163.462344 Z-0.125000
G02 X119.428689 Y163.994843 Z-0.125000 I46.765555 J-27.152806
G03 X119.671056 Y164.441303 Z-0.125000 I-5.439842 J3.242115
G03 X119.854685 Y164.864615 Z-0.125000 I-4.323210 J2.126850
G03 X120.050293 Y165.393803 Z-0.125000 I-36.007163 J13.610330
G03 X120.273501 Y166.029811 Z-0.125000 I-33.141107 J11.988095
G03 X120.508904 Y166.849011 Z-0.125000 I-8.383991 J2.852622
G03 X120.640704 Y167.616970 Z-0.125000 I-6.138390 J1.448782
G03 X120.676473 Y168.277761 Z-0.125000 I-6.085699 J0.660791
G03 X120.640885 Y168.922080 Z-0.125000 I-5.850372 J-0.000000
G03 X120.508904 Y169.732969 Z-0.125000 I-8.010725 J-0.887645
G03 X120.286642 Y170.594071 Z-0.125000 I-10.755771 J-2.316976
G03 X119.909181 Y171.593872 Z-0.125000 I-7.532620 J-2.272676
G03 X119.417733 Y172.489882 Z-0.125000 I-6.438612 J-2.948707
G03 X118.824390 Y173.304844 Z-0.125000 I-7.642284 J-4.940577
G03 X118.139899 Y174.058362 Z-0.125000 I-7.486320 J-6.112878
G03 X117.369181 Y174.715956 Z-0.125000 I-4.801733 J-4.847314
G03 X116.510646 Y175.250841 Z-0.125000 I-3.995072 J-5.455972
G03 X115.631751 Y175.641997 Z-0.125000 I-3.511452 J-6.706953
G03 X114.676244 Y175.933129 Z-0.125000 I-2.925453 J-7.887896
G03 X113.982515 Y176.065331 Z-0.125000 I-1.721689 J-7.148290
G03 X113.350927 Y176.102274 Z-0.125000 I-0.540433 J-3.821932
G03 X112.959459 Y176.047692 Z-0.125000 I0.040701 J-1.723009
G03 X112.550616 Y175.900674 Z-0.125000 I0.597218 J-2.302792
G03 X112.227445 Y175.739011 Z-0.125000 I2.809565 J-6.020298
G02 X111.924976 Y175.580880 Z-0.125000 I-8.538979 J15.964767
G02 X111.698279 Y175.492067 Z-0.125000 I-0.560863 J1.097884
G02 X111.456054 Y175.454123 Z-0.125000 I-0.278902 J0.988317
G02 X111.142654 Y175.474428 Z-0.125000 I-0.055942 J1.565302
G02 X110.765045 Y175.568128 Z-0.125000 I0.412243 J2.469050
G02 X110.595848 Y175.650817 Z-0.125000 I0.223118 J0.670989
G02 X110.555969 Y175.686057 Z-0.125000 I0.109050 J0.163586
G01 X110.551751 Y175.694914 Z-0.125000
G01 X110.552185 Y175.709000 Z-0.125000
G02 X110.578195 Y175.783108 Z-0.125000 I0.401866 J-0.099427
G02 X110.666363 Y175.932132 Z-0.125000 I0.772764 J-0.356603
G03 X110.789862 Y176.162344 Z-0.125000 I-0.733389 J0.541663
G03 X110.804695 Y176.219952 Z-0.125000 I-0.290346 J0.105474
G03 X110.807501 Y176.294636 Z-0.125000 I-0.313497 J0.049172
G03 X110.790808 Y176.374082 Z-0.125000 I-0.320396 J-0.025843
G03 X110.745765 Y176.444567 Z-0.125000 I-0.169768 J-0.058855
G03 X110.621319 Y176.514721 Z-0.125000 I-0.197371 J-0.204661
G03 X110.472362 Y176.541581 Z-0.125000 I-0.239956 J-0.904261
G03 X110.113322 Y176.545705 Z-0.125000 I-0.203540 J-2.088984
G03 X109.572778 Y176.471025 Z-0.125000 I0.320390 J-4.312628
G03 X109.117836 Y176.336106 Z-0.125000 I0.542556 J-2.663964
G03 X108.585001 Y176.091789 Z-0.125000 I1.983784 J-5.029664
G03 X108.011573 Y175.769419 Z-0.125000 I5.471296 J-10.403470
G03 X107.367917 Y175.377414 Z-0.125000 I28.083285 J-46.835959
G02 X106.733209 Y174.999881 Z-0.125000 I-11.024211 J17.811565
G02 X106.336042 Y174.812969 Z-0.125000 I-1.377479 J2.411578
G02 X105.937117 Y174.747676 Z-0.125000 I-0.361807 J0.959225
G02 X105.815695 Y174.777692 Z-0.125000 I0.011063 J0.305349
G02 X105.746809 Y174.846781 Z-0.125000 I0.063920 J0.132619
G02 X105.709862 Y174.945261 Z-0.125000 I0.544304 J0.260377
G03 X105.693150 Y174.999741 Z-0.125000 I-1.060719 J-0.295578
G03 X105.665765 Y175.068733 Z-0.125000 I-0.647917 J-0.217248
G03 X105.612978 Y175.140261 Z-0.125000 I-0.199425 J-0.091933
G03 X105.507015 Y175.192206 Z-0.125000 I-0.144888 J-0.161509
G03 X105.408894 Y175.193511 Z-0.125000 I-0.052940 J-0.290859
G03 X105.348265 Y175.183400 Z-0.125000 I0.397376 J-2.569631
G02 X105.278667 Y175.172663 Z-0.125000 I-0.258477 J1.444478
G02 X105.171876 Y175.165761 Z-0.125000 I-0.106791 J0.822768
G02 X104.922438 Y175.182133 Z-0.125000 I0.000000 J1.908386
G03 X104.545695 Y175.227497 Z-0.125000 I-2.205136 J-16.726182
G03 X104.201503 Y175.251047 Z-0.125000 I-0.459623 J-4.190695
G03 X103.990070 Y175.253942 Z-0.125000 I-0.211433 J-7.719161
G02 X103.894502 Y175.258634 Z-0.125000 I-0.000000 J0.975570
G02 X103.857778 Y175.262747 Z-0.125000 I0.134904 J1.370502
G01 X103.863305 Y175.266327 Z-0.125000
G02 X103.866584 Y175.465594 Z-0.125000 I1.020075 J0.082878
G02 X103.908510 Y175.713901 Z-0.125000 I2.334091 J-0.266416
G02 X104.016514 Y175.968303 Z-0.125000 I0.750692 J-0.168574
G02 X104.100570 Y176.074162 Z-0.125000 I0.640304 J-0.422117
G02 X104.210542 Y176.188789 Z-0.125000 I10.765227 J-10.218075
G03 X104.310803 Y176.296908 Z-0.125000 I-2.370878 J2.299107
G03 X104.395750 Y176.435733 Z-0.125000 I-0.347258 J0.307889
G03 X104.399311 Y176.612475 Z-0.125000 I-0.237797 J0.093198
G03 X104.316375 Y176.735594 Z-0.125000 I-0.273275 J-0.094592
G03 X104.200798 Y176.809264 Z-0.125000 I-0.299921 J-0.343037
G03 X104.078250 Y176.850247 Z-0.125000 I-0.279173 J-0.631068
G03 X103.826715 Y176.872925 Z-0.125000 I-0.206313 J-0.882040
G03 X103.469709 Y176.832608 Z-0.125000 I0.143558 J-2.872023
G03 X103.078243 Y176.761591 Z-0.125000 I7.065128 J-40.059308
G02 X102.640681 Y176.744414 Z-0.125000 I-0.277550 J1.488447
G02 X102.231995 Y176.850649 Z-0.125000 I0.150852 J1.419555
G02 X101.794014 Y177.088372 Z-0.125000 I1.034817 J2.428870
G02 X101.352493 Y177.436830 Z-0.125000 I2.078517 J3.087582
G02 X101.159014 Y177.661636 Z-0.125000 I0.864645 J0.939814
G02 X101.110142 Y177.770336 Z-0.125000 I0.288175 J0.194904
G02 X101.106098 Y177.802747 Z-0.125000 I0.125640 J0.032134
G02 X101.109525 Y177.832925 Z-0.125000 I0.137152 J-0.000294
G02 X101.132542 Y177.882122 Z-0.125000 I0.124938 J-0.028470
G02 X101.177797 Y177.931360 Z-0.125000 I0.289888 J-0.221023
G03 X101.256014 Y178.005594 Z-0.125000 I-1.532514 J1.693059
G03 X101.322372 Y178.076725 Z-0.125000 I-0.922290 J0.926924
G03 X101.388306 Y178.199622 Z-0.125000 I-0.240440 J0.208129
G03 X101.387985 Y178.340940 Z-0.125000 I-0.252255 J0.070088
G03 X101.335389 Y178.455386 Z-0.125000 I-0.391929 J-0.110812
G03 X101.261660 Y178.552211 Z-0.125000 I-0.782043 J-0.519014
G02 X101.141361 Y178.693511 Z-0.125000 I6.743786 J5.863339
G02 X100.865084 Y179.036147 Z-0.125000 I10.282650 J8.573884
G02 X100.559278 Y179.478442 Z-0.125000 I3.708310 J2.890825
G02 X100.376012 Y179.867717 Z-0.125000 I1.711761 J1.043651
G02 X100.303514 Y180.228094 Z-0.125000 I1.300693 J0.449146
G02 X100.325530 Y180.678447 Z-0.125000 I1.987616 J0.128549
G02 X100.426986 Y181.021844 Z-0.125000 I1.417172 J-0.232017
G02 X100.581351 Y181.255000 Z-0.125000 I0.746900 J-0.326820
G03 X100.726847 Y181.427539 Z-0.125000 I-1.450305 J1.370612
G03 X100.789024 Y181.540404 Z-0.125000 I-0.367373 J0.275943
G03 X100.815042 Y181.639205 Z-0.125000 I-0.454154 J0.172419
G03 X100.826858 Y181.731551 Z-0.125000 I-1.854001 J0.284168
G02 X100.841486 Y181.842053 Z-0.125000 I1.901475 J-0.195488
G02 X100.898830 Y182.083697 Z-0.125000 I1.682566 J-0.271655
G02 X101.097250 Y182.529969 Z-0.125000 I2.075154 J-0.655404
G02 X101.398163 Y182.944714 Z-0.125000 I2.296430 J-1.349616
G02 X101.864542 Y183.350178 Z-0.125000 I1.770025 J-1.564989
G02 X102.406363 Y183.605777 Z-0.125000 I1.154937 J-1.746166
G02 X102.922875 Y183.676497 Z-0.125000 I0.475786 J-1.553397
G01 X102.922917 Y183.676525 Z-0.125000
G00 Z5.000000

(End cutting path id: path3327)


(Start cutting path id: path3327)
(Change tool to Default tool)

G00 Z5.000000
G00 X44.273611 Y182.838678

G01 Z-0.125000 F100.0(Penetrate)
G03 X44.030857 Y182.841465 Z-0.125000 I-0.136404 J-1.307612 F400.000000
G03 X43.815000 Y182.803400 Z-0.125000 I0.094888 J-1.169167
G03 X43.434528 Y182.605558 Z-0.125000 I0.269823 J-0.983666
G03 X43.188820 Y182.388886 Z-0.125000 I3.328678 J-4.022409
G03 X43.149496 Y182.323673 Z-0.125000 I0.101672 J-0.105771
G03 X43.148159 Y182.247532 Z-0.125000 I0.140996 J-0.040557
G03 X43.185170 Y182.180978 Z-0.125000 I0.142333 J0.035583
G03 X43.250556 Y182.141942 Z-0.125000 I0.105322 J0.102137
G02 X43.429398 Y182.081148 Z-0.125000 I-0.524628 J-1.836795
G02 X43.568056 Y181.992011 Z-0.125000 I-0.157278 J-0.397070
G02 X43.681543 Y181.843789 Z-0.125000 I-0.425412 J-0.443276
G02 X43.815000 Y181.498123 Z-0.125000 I-1.230261 J-0.673584
G02 X43.873633 Y181.092480 Z-0.125000 I-2.149021 J-0.517686
G02 X43.867917 Y180.739650 Z-0.125000 I-2.635574 J-0.133761
G02 X43.793874 Y180.442998 Z-0.125000 I-0.947281 J0.078871
G02 X43.779722 Y180.422150 Z-0.125000 I-0.061214 J0.026324
G02 X43.768096 Y180.422448 Z-0.125000 I-0.004266 J0.060570
G03 X43.691528 Y180.430956 Z-0.125000 I-0.429354 J-3.515392
G03 X43.524075 Y180.433579 Z-0.125000 I-0.099249 J-0.989379
G03 X43.277014 Y180.316303 Z-0.125000 I0.025637 J-0.372883
G03 X43.209160 Y180.198363 Z-0.125000 I0.219696 J-0.204887
G03 X43.180000 Y180.060539 Z-0.125000 I0.792908 J-0.239753
G03 X43.166041 Y179.920345 Z-0.125000 I2.916016 J-0.361140
G02 X43.144722 Y179.663664 Z-0.125000 I-16.900171 J1.274419
G02 X43.078294 Y179.046292 Z-0.125000 I-18.878913 J1.719078
G02 X42.968334 Y178.252553 Z-0.125000 I-28.210104 J3.503604
G02 X42.850736 Y177.644319 Z-0.125000 I-7.852347 J1.202704
G02 X42.650834 Y176.956094 Z-0.125000 I-6.624067 J1.550893
G02 X42.344364 Y176.141605 Z-0.125000 I-16.761534 J5.841988
G03 X41.954097 Y175.121650 Z-0.125000 I26.704363 J-10.802570
G03 X41.641416 Y174.167813 Z-0.125000 I16.019530 J-5.779599
G03 X41.451389 Y173.357761 Z-0.125000 I7.017944 J-2.073628
G03 X41.354634 Y172.519189 Z-0.125000 I7.081575 J-1.241947
G03 X41.327917 Y171.823178 Z-0.125000 I19.571373 J-1.099782
G03 X41.327797 Y171.118236 Z-0.125000 I17.217644 J-0.355406
G03 X41.363195 Y170.597275 Z-0.125000 I5.492168 J0.111496
G02 X41.238864 Y171.118214 Z-0.125000 I6.685682 J1.870956
G02 X41.116250 Y171.902553 Z-0.125000 I9.585525 J1.900234
G02 X41.040864 Y172.712531 Z-0.125000 I18.559633 J2.135869
G03 X40.939861 Y173.569428 Z-0.125000 I-9.297935 J-0.661553
G03 X40.741235 Y174.403320 Z-0.125000 I-6.041168 J-0.998352
G03 X40.454792 Y175.112831 Z-0.125000 I-4.578294 J-1.435772
G03 X40.051805 Y175.744324 Z-0.125000 I-3.216083 J-1.608011
G03 X39.546389 Y176.188803 Z-0.125000 I-1.494417 J-1.189705
G03 X38.888455 Y176.441339 Z-0.125000 I-1.032172 J-1.705795
G03 X38.320486 Y176.471025 Z-0.125000 I-0.391965 J-2.051097
G03 X37.814792 Y176.327788 Z-0.125000 I0.115925 J-1.373562
G03 X37.482639 Y176.109428 Z-0.125000 I0.789783 J-1.563158
G03 X37.220887 Y175.859306 Z-0.125000 I1.710506 J-2.052069
G03 X36.988750 Y175.597900 Z-0.125000 I9.125643 J-8.337615
G01 X36.984212 Y175.597946 Z-0.125000
G01 X36.979945 Y175.597900 Z-0.125000
G01 X36.979945 Y175.589095 Z-0.125000
G01 X36.975407 Y175.589141 Z-0.125000
G01 X36.971140 Y175.589095 Z-0.125000
G03 X36.889034 Y175.547728 Z-0.125000 I0.021637 J-0.145109
G03 X36.847667 Y175.465622 Z-0.125000 I0.103742 J-0.103742
G03 X36.870735 Y175.374197 Z-0.125000 I0.146244 J-0.011724
G03 X36.944681 Y175.315692 Z-0.125000 I0.123176 J0.079702
G03 X36.948990 Y175.311196 Z-0.125000 I0.108051 J0.099246
G03 X36.953487 Y175.306887 Z-0.125000 I0.103742 J0.103742
G01 X36.971125 Y175.306887 Z-0.125000
G01 X36.979931 Y175.298081 Z-0.125000
G03 X36.988750 Y175.297816 Z-0.125000 I0.008819 J0.146448
G03 X36.997570 Y175.298081 Z-0.125000 I0.000000 J0.146713
G03 X37.051311 Y175.292572 Z-0.125000 I0.041577 J0.140699
G03 X37.103403 Y175.306887 Z-0.125000 I-0.012165 J0.146208
G02 X37.341092 Y175.316528 Z-0.125000 I0.232904 J-2.806955
G02 X37.553195 Y175.280442 Z-0.125000 I-0.001101 J-0.647850
G02 X37.808112 Y175.144579 Z-0.125000 I-0.309883 J-0.888507
G02 X38.073542 Y174.936484 Z-0.125000 I-4.789887 J-6.382927
G02 X38.300216 Y174.735391 Z-0.125000 I-2.404408 J-2.938574
G02 X38.346945 Y174.671901 Z-0.125000 I-0.160756 J-0.167257
G02 X38.375460 Y174.600922 Z-0.125000 I-0.419894 J-0.209908
G03 X38.585070 Y174.275026 Z-0.125000 I0.691037 J0.214103
G03 X38.949507 Y174.004211 Z-0.125000 I1.699390 J1.906260
G02 X39.387639 Y173.675303 Z-0.125000 I-1.527290 J-2.490745
G02 X39.644073 Y173.355788 Z-0.125000 I-0.882783 J-0.971157
G02 X39.978542 Y172.608151 Z-0.125000 I-3.599454 J-2.058915
G02 X40.308569 Y171.505985 Z-0.125000 I-17.678822 J-5.894155
G03 X40.631181 Y170.359192 Z-0.125000 I40.640234 J10.813994
G03 X40.917382 Y169.513483 Z-0.125000 I11.189784 J3.315515
G03 X41.072153 Y169.133290 Z-0.125000 I8.708393 J3.323456
G03 X41.138164 Y169.066874 Z-0.125000 I0.131623 J0.064809
G03 X41.230903 Y169.053915 Z-0.125000 I0.065612 J0.131224
G01 X41.680695 Y169.133290 Z-0.125000
G03 X41.955916 Y168.419658 Z-0.125000 I28.670939 J10.647428
G03 X42.262778 Y167.722178 Z-0.125000 I10.442350 J4.177960
G03 X42.661225 Y166.971898 Z-0.125000 I9.479608 J4.553331
G03 X43.012431 Y166.408081 Z-0.125000 I10.062768 J5.876893
G03 X43.369652 Y165.898819 Z-0.125000 I9.680893 J6.410735
G03 X43.603334 Y165.640790 Z-0.125000 I1.436787 J1.066378
G03 X43.747001 Y165.532620 Z-0.125000 I0.657016 J0.723136
G03 X43.867917 Y165.473220 Z-0.125000 I0.367018 J0.594341
G03 X43.991753 Y165.446497 Z-0.125000 I0.151841 J0.403346
G03 X44.123681 Y165.473220 Z-0.125000 I0.016705 J0.256545
G03 X44.184586 Y165.518131 Z-0.125000 I-0.098882 J0.197852
G03 X44.229514 Y165.587873 Z-0.125000 I-0.157668 J0.150913
G03 X44.249509 Y165.669030 Z-0.125000 I-0.278892 J0.111754
G03 X44.247153 Y165.746623 Z-0.125000 I-0.292550 J0.029948
G03 X44.203858 Y165.882571 Z-0.125000 I-0.484356 J-0.079385
G03 X44.088403 Y166.081762 Z-0.125000 I-1.455707 J-0.710699
G03 X43.771666 Y166.501343 Z-0.125000 I-4.346435 J-2.951732
G02 X43.277014 Y167.193012 Z-0.125000 I4.303559 J3.600431
G02 X42.890278 Y167.951070 Z-0.125000 I4.991872 J3.024370
G02 X42.659653 Y168.559997 Z-0.125000 I8.168843 J3.441996
G02 X42.534307 Y168.999138 Z-0.125000 I4.567390 J1.541156
G02 X42.474445 Y169.283192 Z-0.125000 I6.156800 J1.445827
G01 X42.712570 Y169.318470 Z-0.125000
G03 X42.766671 Y169.337871 Z-0.125000 I-0.021514 J0.145127
G03 X42.809168 Y169.376567 Z-0.125000 I-0.075616 J0.125726
G03 X42.833538 Y169.428619 Z-0.125000 I-0.118112 J0.087030
G03 X42.836042 Y169.486039 Z-0.125000 I-0.142483 J0.034978
G02 X42.722776 Y170.293267 Z-0.125000 I20.190487 J3.244593
G02 X42.703750 Y171.011803 Z-0.125000 I3.842374 J0.461258
G02 X42.838934 Y171.725041 Z-0.125000 I3.008653 J-0.200815
G02 X43.082986 Y172.220067 Z-0.125000 I1.759049 J-0.559555
G02 X43.467584 Y172.608277 Z-0.125000 I1.303071 J-0.906330
G02 X43.806181 Y172.784511 Z-0.125000 I0.807644 J-1.138332
G02 X44.159392 Y172.853030 Z-0.125000 I0.401303 J-1.124049
G02 X44.476459 Y172.846247 Z-0.125000 I0.103634 J-2.569884
G02 X44.810327 Y172.817256 Z-0.125000 I-4.128762 J-49.483366
G03 X45.129097 Y172.810970 Z-0.125000 I0.204033 J2.261075
G03 X45.288165 Y172.826413 Z-0.125000 I-0.085786 J1.710555
G03 X45.428959 Y172.863886 Z-0.125000 I-0.089465 J0.619359
G03 X45.552374 Y172.934708 Z-0.125000 I-0.182213 J0.460471
G03 X45.649445 Y173.057914 Z-0.125000 I-0.205001 J0.261358
G03 X45.666985 Y173.362077 Z-0.125000 I-0.384439 J0.174757
G03 X45.605347 Y173.542984 Z-0.125000 I-5.371970 J-1.729354
G02 X45.573973 Y173.636237 Z-0.125000 I2.139139 J0.771605
G02 X45.570070 Y173.657636 Z-0.125000 I0.084955 J0.026551
G01 X45.573025 Y173.667083 Z-0.125000
G02 X45.587709 Y173.684081 Z-0.125000 I0.190266 J-0.149522
G02 X45.676723 Y173.751040 Z-0.125000 I0.242309 J-0.229475
G02 X45.966945 Y173.825192 Z-0.125000 I0.305547 J-0.590854
G02 X46.212883 Y173.783903 Z-0.125000 I0.014884 J-0.664464
G02 X46.443195 Y173.657622 Z-0.125000 I-0.312796 J-0.843641
G02 X46.623026 Y173.488313 Z-0.125000 I-0.698923 J-0.922516
G03 X46.813611 Y173.278386 Z-0.125000 I3.774065 J3.234869
G03 X46.921877 Y173.177132 Z-0.125000 I1.017756 J0.979723
G03 X47.042917 Y173.093178 Z-0.125000 I0.510420 J0.606661
G03 X47.176125 Y173.038626 Z-0.125000 I0.284203 J0.504070
G03 X47.342778 Y173.040261 Z-0.125000 I0.080416 J0.297506
G03 X47.484021 Y173.131769 Z-0.125000 I-0.082410 J0.281958
G03 X47.572084 Y173.278386 Z-0.125000 I-0.397580 J0.338556
G03 X47.614228 Y173.441711 Z-0.125000 I-0.634917 J0.250936
G03 X47.616181 Y173.657622 Z-0.125000 I-0.897046 J0.116076
G03 X47.491678 Y174.097350 Z-0.125000 I-1.380128 J-0.153275
G03 X47.157570 Y174.601303 Z-0.125000 I-1.902107 J-0.898321
G03 X46.705938 Y174.982389 Z-0.125000 I-1.578364 J-1.412385
G03 X46.143334 Y175.236303 Z-0.125000 I-1.202346 J-1.913827
G03 X45.539533 Y175.333071 Z-0.125000 I-0.678568 J-2.301889
G03 X44.935070 Y175.298039 Z-0.125000 I-0.106055 J-3.402426
G03 X44.351822 Y175.150282 Z-0.125000 I0.437460 J-2.951831
G03 X43.770903 Y174.830608 Z-0.125000 I0.739455 J-2.031422
G03 X43.278099 Y174.353136 Z-0.125000 I1.866886 J-2.419882
G03 X42.862500 Y173.825192 Z-0.125000 I11.889424 J-9.786931
G03 X42.487815 Y173.303029 Z-0.125000 I10.971710 J-8.268419
G03 X42.209861 Y172.784497 Z-0.125000 I2.275653 J-1.553603
G03 X42.150968 Y172.544959 Z-0.125000 I0.795504 J-0.322592
G02 X42.112847 Y172.299428 Z-0.125000 I-2.165802 J0.210533
G03 X42.137777 Y172.708162 Z-0.125000 I-9.501899 J0.784660
G02 X42.183403 Y173.137275 Z-0.125000 I3.244958 J-0.128045
G02 X42.388888 Y174.054062 Z-0.125000 I9.668992 J-1.685743
G02 X42.703750 Y174.998178 Z-0.125000 I8.967909 J-2.466237
G02 X43.117241 Y175.896918 Z-0.125000 I8.244285 J-3.248528
G02 X43.656250 Y176.823803 Z-0.125000 I11.945245 J-6.326323
G02 X44.264204 Y177.741762 Z-0.125000 I24.715987 J-15.708826
G03 X44.838056 Y178.631789 Z-0.125000 I-14.024890 J9.672661
G03 X45.314669 Y179.548725 Z-0.125000 I-7.118387 J4.282395
G03 X45.570070 Y180.360400 Z-0.125000 I-3.472159 J1.538566
G03 X45.625540 Y181.222587 Z-0.125000 I-3.322195 J0.646615
G03 X45.490695 Y181.868525 Z-0.125000 I-2.325475 J-0.148418
G03 X45.160992 Y182.404625 Z-0.125000 I-1.462557 J-0.530042
G03 X44.758681 Y182.697553 Z-0.125000 I-0.977868 J-0.920284
G03 X44.514862 Y182.790825 Z-0.125000 I-0.719930 J-1.516635
G03 X44.273611 Y182.838664 Z-0.125000 I-0.380501 J-1.286612
G01 X44.273611 Y182.838678 Z-0.125000
G00 Z5.000000

(End cutting path id: path3327)


(Start cutting path id: path3327)
(Change tool to Default tool)

G00 Z5.000000
G00 X125.915209 Y182.785761

G01 Z-0.125000 F100.0(Penetrate)
G03 X125.851297 Y182.754859 Z-0.125000 I0.030011 J-0.143611 F400.000000
G03 X125.809376 Y182.697567 Z-0.125000 I0.093924 J-0.112708
G03 X125.809310 Y182.693164 Z-0.125000 I0.146647 J-0.004403
G03 X125.809376 Y182.688762 Z-0.125000 I0.146713 J-0.000000
G03 X125.625868 Y182.654662 Z-0.125000 I0.681843 J-4.180230
G03 X125.438959 Y182.591748 Z-0.125000 I0.169791 J-0.813516
G03 X125.036793 Y182.290834 Z-0.125000 I0.543545 J-1.145641
G03 X124.715765 Y181.753901 Z-0.125000 I1.234010 J-1.102241
G03 X124.581488 Y181.111782 Z-0.125000 I2.185091 J-0.792036
G03 X124.636390 Y180.254595 Z-0.125000 I3.344197 J-0.216159
G03 X124.883068 Y179.444990 Z-0.125000 I4.011990 J0.780029
G03 X125.350765 Y178.525984 Z-0.125000 I6.669702 J2.815805
G03 X125.934324 Y177.634308 Z-0.125000 I12.041721 J7.243932
G02 X126.550209 Y176.717998 Z-0.125000 I-17.554004 J-12.463822
G02 X127.083681 Y175.792549 Z-0.125000 I-10.433440 J-6.630805
G02 X127.493890 Y174.892373 Z-0.125000 I-8.422574 J-4.381706
G02 X127.808718 Y173.948263 Z-0.125000 I-8.662380 J-3.413151
G02 X128.014237 Y173.031470 Z-0.125000 I-9.465365 J-2.603302
G02 X128.061874 Y172.558038 Z-0.125000 I-3.243149 J-0.565439
G03 X128.084792 Y172.105428 Z-0.125000 I10.004578 J0.279716
G02 X128.045414 Y172.385475 Z-0.125000 I2.714590 J0.524505
G03 X127.978959 Y172.661053 Z-0.125000 I-0.956834 J-0.084934
G03 X127.705149 Y173.183905 Z-0.125000 I-2.825116 J-1.146356
G03 X127.335140 Y173.710567 Z-0.125000 I-8.143383 J-5.327859
G03 X126.919486 Y174.238241 Z-0.125000 I-12.440510 J-9.371962
G03 X126.426737 Y174.715984 Z-0.125000 I-2.368450 J-1.949860
G03 X125.854453 Y175.038274 Z-0.125000 I-1.397116 J-1.811585
G03 X125.271390 Y175.192234 Z-0.125000 I-0.984140 J-2.546010
G03 X124.658983 Y175.218870 Z-0.125000 I-0.434216 J-2.929938
G03 X124.054306 Y175.112859 Z-0.125000 I0.163250 J-2.708680
G03 X123.490186 Y174.873792 Z-0.125000 I0.760366 J-2.579323
G03 X123.031251 Y174.504317 Z-0.125000 I0.895151 J-1.581658
G03 X122.701831 Y173.995481 Z-0.125000 I1.462094 J-1.307608
G03 X122.581459 Y173.551817 Z-0.125000 I1.364424 J-0.608348
G03 X122.581542 Y173.330128 Z-0.125000 I0.992209 J-0.110473
G03 X122.625556 Y173.163762 Z-0.125000 I0.583781 J0.065441
G03 X122.720426 Y173.020906 Z-0.125000 I0.436914 J0.187223
G03 X122.863681 Y172.934456 Z-0.125000 I0.233960 J0.225775
G03 X123.031371 Y172.932300 Z-0.125000 I0.087718 J0.300091
G03 X123.163542 Y172.987373 Z-0.125000 I-0.134933 J0.509969
G03 X123.279869 Y173.072236 Z-0.125000 I-0.367285 J0.625617
G03 X123.384028 Y173.172581 Z-0.125000 I-1.300502 J1.454168
G03 X123.574609 Y173.382382 Z-0.125000 I-3.577870 J3.441543
G02 X123.754445 Y173.551817 Z-0.125000 I0.883935 J-0.758043
G02 X123.982469 Y173.682146 Z-0.125000 I0.614924 J-0.811229
G02 X124.230695 Y173.728206 Z-0.125000 I0.234096 J-0.569696
G03 X124.235098 Y173.728140 Z-0.125000 I0.004403 J0.146647
G03 X124.239501 Y173.728206 Z-0.125000 I-0.000000 J0.146713
G02 X124.516035 Y173.651775 Z-0.125000 I-0.013127 J-0.585971
G02 X124.609917 Y173.578275 Z-0.125000 I-0.200737 J-0.353116
G02 X124.624292 Y173.557388 Z-0.125000 I-0.059628 J-0.056426
G01 X124.627556 Y173.542998 Z-0.125000
G02 X124.624936 Y173.515493 Z-0.125000 I-0.148889 J0.000305
G02 X124.601112 Y173.428345 Z-0.125000 I-0.562529 J0.106953
G03 X124.540350 Y173.251348 Z-0.125000 I5.869795 J-2.113989
G03 X124.557015 Y172.952095 Z-0.125000 I0.392600 J-0.128228
G03 X124.760970 Y172.760681 Z-0.125000 I0.334029 J0.151547
G03 X125.068542 Y172.696331 Z-0.125000 I0.358010 J0.943955
G03 X125.399027 Y172.707274 Z-0.125000 I0.099699 J1.984938
G02 X125.730001 Y172.740428 Z-0.125000 I1.167317 J-9.984503
G02 X126.036966 Y172.743262 Z-0.125000 I0.172565 J-2.065789
G02 X126.391459 Y172.669873 Z-0.125000 I-0.084541 J-1.301214
G02 X126.728756 Y172.497612 Z-0.125000 I-0.494191 J-1.384005
G02 X127.105834 Y172.123067 Z-0.125000 I-0.836938 J-1.219687
G02 X127.359456 Y171.619131 Z-0.125000 I-1.642599 J-1.142478
G02 X127.502709 Y170.897164 Z-0.125000 I-2.712458 J-0.913405
G02 X127.483482 Y170.182939 Z-0.125000 I-3.813344 J-0.254713
G02 X127.370417 Y169.380220 Z-0.125000 I-20.736161 J2.511393
G03 X127.374569 Y169.318983 Z-0.125000 I0.145215 J-0.020914
G03 X127.403410 Y169.264803 Z-0.125000 I0.141063 J0.040324
G03 X127.451891 Y169.227163 Z-0.125000 I0.112223 J0.094503
G03 X127.511529 Y169.212650 Z-0.125000 I0.063741 J0.132143
G01 X127.723195 Y169.212650 Z-0.125000
G02 X127.665828 Y168.942936 Z-0.125000 I-15.585943 J3.174112
G02 X127.546806 Y168.515914 Z-0.125000 I-4.040241 J0.896018
G02 X127.312510 Y167.907241 Z-0.125000 I-7.356449 J2.482281
G02 X126.920626 Y167.148900 Z-0.125000 I-5.804054 J2.518910
G02 X126.433318 Y166.446853 Z-0.125000 I-5.888559 J3.567244
G03 X126.126876 Y166.028831 Z-0.125000 I5.602942 J-4.428713
G03 X126.011487 Y165.828987 Z-0.125000 I1.309195 J-0.889159
G03 X125.968126 Y165.693692 Z-0.125000 I0.456580 J-0.220926
G03 X125.961622 Y165.621077 Z-0.125000 I0.448689 J-0.076788
G03 X125.976931 Y165.543762 Z-0.125000 I0.193905 J-0.001778
G03 X126.024120 Y165.472172 Z-0.125000 I0.217384 J0.091944
G03 X126.082764 Y165.429109 Z-0.125000 I0.153291 J0.147291
G03 X126.214030 Y165.401940 Z-0.125000 I0.116789 J0.233579
G03 X126.338528 Y165.429109 Z-0.125000 I-0.022251 J0.400801
G03 X126.454849 Y165.488990 Z-0.125000 I-0.236805 J0.602918
G03 X126.594292 Y165.596678 Z-0.125000 I-0.593299 J0.912375
G03 X126.830961 Y165.854363 Z-0.125000 I-1.309559 J1.440285
G03 X127.194014 Y166.363970 Z-0.125000 I-7.329053 J5.605472
G03 X127.544978 Y166.927735 Z-0.125000 I-9.775776 J6.476900
G03 X127.943667 Y167.678067 Z-0.125000 I-9.152515 J5.344273
G03 X128.241068 Y168.366810 Z-0.125000 I-8.382385 J4.028121
G03 X128.508112 Y169.071539 Z-0.125000 I-69.470470 J26.727408
G01 X128.931445 Y168.983345 Z-0.125000
G03 X129.031363 Y168.996788 Z-0.125000 I0.031587 J0.143273
G03 X129.099014 Y169.071539 Z-0.125000 I-0.068331 J0.129829
G03 X129.253978 Y169.451940 Z-0.125000 I-8.454008 J3.665677
G03 X129.539987 Y170.297442 Z-0.125000 I-10.870318 J4.148231
G03 X129.863261 Y171.451930 Z-0.125000 I-38.265991 J11.337582
G02 X130.192626 Y172.555220 Z-0.125000 I17.341818 J-4.576230
G02 X130.525537 Y173.287084 Z-0.125000 I3.635868 J-1.212240
G02 X130.783528 Y173.604734 Z-0.125000 I1.178900 J-0.693895
G02 X131.223895 Y173.948751 Z-0.125000 I2.522163 J-2.774695
G03 X131.577278 Y174.222095 Z-0.125000 I-1.778600 J2.664499
G03 X131.787005 Y174.525661 Z-0.125000 I-0.520979 J0.584162
G02 X131.824223 Y174.610150 Z-0.125000 I0.892807 J-0.342844
G02 X131.879625 Y174.689124 Z-0.125000 I0.294032 J-0.147351
G02 X132.088806 Y174.883553 Z-0.125000 I1.645856 J-1.560991
G02 X132.349854 Y175.076562 Z-0.125000 I2.107358 J-2.577206
G02 X132.617973 Y175.209873 Z-0.125000 I0.658313 J-0.987737
G02 X132.867388 Y175.251163 Z-0.125000 I0.243880 J-0.699227
G02 X133.155959 Y175.236317 Z-0.125000 I-0.024592 J-3.290072
G03 X133.237257 Y175.255123 Z-0.125000 I0.008950 J0.146440
G03 X133.295151 Y175.315216 Z-0.125000 I-0.072348 J0.127634
G03 X133.310913 Y175.397158 Z-0.125000 I-0.130242 J0.067541
G03 X133.279445 Y175.474442 Z-0.125000 I-0.146005 J-0.014401
G02 X133.029564 Y175.769279 Z-0.125000 I25.917069 J22.218640
G03 X132.732640 Y176.065345 Z-0.125000 I-1.798933 J-1.507224
G03 X132.390976 Y176.285853 Z-0.125000 I-1.073032 J-1.287648
G03 X131.877154 Y176.426942 Z-0.125000 I-0.636927 J-1.313410
G03 X131.304872 Y176.392617 Z-0.125000 I-0.167866 J-1.989103
