%
(Header)
(Generated by gcodetools from Inkscape.)
(Using default header. To add your own header create file "header" in the output dir.)
M3
(Header end.)
G21 (All units in mm)

(Start cutting path id: path3210-1-7-4)
(Change tool to Default tool)

G00 Z5.000000
G00 X103.618069 Y166.965140

G01 Z-0.125000 F100.0(Penetrate)
G02 X102.638112 Y164.448634 Z-0.125000 I-21.398884 J6.883919 F400.000000
G02 X101.332100 Y163.013127 Z-0.125000 I-2.919033 J1.343859
G00 Z5.000000

(End cutting path id: path3210-1-7-4)


(Start cutting path id: path3208)
(Change tool to Default tool)

G00 Z5.000000
G00 X102.362199 Y166.355645

G01 Z-0.125000 F100.0(Penetrate)
G01 X101.089577 Y164.851641 Z-0.125000 F400.000000
G01 X100.742501 Y163.579022 Z-0.125000
G01 X104.907436 Y158.835625 Z-0.125000
G01 X106.527131 Y156.753156 Z-0.125000
G01 X108.262521 Y156.059003 Z-0.125000
G01 X109.650834 Y156.753156 Z-0.125000
G01 X110.113605 Y158.719931 Z-0.125000
G01 X109.303754 Y161.033784 Z-0.125000
G01 X107.568364 Y163.116252 Z-0.125000
G01 X105.601593 Y165.083026 Z-0.125000
G01 X104.328971 Y166.355645 Z-0.125000
G01 X103.403432 Y167.049801 Z-0.125000
G01 X102.362199 Y166.355645 Z-0.125000
G01 X102.362199 Y166.355645 Z-0.125000
G00 Z5.000000

(End cutting path id: path3208)


(Start cutting path id: path3210-1)
(Change tool to Default tool)

G00 Z5.000000
G00 X104.651792 Y165.940716

G01 Z-0.125000 F100.0(Penetrate)
G02 X103.671835 Y163.424209 Z-0.125000 I-21.398884 J6.883919 F400.000000
G02 X102.365823 Y161.988702 Z-0.125000 I-2.919033 J1.343859
G00 Z5.000000

(End cutting path id: path3210-1)


(Start cutting path id: path3210)
(Change tool to Default tool)

G00 Z5.000000
G00 X105.109762 Y165.260349

G01 Z-0.125000 F100.0(Penetrate)
G02 X104.129805 Y162.743844 Z-0.125000 I-21.398953 J6.883947 F400.000000
G02 X102.823793 Y161.308336 Z-0.125000 I-2.919034 J1.343858
G00 Z5.000000

(End cutting path id: path3210)


(Start cutting path id: path3206)
(Change tool to Default tool)

G00 Z5.000000
G00 X15.414558 Y164.159985

G01 Z-0.125000 F100.0(Penetrate)
G01 X14.345190 Y164.159985 Z-0.125000 F400.000000
G01 X13.740764 Y163.462571 Z-0.125000
G01 X14.577661 Y162.625674 Z-0.125000
G00 Z5.000000

(End cutting path id: path3206)


(Start cutting path id: path3204)
(Change tool to Default tool)

G00 Z5.000000
G00 X13.601281 Y161.230846

G01 Z-0.125000 F100.0(Penetrate)
G02 X12.996233 Y161.245073 Z-0.125000 I-0.000000 J12.872495 F400.000000
G02 X11.416051 Y161.323834 Z-0.125000 I13.369107 J284.115731
G01 X10.904613 Y160.393949 Z-0.125000
G01 X12.159959 Y159.185099 Z-0.125000
G01 X12.159959 Y158.534177 Z-0.125000
G00 Z5.000000

(End cutting path id: path3204)


(Start cutting path id: path3096)
(Change tool to Default tool)

G00 Z5.000000
G00 X17.636984 Y121.143484

G01 Z-0.125000 F100.0(Penetrate)
G01 X16.465329 Y116.568448 Z-0.125000 F400.000000
G01 X16.465329 Y113.611410 Z-0.125000
G01 X17.302226 Y111.156513 Z-0.125000
G00 Z5.000000

(End cutting path id: path3096)


(Start cutting path id: path3255)
(Change tool to Default tool)

G00 Z5.000000
G00 X89.000079 Y89.948394

G01 Z-0.125000 F100.0(Penetrate)
G01 X87.254511 Y87.651595 Z-0.125000 F400.000000
G01 X85.968304 Y85.630410 Z-0.125000
G01 X86.152047 Y85.079180 Z-0.125000
G01 X87.713873 Y86.916620 Z-0.125000
G01 X90.286289 Y85.630410 Z-0.125000
G01 X90.470031 Y84.527946 Z-0.125000
G01 X89.183825 Y83.057994 Z-0.125000
G01 X88.540720 Y81.679913 Z-0.125000
G01 X88.540720 Y81.128683 Z-0.125000
G01 X90.194414 Y83.425482 Z-0.125000
G01 X91.021265 Y83.701099 Z-0.125000
G01 X93.226193 Y82.231147 Z-0.125000
G01 X93.042447 Y81.128683 Z-0.125000
G01 X91.848112 Y79.015626 Z-0.125000
G01 X91.664366 Y77.270058 Z-0.125000
G01 X92.950576 Y76.535082 Z-0.125000
G01 X93.869294 Y76.902570 Z-0.125000
G01 X94.879887 Y78.831881 Z-0.125000
G01 X95.431121 Y79.750602 Z-0.125000
G01 X94.604270 Y81.312425 Z-0.125000
G01 X93.685552 Y81.128683 Z-0.125000
G01 X92.583088 Y79.474985 Z-0.125000
G01 X92.583088 Y80.026219 Z-0.125000
G01 X93.409935 Y82.414889 Z-0.125000
G01 X93.961169 Y82.690506 Z-0.125000
G01 X96.074222 Y81.588042 Z-0.125000
G01 X96.074222 Y78.648138 Z-0.125000
G01 X95.706734 Y77.729417 Z-0.125000
G01 X95.614863 Y77.086315 Z-0.125000
G01 X95.890480 Y76.075723 Z-0.125000
G01 X96.901073 Y75.891977 Z-0.125000
G00 Z5.000000

(End cutting path id: path3255)


(Start cutting path id: path3253)
(Change tool to Default tool)

G00 Z5.000000
G00 X89.367567 Y89.856523

G01 Z-0.125000 F100.0(Penetrate)
G01 X92.674959 Y88.478443 Z-0.125000 F400.000000
G01 X94.144911 Y88.202826 Z-0.125000
G01 X95.522992 Y88.294697 Z-0.125000
G01 X95.798609 Y85.814156 Z-0.125000
G01 X94.420528 Y85.538539 Z-0.125000
G01 X91.756241 Y86.824745 Z-0.125000
G01 X90.378160 Y87.559721 Z-0.125000
G01 X91.296878 Y88.754059 Z-0.125000
G01 X89.367567 Y89.856523 Z-0.125000
G01 X89.367567 Y89.856523 Z-0.125000
G00 Z5.000000

(End cutting path id: path3253)


(Start cutting path id: path3251)
(Change tool to Default tool)

G00 Z5.000000
G00 X89.183825 Y92.153322

G01 Z-0.125000 F100.0(Penetrate)
G01 X93.869294 Y93.255786 Z-0.125000 F400.000000
G01 X95.982351 Y93.715145 Z-0.125000
G01 X95.706734 Y90.407754 Z-0.125000
G01 X94.420528 Y89.213418 Z-0.125000
G01 X91.021265 Y90.591499 Z-0.125000
G01 X89.551313 Y91.510217 Z-0.125000
G01 X89.183825 Y92.153322 Z-0.125000
G01 X89.183825 Y92.153322 Z-0.125000
G00 Z5.000000

(End cutting path id: path3251)


(Start cutting path id: path3249)
(Change tool to Default tool)

G00 Z5.000000
G00 X85.233328 Y91.142729

G01 Z-0.125000 F100.0(Penetrate)
G01 X85.325200 Y88.662185 Z-0.125000 F400.000000
G01 X87.989487 Y90.315882 Z-0.125000
G01 X88.356975 Y91.877705 Z-0.125000
G01 X85.233328 Y91.142729 Z-0.125000
G01 X85.233328 Y91.142729 Z-0.125000
G00 Z5.000000

(End cutting path id: path3249)


(Start cutting path id: path3247)
(Change tool to Default tool)

G00 Z5.000000
G00 X96.257968 Y99.778699

G01 Z-0.125000 F100.0(Penetrate)
G01 X95.339246 Y99.319340 Z-0.125000 F400.000000
G01 X95.522992 Y97.665642 Z-0.125000
G01 X96.717327 Y97.022537 Z-0.125000
G01 X97.360432 Y99.594953 Z-0.125000
G01 X97.544174 Y100.054316 Z-0.125000
G01 X96.257968 Y99.778699 Z-0.125000
G01 X96.257968 Y99.778699 Z-0.125000
G00 Z5.000000

(End cutting path id: path3247)


(Start cutting path id: path3245)
(Change tool to Default tool)

G00 Z5.000000
G00 X80.180368 Y98.676235

G01 Z-0.125000 F100.0(Penetrate)
G01 X81.925937 Y97.941259 Z-0.125000 F400.000000
G01 X81.834062 Y96.655049 Z-0.125000
G01 X80.731598 Y95.644456 Z-0.125000
G01 X78.894158 Y94.817609 Z-0.125000
G01 X78.526670 Y94.817609 Z-0.125000
G01 X79.077904 Y96.563178 Z-0.125000
G01 X80.180368 Y98.676235 Z-0.125000
G01 X80.180368 Y98.676235 Z-0.125000
G00 Z5.000000

(End cutting path id: path3245)


(Start cutting path id: path3243)
(Change tool to Default tool)

G00 Z5.000000
G00 X84.130865 Y100.513675

G01 Z-0.125000 F100.0(Penetrate)
G01 X83.304014 Y93.990762 Z-0.125000 F400.000000
G01 X84.865841 Y93.163915 Z-0.125000
G01 X90.653777 Y93.898891 Z-0.125000
G01 X92.858705 Y94.450121 Z-0.125000
G01 X93.501806 Y95.828202 Z-0.125000
G01 X93.409935 Y97.022537 Z-0.125000
G01 X93.869294 Y99.227465 Z-0.125000
G01 X94.420528 Y100.697417 Z-0.125000
G01 X92.674959 Y101.432393 Z-0.125000
G01 X89.275696 Y100.881163 Z-0.125000
G01 X85.968304 Y100.054316 Z-0.125000
G01 X84.130865 Y100.513675 Z-0.125000
G01 X84.130865 Y100.513675 Z-0.125000
G00 Z5.000000

(End cutting path id: path3243)


(Start cutting path id: path3241)
(Change tool to Default tool)

G00 Z5.000000
G00 X75.403024 Y96.379432

G01 Z-0.125000 F100.0(Penetrate)
G01 X77.791694 Y93.623274 Z-0.125000 F400.000000
G01 X78.894158 Y90.683370 Z-0.125000
G01 X81.834062 Y91.785834 Z-0.125000
G01 X81.925937 Y93.163915 Z-0.125000
G03 X82.406798 Y93.310690 Z-0.125000 I-0.231233 J1.618638
G03 X82.660913 Y93.623274 Z-0.125000 I-0.207004 J0.427867
G03 X82.764851 Y94.311131 Z-0.125000 I-3.557163 J0.889282
>>>G03 X83.212143 Y102.534857 Z-0.125000 I-6575.535316 J361.770534
G01 X80.547856 Y101.248651 Z-0.125000
G01 X78.159182 Y96.930666 Z-0.125000
G01 X77.975440 Y95.828202 Z-0.125000
G01 X75.403024 Y96.379432 Z-0.125000
G01 X75.403024 Y96.379432 Z-0.125000
G00 Z5.000000

(End cutting path id: path3241)


(Start cutting path id: path3239)
(Change tool to Default tool)

G00 Z5.000000
G00 X32.637419 Y130.036005

G01 Z-0.125000 F100.0(Penetrate)
G01 X32.754181 Y126.649828 Z-0.125000 F400.000000
G01 X41.394775 Y122.563063 Z-0.125000
G01 X46.999482 Y119.527179 Z-0.125000
G01 X52.370661 Y116.841590 Z-0.125000
G01 X54.238896 Y117.191884 Z-0.125000
G01 X55.406544 Y119.293648 Z-0.125000
G01 X58.208896 Y127.350416 Z-0.125000
G01 X61.595073 Y134.356302 Z-0.125000
G01 X65.448310 Y140.544831 Z-0.125000
G01 X70.118901 Y147.317186 Z-0.125000
G01 X75.139782 Y153.155424 Z-0.125000
G01 X80.394199 Y158.293072 Z-0.125000
G01 X82.612728 Y160.394839 Z-0.125000
G01 X82.379197 Y161.562487 Z-0.125000
G01 X81.561843 Y162.029543 Z-0.125000
G01 X76.307430 Y164.598370 Z-0.125000
G01 X71.753605 Y166.583368 Z-0.125000
G01 X68.717722 Y168.334841 Z-0.125000
G01 X66.148898 Y169.852783 Z-0.125000
G01 X64.514194 Y170.553371 Z-0.125000
G01 X61.711839 Y171.020431 Z-0.125000
G01 X59.726837 Y170.670137 Z-0.125000
G01 X57.625074 Y168.685135 Z-0.125000
G01 X52.370661 Y163.664250 Z-0.125000
G01 X47.583304 Y157.942778 Z-0.125000
G01 X42.562423 Y150.703363 Z-0.125000
G01 X37.308006 Y141.478951 Z-0.125000
G01 X34.272123 Y134.589830 Z-0.125000
G01 X32.637419 Y130.036005 Z-0.125000
G01 X32.637419 Y130.036005 Z-0.125000
G00 Z5.000000

(End cutting path id: path3239)


(Start cutting path id: path3237)
(Change tool to Default tool)

G00 Z5.000000
G00 X14.942125 Y83.347425

G01 Z-0.125000 F100.0(Penetrate)
G01 X17.479396 Y82.012020 Z-0.125000 F400.000000
G01 X19.282194 Y80.543072 Z-0.125000
G00 Z5.000000

(End cutting path id: path3237)


(Start cutting path id: path3235)
(Change tool to Default tool)

G00 Z5.000000
G00 X18.547723 Y80.209222

G01 Z-0.125000 F100.0(Penetrate)
G01 X15.943681 Y82.145559 Z-0.125000 F400.000000
G00 Z5.000000

(End cutting path id: path3235)


(Start cutting path id: path3233)
(Change tool to Default tool)

G00 Z5.000000
G00 X18.013560 Y79.474749

G01 Z-0.125000 F100.0(Penetrate)
G01 X15.275978 Y81.544628 Z-0.125000 F400.000000
G00 Z5.000000

(End cutting path id: path3233)


(Start cutting path id: path3231)
(Change tool to Default tool)

G00 Z5.000000
G00 X17.546168 Y78.740275

G01 Z-0.125000 F100.0(Penetrate)
G01 X14.741815 Y80.943693 Z-0.125000 F400.000000
G00 Z5.000000

(End cutting path id: path3231)


(Start cutting path id: path3229)
(Change tool to Default tool)

G00 Z5.000000
G00 X17.078775 Y78.206111

G01 Z-0.125000 F100.0(Penetrate)
G01 X14.341194 Y80.342761 Z-0.125000 F400.000000
G00 Z5.000000

(End cutting path id: path3229)


(Start cutting path id: path3227)
(Change tool to Default tool)

G00 Z5.000000
G00 X20.083439 Y95.499617

G01 Z-0.125000 F100.0(Penetrate)
G01 X22.887792 Y92.695264 Z-0.125000 F400.000000
G01 X23.956115 Y91.693709 Z-0.125000
G01 X25.625373 Y91.626941 Z-0.125000
G01 X26.827236 Y92.828803 Z-0.125000
G01 X28.362955 Y91.026006 Z-0.125000
G01 X30.432834 Y89.223209 Z-0.125000
G01 X31.768239 Y88.421967 Z-0.125000
G00 Z5.000000

(End cutting path id: path3227)


(Start cutting path id: path3225)
(Change tool to Default tool)

G00 Z5.000000
G00 X55.956017 Y179.547939

G01 Z-0.125000 F100.0(Penetrate)
G01 X58.967582 Y181.875057 Z-0.125000 F400.000000
G01 X60.131142 Y183.859952 Z-0.125000
G01 X61.089365 Y183.859952 Z-0.125000
G01 X60.268030 Y181.464387 Z-0.125000
G01 X60.062695 Y179.821718 Z-0.125000
G01 X58.899138 Y180.027052 Z-0.125000
G01 X58.146247 Y180.643053 Z-0.125000
G01 X55.956017 Y179.547939 Z-0.125000
G01 X55.956017 Y179.547939 Z-0.125000
G00 Z5.000000

(End cutting path id: path3225)


(Start cutting path id: path3223)
(Change tool to Default tool)

G00 Z5.000000
G00 X35.901739 Y158.056322

G01 Z-0.125000 F100.0(Penetrate)
G03 X36.332801 Y158.452869 Z-0.125000 I-1.756354 J2.341796 F400.000000
G03 X38.707969 Y161.136331 Z-0.125000 I-572.781108 J509.368972
G01 X41.171978 Y164.147896 Z-0.125000
G01 X44.183539 Y167.296348 Z-0.125000
G01 X45.620878 Y169.486578 Z-0.125000
G01 X47.126660 Y170.376357 Z-0.125000
G01 X47.811108 Y171.539918 Z-0.125000
G01 X48.495552 Y172.498140 Z-0.125000
G01 X49.522221 Y172.703474 Z-0.125000
G01 X50.138225 Y173.661700 Z-0.125000
G01 X51.644008 Y175.235926 Z-0.125000
G01 X52.739121 Y175.509705 Z-0.125000
G00 Z5.000000

(End cutting path id: path3223)


(Start cutting path id: path3221)
(Change tool to Default tool)

G00 Z5.000000
G00 X56.024464 Y171.060805

G01 Z-0.125000 F100.0(Penetrate)
G01 X59.515139 Y171.197692 Z-0.125000 F400.000000
G01 X57.735578 Y170.171022 Z-0.125000
G01 X56.024464 Y171.060805 Z-0.125000
G01 X56.024464 Y171.060805 Z-0.125000
G00 Z5.000000

(End cutting path id: path3221)


(Start cutting path id: path3219)
(Change tool to Default tool)

G00 Z5.000000
G00 X50.001334 Y171.882140

G01 Z-0.125000 F100.0(Penetrate)
G02 X50.868394 Y171.851238 Z-0.125000 I-0.000000 J-12.179944 F400.000000
G02 X54.176456 Y171.608361 Z-0.125000 I-57.858570 J-810.701354
G01 X57.804025 Y170.034135 Z-0.125000
G01 X61.636925 Y172.224362 Z-0.125000
G01 X58.693804 Y173.387922 Z-0.125000
G01 X54.792460 Y173.387922 Z-0.125000
G01 X51.780895 Y172.908809 Z-0.125000
G01 X50.685782 Y173.251031 Z-0.125000
G01 X49.385334 Y172.224362 Z-0.125000
G01 X50.001334 Y171.882140 Z-0.125000
G01 X50.001334 Y171.882140 Z-0.125000
G00 Z5.000000

(End cutting path id: path3219)


(Start cutting path id: path3217)
(Change tool to Default tool)

G00 Z5.000000
G00 X51.301782 Y167.843905

G01 Z-0.125000 F100.0(Penetrate)
G03 X50.954817 Y167.671738 Z-0.125000 I0.219521 J-0.878097 F400.000000
G03 X50.275113 Y167.091014 Z-0.125000 I9.088847 J-11.326116
G01 X53.218234 Y165.790566 Z-0.125000
G01 X54.518682 Y167.159457 Z-0.125000
G01 X52.533786 Y167.707018 Z-0.125000
G01 X51.301782 Y167.843905 Z-0.125000
G01 X51.301782 Y167.843905 Z-0.125000
G00 Z5.000000

(End cutting path id: path3217)


(Start cutting path id: path3215)
(Change tool to Default tool)

G00 Z5.000000
G00 X45.826212 Y167.364792

G01 Z-0.125000 F100.0(Penetrate)
G01 X48.700886 Y169.897244 Z-0.125000 F400.000000
G01 X50.754225 Y170.718579 Z-0.125000
G01 X53.423568 Y169.828800 Z-0.125000
G01 X56.298242 Y168.733687 Z-0.125000
G01 X53.218234 Y165.653679 Z-0.125000
G01 X49.796000 Y166.885679 Z-0.125000
G01 X47.742661 Y167.433239 Z-0.125000
G01 X45.826212 Y167.364792 Z-0.125000
G01 X45.826212 Y167.364792 Z-0.125000
G00 Z5.000000

(End cutting path id: path3215)


(Start cutting path id: path3213)
(Change tool to Default tool)

G00 Z5.000000
G00 X44.731099 Y162.026110

G01 Z-0.125000 F100.0(Penetrate)
G01 X48.221773 Y160.588774 Z-0.125000 F400.000000
G01 X49.932891 Y162.710557 Z-0.125000
G01 X47.537329 Y163.326558 Z-0.125000
G01 X46.031547 Y163.326558 Z-0.125000
G01 X44.731099 Y162.026110 Z-0.125000
G01 X44.731099 Y162.026110 Z-0.125000
G00 Z5.000000

(End cutting path id: path3213)


(Start cutting path id: path3211)
(Change tool to Default tool)

G00 Z5.000000
G00 X44.936430 Y165.859010

G01 Z-0.125000 F100.0(Penetrate)
G02 X45.434446 Y165.713197 Z-0.125000 I-1.579479 J-6.317999 F400.000000
G02 X51.096447 Y163.805670 Z-0.125000 I-3425.175756 J-10176.111642
G01 X48.427108 Y160.383440 Z-0.125000
G01 X41.582643 Y162.436779 Z-0.125000
G01 X43.430648 Y164.147896 Z-0.125000
G01 X44.936430 Y165.859010 Z-0.125000
G01 X44.936430 Y165.859010 Z-0.125000
G00 Z5.000000

(End cutting path id: path3211)


(Start cutting path id: path3209)
(Change tool to Default tool)

G00 Z5.000000
G00 X40.282195 Y156.550540

G01 Z-0.125000 F100.0(Penetrate)
G01 X41.787978 Y158.398544 Z-0.125000 F400.000000
G01 X43.567539 Y158.398544 Z-0.125000
G01 X45.620878 Y157.371875 Z-0.125000
G01 X43.704430 Y154.976314 Z-0.125000
G01 X40.282195 Y156.550540 Z-0.125000
G01 X40.282195 Y156.550540 Z-0.125000
G00 Z5.000000

(End cutting path id: path3209)


(Start cutting path id: path3207)
(Change tool to Default tool)

G00 Z5.000000
G00 X37.133743 Y157.303431

G01 Z-0.125000 F100.0(Penetrate)
G01 X40.076861 Y160.657218 Z-0.125000 F400.000000
G01 X46.715991 Y158.535435 Z-0.125000
G01 X43.704430 Y154.497201 Z-0.125000
G01 X38.160413 Y156.892762 Z-0.125000
G01 X37.133743 Y157.303431 Z-0.125000
G01 X37.133743 Y157.303431 Z-0.125000
G00 Z5.000000

(End cutting path id: path3207)


(Start cutting path id: path3205)
(Change tool to Default tool)

G00 Z5.000000
G00 X35.901739 Y154.428757

G01 Z-0.125000 F100.0(Penetrate)
G01 X42.267091 Y152.580753 Z-0.125000 F400.000000
G01 X39.939973 Y148.268740 Z-0.125000
G01 X33.574621 Y150.801192 Z-0.125000
G01 X35.901739 Y154.428757 Z-0.125000
G01 X35.901739 Y154.428757 Z-0.125000
G00 Z5.000000

(End cutting path id: path3205)


(Start cutting path id: path3203)
(Change tool to Default tool)

G00 Z5.000000
G00 X37.955078 Y152.991418

G01 Z-0.125000 F100.0(Penetrate)
G01 X35.696404 Y150.116744 Z-0.125000 F400.000000
G01 X39.939973 Y148.610962 Z-0.125000
G01 X41.582643 Y151.554083 Z-0.125000
G01 X39.050191 Y152.580753 Z-0.125000
G01 X37.955078 Y152.991418 Z-0.125000
G01 X37.955078 Y152.991418 Z-0.125000
G00 Z5.000000

(End cutting path id: path3203)


(Start cutting path id: path3201)
(Change tool to Default tool)

G00 Z5.000000
G00 X33.963387 Y146.735577

G01 Z-0.125000 F100.0(Penetrate)
G01 X32.583542 Y143.778769 Z-0.125000 F400.000000
G01 X36.131714 Y142.300367 Z-0.125000
G01 X38.004358 Y145.158614 Z-0.125000
G02 X36.127836 Y146.264962 Z-0.125000 I2.825119 J6.936398
G03 X33.963387 Y146.735577 Z-0.125000 I-1.551763 J-1.924192
G01 X33.963387 Y146.735577 Z-0.125000
G00 Z5.000000

(End cutting path id: path3201)


(Start cutting path id: path3199)
(Change tool to Default tool)

G00 Z5.000000
G00 X30.415216 Y144.370133

G01 Z-0.125000 F100.0(Penetrate)
G01 X34.948990 Y142.300367 Z-0.125000 F400.000000
G01 X36.427395 Y141.709003 Z-0.125000
G01 X37.511559 Y144.074451 Z-0.125000
G01 X38.300040 Y145.257175 Z-0.125000
G01 X32.879224 Y148.312543 Z-0.125000
G01 X30.415216 Y144.370133 Z-0.125000
G01 X30.415216 Y144.370133 Z-0.125000
G00 Z5.000000

(End cutting path id: path3199)


(Start cutting path id: path3197)
(Change tool to Default tool)

G00 Z5.000000
G00 X33.372027 Y135.401145

G01 Z-0.125000 F100.0(Penetrate)
G01 X29.725295 Y137.273793 Z-0.125000 F400.000000
G01 X30.908019 Y140.033480 Z-0.125000
G01 X31.597939 Y140.132041 Z-0.125000
G01 X34.850429 Y138.456514 Z-0.125000
G01 X33.372027 Y135.401145 Z-0.125000
G01 X33.372027 Y135.401145 Z-0.125000
G00 Z5.000000

(End cutting path id: path3197)


(Start cutting path id: path3195)
(Change tool to Default tool)

G00 Z5.000000
G00 X27.162729 Y138.062275

G01 Z-0.125000 F100.0(Penetrate)
G01 X30.218098 Y135.795388 Z-0.125000 F400.000000
G01 X32.977785 Y134.809785 Z-0.125000
G01 X33.569145 Y135.006906 Z-0.125000
G01 X34.948990 Y138.259396 Z-0.125000
G01 X34.653308 Y138.850756 Z-0.125000
G01 X31.696500 Y140.329162 Z-0.125000
G01 X29.823855 Y141.314764 Z-0.125000
G01 X28.641132 Y141.906125 Z-0.125000
G01 X27.162729 Y138.062275 Z-0.125000
G01 X27.162729 Y138.062275 Z-0.125000
G00 Z5.000000

(End cutting path id: path3195)


(Start cutting path id: path3193)
(Change tool to Default tool)

G00 Z5.000000
G00 X27.458408 Y130.374571

G01 Z-0.125000 F100.0(Penetrate)
G01 X30.809458 Y128.304805 Z-0.125000 F400.000000
G01 X32.189303 Y131.360174 Z-0.125000
G01 X28.838253 Y133.232822 Z-0.125000
G01 X28.444010 Y133.429940 Z-0.125000
G01 X27.458408 Y130.374571 Z-0.125000
G01 X27.458408 Y130.374571 Z-0.125000
G00 Z5.000000

(End cutting path id: path3193)


(Start cutting path id: path3191)
(Change tool to Default tool)

G00 Z5.000000
G00 X25.092964 Y130.571693

G01 Z-0.125000 F100.0(Penetrate)
G01 X28.148332 Y128.206245 Z-0.125000 F400.000000
G01 X30.908019 Y127.417763 Z-0.125000
G01 X32.189303 Y130.965935 Z-0.125000
G01 X32.189303 Y131.852977 Z-0.125000
G01 X28.936813 Y133.627061 Z-0.125000
G01 X26.571366 Y135.006906 Z-0.125000
G01 X25.092964 Y130.571693 Z-0.125000
G01 X25.092964 Y130.571693 Z-0.125000
G00 Z5.000000

(End cutting path id: path3191)


(Start cutting path id: rect3188)
(Change tool to Default tool)

G00 Z5.000000
G00 X14.095195 Y140.888673

G01 Z-0.125000 F100.0(Penetrate)
G01 X12.021169 Y129.528511 Z-0.125000 F400.000000
G01 X7.472863 Y131.124627 Z-0.125000
G01 X9.546893 Y142.814487 Z-0.125000
G01 X14.095195 Y140.888673 Z-0.125000
G01 X14.095195 Y140.888673 Z-0.125000
G00 Z5.000000

(End cutting path id: rect3188)


(Start cutting path id: path3181)
(Change tool to Default tool)

G00 Z5.000000
G00 X52.870874 Y175.751475

G01 Z-0.125000 F100.0(Penetrate)
G01 X57.858602 Y175.574252 Z-0.125000 F400.000000
G01 X59.026249 Y177.676019 Z-0.125000
G03 X59.189553 Y179.062089 Z-0.125000 I-93.836614 J11.758289
G03 X59.047075 Y179.487405 Z-0.125000 I-0.531108 J0.058604
G01 X56.850975 Y179.487405 Z-0.125000
G01 X55.555842 Y178.867993 Z-0.125000
G01 X55.105361 Y177.629168 Z-0.125000
G01 X53.979158 Y177.572859 Z-0.125000
G01 X52.870885 Y175.751475 Z-0.125000
G01 X52.870874 Y175.751475 Z-0.125000
G01 X52.870874 Y175.751475 Z-0.125000
G00 Z5.000000

(End cutting path id: path3181)


(Start cutting path id: path3181)
(Change tool to Default tool)

G00 Z5.000000
G00 X36.140362 Y156.658368

G01 Z-0.125000 F100.0(Penetrate)
G02 X32.743527 Y150.769462 Z-0.125000 I-27.476377 J11.924777 F400.000000
G02 X32.053593 Y150.119541 Z-0.125000 I-2.147947 J1.589019
G01 X31.469771 Y146.733364 Z-0.125000
G01 X28.083594 Y142.179539 Z-0.125000
G01 X25.981826 Y136.458066 Z-0.125000
G01 X25.631532 Y133.889242 Z-0.125000
G01 X22.829181 Y125.832474 Z-0.125000
G02 X18.430294 Y121.677004 Z-0.125000 I-741.067999 J780.071951
G02 X17.691530 Y121.161883 Z-0.125000 I-2.130191 J2.267713
G01 X17.925062 Y126.416300 Z-0.125000
G02 X20.469140 Y136.557468 Z-0.125000 I159.289889 J-34.570780
G02 X39.059479 Y167.751016 Z-0.125000 I68.024762 J-19.404153
G01 X40.927715 Y171.370725 Z-0.125000
G03 X42.346174 Y171.333658 Z-0.125000 I0.732905 J0.887502
G03 X43.846833 Y172.655135 Z-0.125000 I-7.100644 J9.576249
G01 X52.695367 Y178.322009 Z-0.125000
G01 X53.134495 Y178.079653 Z-0.125000
G01 X48.348132 Y173.912698 Z-0.125000
G01 X45.870486 Y171.885534 Z-0.125000
G01 X43.336528 Y170.252538 Z-0.125000
G01 X43.379773 Y170.319843 Z-0.125000
G01 X38.942714 Y166.466606 Z-0.125000
G02 X32.462528 Y159.127651 Z-0.125000 I-34.419081 J23.861098
G03 X32.870947 Y156.191308 Z-0.125000 I1.191716 J-1.330818
G01 X33.711512 Y156.002983 Z-0.125000
G01 X32.753287 Y153.265197 Z-0.125000
G01 X31.589726 Y151.896305 Z-0.125000
G01 X30.973726 Y149.706075 Z-0.125000
G01 X29.810165 Y148.063405 Z-0.125000
G01 X29.057274 Y145.257175 Z-0.125000
G01 X27.893717 Y144.230505 Z-0.125000
G01 X26.935491 Y140.602940 Z-0.125000
G01 X25.566600 Y138.754936 Z-0.125000
G01 X25.429709 Y136.633149 Z-0.125000
G01 X24.197705 Y135.127367 Z-0.125000
G01 X23.444813 Y131.978914 Z-0.125000
G01 X22.281256 Y130.678467 Z-0.125000
G01 X22.007478 Y128.009127 Z-0.125000
G01 X21.117696 Y127.119345 Z-0.125000
G01 X20.227917 Y126.845567 Z-0.125000
G01 X21.459921 Y130.130910 Z-0.125000
G01 X19.406582 Y130.336245 Z-0.125000
G00 Z5.000000

(End cutting path id: path3181)


(Start cutting path id: path3179)
(Change tool to Default tool)

G00 Z5.000000
G00 X28.433888 Y105.515410

G01 Z-0.125000 F100.0(Penetrate)
G03 X28.140173 Y106.107324 Z-0.125000 I-1.498029 J-0.374510 F400.000000
G03 X27.149474 Y107.266880 Z-0.125000 I-19.322031 J-15.505324
G01 X26.915946 Y111.120117 Z-0.125000
G01 X28.667416 Y114.272766 Z-0.125000
G01 X31.119477 Y118.009238 Z-0.125000
G01 X33.221241 Y119.643942 Z-0.125000
G01 X33.805066 Y121.045121 Z-0.125000
G01 X34.855948 Y122.796591 Z-0.125000
G01 X35.556536 Y124.898358 Z-0.125000
G00 Z5.000000

(End cutting path id: path3179)


(Start cutting path id: path3177)
(Change tool to Default tool)

G00 Z5.000000
G00 X57.975368 Y101.195113

G01 Z-0.125000 F100.0(Penetrate)
G01 X56.690954 Y100.728053 Z-0.125000 F400.000000
G01 X55.406544 Y98.509524 Z-0.125000
G01 X55.406544 Y96.874820 Z-0.125000
G01 X56.807720 Y96.758054 Z-0.125000
G01 X58.092133 Y98.626290 Z-0.125000
G01 X58.442427 Y100.260997 Z-0.125000
G01 X57.975368 Y101.195113 Z-0.125000
G01 X57.975368 Y101.195113 Z-0.125000
G00 Z5.000000

(End cutting path id: path3177)


(Start cutting path id: path3175)
(Change tool to Default tool)

G00 Z5.000000
G00 X57.975368 Y94.773053

G01 Z-0.125000 F100.0(Penetrate)
G03 X58.459522 Y93.685774 Z-0.125000 I0.623208 J-0.373926 F400.000000
G03 X66.261801 Y93.618430 Z-0.125000 I4.082186 J20.941882
G03 X67.890670 Y94.458394 Z-0.125000 I-0.539155 J3.044879
G03 X68.097134 Y95.846586 Z-0.125000 I-0.817069 J0.830972
G03 X66.783440 Y97.376094 Z-0.125000 I-4.225609 J-2.300457
G03 X59.960369 Y101.778939 Z-0.125000 I-31.943497 J-42.014439
G00 Z5.000000

(End cutting path id: path3175)


(Start cutting path id: path3173)
(Change tool to Default tool)

G00 Z5.000000
G00 X57.975368 Y95.123347

G01 Z-0.125000 F100.0(Penetrate)
G03 X60.322456 Y96.661556 Z-0.125000 I-0.860676 J3.873036 F400.000000
G03 X61.128013 Y100.611291 Z-0.125000 I-3.926238 J2.857780
G00 Z5.000000

(End cutting path id: path3173)


(Start cutting path id: path3171)
(Change tool to Default tool)

G00 Z5.000000
G00 X59.259778 Y79.943930

G01 Z-0.125000 F100.0(Penetrate)
G01 X58.325662 Y85.081580 Z-0.125000 F400.000000
G01 X58.442427 Y91.737169 Z-0.125000
G01 X58.559190 Y92.437757 Z-0.125000
G01 X65.331544 Y90.803053 Z-0.125000
G01 X70.585957 Y90.219228 Z-0.125000
G01 X75.490080 Y90.803053 Z-0.125000
G01 X77.475078 Y90.803053 Z-0.125000
G01 X75.139782 Y95.356878 Z-0.125000
G01 X72.921253 Y95.240112 Z-0.125000
G01 X72.570959 Y95.823934 Z-0.125000
G01 X69.768607 Y94.656290 Z-0.125000
G00 Z5.000000

(End cutting path id: path3171)


(Start cutting path id: path3169)
(Change tool to Default tool)

G00 Z5.000000
G00 X84.714492 Y64.764516

G01 Z-0.125000 F100.0(Penetrate)
G01 X88.801257 Y66.165692 Z-0.125000 F400.000000
G01 X91.136553 Y66.983046 Z-0.125000
G01 X92.537729 Y68.033928 Z-0.125000
G01 X96.040672 Y74.455989 Z-0.125000
G00 Z5.000000

(End cutting path id: path3169)


(Start cutting path id: path3167)
(Change tool to Default tool)

G00 Z5.000000
G00 X52.954483 Y97.108348

G01 Z-0.125000 F100.0(Penetrate)
G01 X53.304777 Y99.910703 Z-0.125000 F400.000000
G01 X57.858602 Y104.347762 Z-0.125000
G01 X60.544191 Y102.946587 Z-0.125000
G01 X64.981250 Y101.662173 Z-0.125000
G01 X72.454196 Y101.078351 Z-0.125000
G01 X77.124784 Y101.195113 Z-0.125000
G01 X79.226551 Y101.195113 Z-0.125000
G01 X77.475078 Y100.027466 Z-0.125000
G01 X75.723608 Y97.808936 Z-0.125000
G01 X75.606842 Y96.057466 Z-0.125000
G00 Z5.000000

(End cutting path id: path3167)


(Start cutting path id: path3165)
(Change tool to Default tool)

G00 Z5.000000
G00 X30.535651 Y107.850706

G01 Z-0.125000 F100.0(Penetrate)
G02 X31.794996 Y107.166937 Z-0.125000 I-9.490034 J-18.980069 F400.000000
G02 X45.131246 Y99.326878 Z-0.125000 I-14669.931703 J-24969.393636
G01 X45.248008 Y97.341876 Z-0.125000
G01 X46.999482 Y92.087463 Z-0.125000
G00 Z5.000000

(End cutting path id: path3165)


(Start cutting path id: path3163)
(Change tool to Default tool)

G00 Z5.000000
G00 X57.741836 Y78.659520

G01 Z-0.125000 F100.0(Penetrate)
G02 X56.430599 Y85.960578 Z-0.125000 I30.854428 J9.309589 F400.000000
G02 X56.223894 Y95.940700 Z-0.125000 I119.626282 J7.469862
G00 Z5.000000

(End cutting path id: path3163)


(Start cutting path id: path3161)
(Change tool to Default tool)

G00 Z5.000000
G00 X32.403887 Y101.545407

G01 Z-0.125000 F100.0(Penetrate)
G03 X35.562426 Y87.633087 Z-0.125000 I110.506662 J17.773824 F400.000000
G03 X39.993595 Y81.928931 Z-0.125000 I9.494697 J2.802567
G00 Z5.000000

(End cutting path id: path3161)


(Start cutting path id: path3159)
(Change tool to Default tool)

G00 Z5.000000
G00 X17.224474 Y163.897782

G01 Z-0.125000 F100.0(Penetrate)
G01 X22.595649 Y161.095427 Z-0.125000 F400.000000
G01 X27.032712 Y159.694251 Z-0.125000
G01 X29.251241 Y158.293072 Z-0.125000
G01 X29.718301 Y158.760131 Z-0.125000
G01 X29.718301 Y159.811013 Z-0.125000
G01 X30.302123 Y160.745133 Z-0.125000
G01 X21.077707 Y165.298958 Z-0.125000
G01 X19.092709 Y165.999546 Z-0.125000
G01 X17.224474 Y163.897782 Z-0.125000
G01 X17.224474 Y163.897782 Z-0.125000
G00 Z5.000000

(End cutting path id: path3159)


(Start cutting path id: path3157)
(Change tool to Default tool)

G00 Z5.000000
G00 X24.814179 Y176.625138

G01 Z-0.125000 F100.0(Penetrate)
G01 X24.930945 Y175.457490 Z-0.125000 F400.000000
G01 X31.236239 Y173.122194 Z-0.125000
G01 X35.439770 Y171.487487 Z-0.125000
G01 X38.825948 Y169.969545 Z-0.125000
G01 X39.409773 Y171.370725 Z-0.125000
G01 X39.993595 Y172.071313 Z-0.125000
G01 X36.257124 Y174.289842 Z-0.125000
G01 X31.353005 Y176.274844 Z-0.125000
G01 X28.433888 Y177.442491 Z-0.125000
G01 X27.499768 Y178.026313 Z-0.125000
G00 Z5.000000

(End cutting path id: path3157)


(Start cutting path id: path3155)
(Change tool to Default tool)

G00 Z5.000000
G00 X74.789488 Y169.152195

G01 Z-0.125000 F100.0(Penetrate)
G01 X77.008021 Y170.553371 Z-0.125000 F400.000000
G01 X77.825372 Y173.822782 Z-0.125000
G01 X79.343313 Y177.325726 Z-0.125000
G00 Z5.000000

(End cutting path id: path3155)


(Start cutting path id: path3153)
(Change tool to Default tool)

G00 Z5.000000
G00 X65.915370 Y170.319843

G01 Z-0.125000 F100.0(Penetrate)
G01 X69.768607 Y173.005429 Z-0.125000 F400.000000
G01 X71.520077 Y177.442491 Z-0.125000
G01 X73.388312 Y180.595137 Z-0.125000
G01 X77.008021 Y182.813670 Z-0.125000
G01 X78.993019 Y182.813670 Z-0.125000
G01 X80.043901 Y181.996316 Z-0.125000
G01 X82.379197 Y181.062197 Z-0.125000
G01 X84.364198 Y180.244843 Z-0.125000
G01 X85.415080 Y180.361609 Z-0.125000
G01 X100.127437 Y186.900435 Z-0.125000
G01 X107.250089 Y190.286613 Z-0.125000
G00 Z5.000000

(End cutting path id: path3153)


(Start cutting path id: path3151)
(Change tool to Default tool)

G00 Z5.000000
G00 X40.525524 Y116.228574

G01 Z-0.125000 F100.0(Penetrate)
G03 X56.689996 Y107.581708 Z-0.125000 I117.148413 J199.565144 F400.000000
G03 X74.825167 Y103.497976 Z-0.125000 I17.784574 J36.668819
G01 X81.636446 Y103.741234 Z-0.125000
G03 X82.066238 Y103.828233 Z-0.125000 I0.000000 J1.105130
G03 X82.933832 Y104.227754 Z-0.125000 I-5.786825 J13.708358
G01 X83.582523 Y105.038620 Z-0.125000
G01 X86.339470 Y113.147282 Z-0.125000
G02 X93.390488 Y125.882738 Z-0.125000 I73.357410 J-32.294887
G02 X102.881141 Y136.824578 Z-0.125000 I50.927055 J-34.585848
G01 X107.097645 Y139.905870 Z-0.125000
G03 X104.940879 Y151.108418 Z-0.125000 I-71.885402 J-8.030820
G03 X98.745722 Y160.258613 Z-0.125000 I-16.630067 J-4.587100
G03 X88.218299 Y165.764388 Z-0.125000 I-48.069186 J-79.094135
G03 X76.852335 Y170.556613 Z-0.125000 I-134.232448 J-302.491198
G00 Z5.000000

(End cutting path id: path3151)


(Start cutting path id: path3210-1-7)
(Change tool to Default tool)

G00 Z5.000000
G00 X104.160502 Y166.461451

G01 Z-0.125000 F100.0(Penetrate)
G02 X103.180545 Y163.944944 Z-0.125000 I-21.398884 J6.883919 F400.000000
G02 X101.874533 Y162.509437 Z-0.125000 I-2.919033 J1.343859
G00 Z5.000000

(End cutting path id: path3210-1-7)


(Start cutting path id: path3149)
(Change tool to Default tool)

G00 Z5.000000
G00 X34.119682 Y110.147077

G01 Z-0.125000 F100.0(Penetrate)
G01 X36.714454 Y113.390543 Z-0.125000 F400.000000
G01 X38.903793 Y114.931188 Z-0.125000
G01 X39.795746 Y115.823141 Z-0.125000
G01 X40.768786 Y117.444872 Z-0.125000
G00 Z5.000000

(End cutting path id: path3149)


(Start cutting path id: path3147)
(Change tool to Default tool)

G00 Z5.000000
G00 X112.692622 Y147.609099

G01 Z-0.125000 F100.0(Penetrate)
G01 X111.233061 Y146.392800 Z-0.125000 F400.000000
G01 X110.746544 Y144.852152 Z-0.125000
G01 X111.314148 Y143.311508 Z-0.125000
G01 X112.530447 Y143.068250 Z-0.125000
G01 X113.341316 Y143.960199 Z-0.125000
G01 X114.071095 Y146.311713 Z-0.125000
G01 X113.827837 Y147.446924 Z-0.125000
G01 X112.692622 Y147.609099 Z-0.125000
G01 X112.692622 Y147.609099 Z-0.125000
G00 Z5.000000

(End cutting path id: path3147)


(Start cutting path id: path3145)
(Change tool to Default tool)

G00 Z5.000000
G00 X114.152182 Y140.473474

G01 Z-0.125000 F100.0(Penetrate)
G01 X114.557615 Y132.526987 Z-0.125000 F400.000000
G01 X116.260434 Y131.878293 Z-0.125000
G00 Z5.000000

(End cutting path id: path3145)


(Start cutting path id: path3143)
(Change tool to Default tool)

G00 Z5.000000
G00 X110.260024 Y140.554561

G01 Z-0.125000 F100.0(Penetrate)
G01 X111.557410 Y140.149128 Z-0.125000 F400.000000
G01 X112.125014 Y133.418940 Z-0.125000
G01 X112.043930 Y130.094386 Z-0.125000
G01 X112.773709 Y128.959175 Z-0.125000
G01 X113.665662 Y130.094386 Z-0.125000
G01 X115.611739 Y131.229601 Z-0.125000
G01 X116.746954 Y131.067427 Z-0.125000
G01 X116.017172 Y141.527602 Z-0.125000
G01 X114.638702 Y141.851947 Z-0.125000
G01 X114.314353 Y142.419555 Z-0.125000
G01 X110.260024 Y140.554561 Z-0.125000
G01 X110.260024 Y140.554561 Z-0.125000
G00 Z5.000000

(End cutting path id: path3143)


(Start cutting path id: path3141)
(Change tool to Default tool)

G00 Z5.000000
G00 X87.799027 Y106.822526

G01 Z-0.125000 F100.0(Penetrate)
G01 X89.826195 Y106.741439 Z-0.125000 F400.000000
G01 X91.285752 Y108.201000 Z-0.125000
G01 X91.853359 Y109.579473 Z-0.125000
G01 X92.826399 Y111.282292 Z-0.125000
G01 X92.583137 Y112.660761 Z-0.125000
G01 X91.934446 Y111.444463 Z-0.125000
G01 X91.204668 Y109.255124 Z-0.125000
G01 X90.555973 Y108.363171 Z-0.125000
G01 X89.582933 Y107.633392 Z-0.125000
G01 X89.096412 Y107.146872 Z-0.125000
G01 X87.799027 Y106.822526 Z-0.125000
G01 X87.799027 Y106.822526 Z-0.125000
G00 Z5.000000

(End cutting path id: path3141)


(Start cutting path id: path3139)
(Change tool to Default tool)

G00 Z5.000000
G00 X104.259615 Y127.823964

G01 Z-0.125000 F100.0(Penetrate)
G01 X102.151359 Y125.553537 Z-0.125000 F400.000000
G01 X104.583960 Y123.931806 Z-0.125000
G01 X105.962434 Y123.283111 Z-0.125000
G01 X107.340903 Y122.228983 Z-0.125000
G01 X106.530037 Y120.931597 Z-0.125000
G01 X105.151564 Y121.985725 Z-0.125000
G01 X102.232447 Y123.445286 Z-0.125000
G01 X100.367453 Y124.823755 Z-0.125000
G01 X99.556587 Y125.553537 Z-0.125000
G01 X99.556587 Y126.769836 Z-0.125000
G01 X101.178323 Y125.634625 Z-0.125000
G01 X102.637880 Y127.175269 Z-0.125000
G01 X103.367662 Y127.742876 Z-0.125000
G01 X103.448745 Y128.634829 Z-0.125000
G01 X104.259615 Y127.823964 Z-0.125000
G01 X104.259615 Y127.823964 Z-0.125000
G00 Z5.000000

(End cutting path id: path3139)


(Start cutting path id: path3137)
(Change tool to Default tool)

G00 Z5.000000
G00 X95.988779 Y119.066607

G01 Z-0.125000 F100.0(Penetrate)
G01 X101.745926 Y116.228574 Z-0.125000 F400.000000
G01 X103.367662 Y116.228574 Z-0.125000
G01 X104.016353 Y116.877268 Z-0.125000
G01 X101.989188 Y118.580087 Z-0.125000
G01 X97.042903 Y120.688339 Z-0.125000
G01 X95.177909 Y120.850514 Z-0.125000
G01 X95.177909 Y120.039648 Z-0.125000
G01 X95.988779 Y119.066607 Z-0.125000
G01 X95.988779 Y119.066607 Z-0.125000
G00 Z5.000000

(End cutting path id: path3137)


(Start cutting path id: path3135)
(Change tool to Default tool)

G00 Z5.000000
G00 X93.231832 Y115.417708

G01 Z-0.125000 F100.0(Penetrate)
G01 X92.258792 Y114.363584 Z-0.125000 F400.000000
G01 X92.177705 Y113.633802 Z-0.125000
G01 X96.880732 Y111.525550 Z-0.125000
G01 X98.988984 Y110.471426 Z-0.125000
G01 X100.286369 Y110.876859 Z-0.125000
G01 X100.043108 Y111.930983 Z-0.125000
G01 X93.231832 Y115.417708 Z-0.125000
G01 X93.231832 Y115.417708 Z-0.125000
G00 Z5.000000

(End cutting path id: path3135)


(Start cutting path id: path3133)
(Change tool to Default tool)

G00 Z5.000000
G00 X106.549498 Y128.051004

G01 Z-0.125000 F100.0(Penetrate)
G01 X110.285973 Y125.832474 Z-0.125000 F400.000000
G01 X110.636267 Y128.167770 Z-0.125000
G01 X110.052441 Y134.122770 Z-0.125000
G01 X107.833911 Y134.239536 Z-0.125000
G01 X106.783030 Y135.640712 Z-0.125000
G01 X103.980674 Y133.772477 Z-0.125000
G01 X104.564500 Y129.452183 Z-0.125000
G01 X103.163321 Y129.218651 Z-0.125000
G01 X102.229204 Y130.970125 Z-0.125000
G01 X100.477731 Y129.919239 Z-0.125000
G01 X99.193321 Y127.700710 Z-0.125000
G01 X99.193321 Y126.649828 Z-0.125000
G01 X99.426849 Y123.964238 Z-0.125000
G01 X98.843027 Y123.497179 Z-0.125000
G01 X97.325085 Y125.015120 Z-0.125000
G01 X95.807144 Y123.847473 Z-0.125000
G01 X94.989790 Y122.329531 Z-0.125000
G01 X94.289202 Y120.928355 Z-0.125000
G01 X94.756262 Y118.593060 Z-0.125000
G01 X95.106556 Y117.658944 Z-0.125000
G01 X94.289202 Y116.608062 Z-0.125000
G01 X93.150745 Y117.444872 Z-0.125000
G01 X91.447926 Y116.796181 Z-0.125000
G01 X90.555973 Y114.687929 Z-0.125000
G01 X90.069453 Y113.228369 Z-0.125000
G01 X90.231627 Y111.849896 Z-0.125000
G01 X91.447926 Y111.201204 Z-0.125000
G01 X91.204668 Y109.903818 Z-0.125000
G01 X89.420762 Y109.741644 Z-0.125000
G01 X88.528809 Y109.498386 Z-0.125000
G01 X87.474681 Y107.633392 Z-0.125000
G01 X87.231423 Y107.146872 Z-0.125000
G01 X87.231423 Y105.281879 Z-0.125000
G01 X88.366634 Y105.038620 Z-0.125000
G01 X88.123376 Y103.416889 Z-0.125000
G01 X97.772681 Y104.552100 Z-0.125000
G01 X102.151359 Y113.552714 Z-0.125000
G01 X105.232651 Y118.093567 Z-0.125000
G01 X108.638289 Y122.715503 Z-0.125000
G01 X110.665457 Y124.985930 Z-0.125000
G01 X106.530037 Y127.418531 Z-0.125000
G01 X106.549484 Y128.051004 Z-0.125000
G01 X106.549498 Y128.051004 Z-0.125000
G00 Z5.000000

(End cutting path id: path3133)


(Start cutting path id: path3131)
(Change tool to Default tool)

G00 Z5.000000
G00 X12.365940 Y114.449172

G01 Z-0.125000 F100.0(Penetrate)
G02 X12.207931 Y113.381239 Z-0.125000 I-4.386519 J0.103364 F400.000000
G02 X11.464978 Y112.928798 Z-0.125000 I-0.612572 J0.169683
G01 X9.888295 Y113.942382 Z-0.125000
G02 X8.875606 Y116.900363 Z-0.125000 I4.064176 J3.043746
G02 X9.383656 Y117.597135 Z-0.125000 I0.715253 J0.012083
G02 X10.395236 Y117.389141 Z-0.125000 I0.313899 J-1.037259
G02 X12.365940 Y114.449172 Z-0.125000 I-4.110619 J-4.885889
G01 X12.365940 Y114.449172 Z-0.125000
G00 Z5.000000

(End cutting path id: path3131)


(Start cutting path id: path3129)
(Change tool to Default tool)

G00 Z5.000000
G00 X27.006583 Y94.121208

G01 Z-0.125000 F100.0(Penetrate)
G01 X29.202679 Y92.713452 Z-0.125000 F400.000000
G01 X31.229843 Y91.530940 Z-0.125000
G01 X32.074496 Y89.672703 Z-0.125000
G01 X32.524977 Y88.996982 Z-0.125000
G01 X31.173534 Y89.503776 Z-0.125000
G01 X29.709469 Y90.517356 Z-0.125000
G01 X28.414335 Y91.643559 Z-0.125000
G01 X27.006583 Y94.121208 Z-0.125000
G01 X27.006583 Y94.121208 Z-0.125000
G00 Z5.000000

(End cutting path id: path3129)


(Start cutting path id: path3127)
(Change tool to Default tool)

G00 Z5.000000
G00 X19.967811 Y95.585273

G01 Z-0.125000 F100.0(Penetrate)
G01 X22.558079 Y92.769765 Z-0.125000 F400.000000
G01 X23.853213 Y91.643559 Z-0.125000
G01 X25.542518 Y91.530940 Z-0.125000
G01 X26.837652 Y92.657143 Z-0.125000
G01 X28.189095 Y91.136768 Z-0.125000
G01 X29.991022 Y89.334844 Z-0.125000
G01 X32.524977 Y87.870779 Z-0.125000
G01 X33.820111 Y86.969817 Z-0.125000
G01 X34.777386 Y85.618374 Z-0.125000
G01 X33.820111 Y86.012546 Z-0.125000
G01 X32.524977 Y87.138749 Z-0.125000
G01 X31.511397 Y88.039711 Z-0.125000
G00 Z5.000000

(End cutting path id: path3127)


(Start cutting path id: path3125)
(Change tool to Default tool)

G00 Z5.000000
G00 X19.235781 Y86.294096

G01 Z-0.125000 F100.0(Penetrate)
G01 X15.913483 Y88.490192 Z-0.125000 F400.000000
G00 Z5.000000

(End cutting path id: path3125)


(Start cutting path id: path3123)
(Change tool to Default tool)

G00 Z5.000000
G00 X21.657117 Y89.334844

G01 Z-0.125000 F100.0(Penetrate)
G01 X19.404712 Y86.406714 Z-0.125000 F400.000000
G01 X23.121182 Y84.098000 Z-0.125000
G01 X23.965835 Y83.703828 Z-0.125000
G01 X24.585247 Y82.577626 Z-0.125000
G00 Z5.000000

(End cutting path id: path3123)


(Start cutting path id: path3121)
(Change tool to Default tool)

G00 Z5.000000
G00 X18.447437 Y86.012546

G01 Z-0.125000 F100.0(Penetrate)
G01 X17.377544 Y86.969817 Z-0.125000 F400.000000
G01 X15.913483 Y87.589230 Z-0.125000
G00 Z5.000000

(End cutting path id: path3121)


(Start cutting path id: path3119)
(Change tool to Default tool)

G00 Z5.000000
G00 X16.532895 Y83.422279

G01 Z-0.125000 F100.0(Penetrate)
G01 X18.503750 Y86.012546 Z-0.125000 F400.000000
G01 X21.094017 Y84.492172 Z-0.125000
G01 X22.389151 Y83.365966 Z-0.125000
G01 X22.952251 Y82.352385 Z-0.125000
G00 Z5.000000

(End cutting path id: path3119)


(Start cutting path id: path3117)
(Change tool to Default tool)

G00 Z5.000000
G00 X86.172914 Y157.839278

G01 Z-0.125000 F100.0(Penetrate)
G01 X90.239759 Y156.118688 Z-0.125000 F400.000000
G01 X92.546911 Y154.593622 Z-0.125000
G01 X94.071981 Y153.224975 Z-0.125000
G01 X95.049585 Y151.817219 Z-0.125000
G01 X94.971376 Y150.487673 Z-0.125000
G01 X93.837353 Y151.699905 Z-0.125000
G01 X92.781539 Y152.912138 Z-0.125000
G01 X90.748116 Y154.710936 Z-0.125000
G01 X88.832007 Y156.040483 Z-0.125000
G01 X87.737088 Y156.822568 Z-0.125000
G01 X86.172914 Y157.839278 Z-0.125000
G01 X86.172914 Y157.839278 Z-0.125000
G00 Z5.000000

(End cutting path id: path3117)


(Start cutting path id: path3115)
(Change tool to Default tool)

G00 Z5.000000
G00 X80.043901 Y153.856012

G01 Z-0.125000 F100.0(Penetrate)
G01 X81.561843 Y154.673366 Z-0.125000 F400.000000
G01 X87.049788 Y151.754249 Z-0.125000
G01 X90.435965 Y149.185421 Z-0.125000
G01 X91.019787 Y147.317186 Z-0.125000
G01 X90.435965 Y146.383070 Z-0.125000
G01 X84.597726 Y151.170423 Z-0.125000
G01 X82.612728 Y152.454836 Z-0.125000
G01 X80.043901 Y153.856012 Z-0.125000
G01 X80.043901 Y153.856012 Z-0.125000
G00 Z5.000000

(End cutting path id: path3115)


(Start cutting path id: path3113)
(Change tool to Default tool)

G00 Z5.000000
G00 X75.490080 Y148.951893

G01 Z-0.125000 F100.0(Penetrate)
G01 X77.124784 Y150.353069 Z-0.125000 F400.000000
G01 X82.379197 Y147.317186 Z-0.125000
G01 X85.648612 Y145.098656 Z-0.125000
G01 X86.582728 Y143.347186 Z-0.125000
G01 X85.998906 Y141.712479 Z-0.125000
G01 X77.708609 Y147.433952 Z-0.125000
G01 X75.490080 Y148.951893 Z-0.125000
G01 X75.490080 Y148.951893 Z-0.125000
G00 Z5.000000

(End cutting path id: path3113)


(Start cutting path id: path3111)
(Change tool to Default tool)

G00 Z5.000000
G00 X70.702723 Y142.996892

G01 Z-0.125000 F100.0(Penetrate)
G01 X72.337431 Y144.631596 Z-0.125000 F400.000000
G01 X76.657724 Y142.880127 Z-0.125000
G01 X80.043901 Y140.778363 Z-0.125000
G01 X82.612728 Y139.143655 Z-0.125000
G01 X82.612728 Y136.925126 Z-0.125000
G01 X81.445081 Y136.107772 Z-0.125000
G01 X72.921253 Y141.478951 Z-0.125000
G01 X70.702723 Y142.996892 Z-0.125000
G01 X70.702723 Y142.996892 Z-0.125000
G00 Z5.000000

(End cutting path id: path3111)


(Start cutting path id: path3109)
(Change tool to Default tool)

G00 Z5.000000
G00 X66.615958 Y136.574828

G01 Z-0.125000 F100.0(Penetrate)
G01 X68.717722 Y139.026889 Z-0.125000 F400.000000
G01 X78.759491 Y134.473064 Z-0.125000
G01 X79.576842 Y131.437185 Z-0.125000
G02 X78.415447 Y130.881886 Z-0.125000 I-3.810948 J6.478347
G02 X76.891256 Y130.503065 Z-0.125000 I-2.378409 J6.313851
G01 X66.615958 Y136.574828 Z-0.125000
G01 X66.615958 Y136.574828 Z-0.125000
G00 Z5.000000

(End cutting path id: path3109)


(Start cutting path id: path3107)
(Change tool to Default tool)

G00 Z5.000000
G00 X82.963022 Y159.110425

G01 Z-0.125000 F100.0(Penetrate)
G01 X85.415080 Y161.095427 Z-0.125000 F400.000000
G02 X92.106523 Y157.775287 Z-0.125000 I-118.526761 J-247.283078
G02 X99.543615 Y151.403955 Z-0.125000 I-9.636308 J-18.774442
G02 X100.365998 Y149.779529 Z-0.125000 I-1.171925 J-1.613683
G02 X99.893909 Y147.200424 Z-0.125000 I-7.501878 J0.040412
G01 X97.208320 Y147.433952 Z-0.125000
G01 X94.405968 Y150.703363 Z-0.125000
G03 X89.596477 Y155.164564 Z-0.125000 I-34.807793 J-32.702186
G03 X82.963022 Y159.110425 Z-0.125000 I-17.068270 J-21.145021
G01 X82.963022 Y159.110425 Z-0.125000
G00 Z5.000000

(End cutting path id: path3107)


(Start cutting path id: path3105)
(Change tool to Default tool)

G00 Z5.000000
G00 X78.175666 Y154.906894

G01 Z-0.125000 F100.0(Penetrate)
G01 X81.094787 Y157.125424 Z-0.125000 F400.000000
G01 X87.867141 Y153.856012 Z-0.125000
G01 X94.289202 Y149.068659 Z-0.125000
G01 X96.274204 Y146.383070 Z-0.125000
G01 X96.507732 Y144.514834 Z-0.125000
G01 X94.873024 Y143.230421 Z-0.125000
G01 X92.420966 Y143.931008 Z-0.125000
G01 X89.968905 Y146.383070 Z-0.125000
G01 X87.400082 Y148.835128 Z-0.125000
G01 X85.064786 Y150.469835 Z-0.125000
G01 X81.678609 Y152.688365 Z-0.125000
G01 X79.109785 Y153.739247 Z-0.125000
G01 X78.175666 Y154.906894 Z-0.125000
G01 X78.175666 Y154.906894 Z-0.125000
G00 Z5.000000

(End cutting path id: path3105)


(Start cutting path id: path3081-4)
(Change tool to Default tool)

G00 Z5.000000
G00 X73.855369 Y149.159081

G01 Z-0.125000 F100.0(Penetrate)
G01 X80.510961 Y145.539375 Z-0.125000 F400.000000
G01 X89.268317 Y139.117315 Z-0.125000
G03 X91.888341 Y140.829380 Z-0.125000 I-1.272451 J4.808052
G03 X92.039703 Y142.107137 Z-0.125000 I-0.957049 J0.761215
G03 X90.783764 Y143.792118 Z-0.125000 I-4.691437 J-2.186308
G03 X88.217435 Y146.006431 Z-0.125000 I-80.761162 J-91.005680
G01 X76.307430 Y152.545258 Z-0.125000
G01 X73.738606 Y149.859669 Z-0.125000
G01 X73.855369 Y149.159081 Z-0.125000
G01 X73.855369 Y149.159081 Z-0.125000
G00 Z5.000000

(End cutting path id: path3081-4)


(Start cutting path id: path3081)
(Change tool to Default tool)

G00 Z5.000000
G00 X69.068016 Y143.230421

G01 Z-0.125000 F100.0(Penetrate)
G01 X78.058903 Y138.092773 Z-0.125000 F400.000000
G01 X83.079785 Y134.823358 Z-0.125000
G01 X84.480964 Y133.188654 Z-0.125000
G03 X87.523495 Y135.228305 Z-0.125000 I0.356842 J2.756786
G03 X88.100670 Y137.392186 Z-0.125000 I-4003.594071 J1069.043079
G01 X84.480964 Y140.194537 Z-0.125000
G01 X71.520077 Y147.083658 Z-0.125000
G01 X68.951253 Y143.931008 Z-0.125000
G01 X69.068016 Y143.230421 Z-0.125000
G01 X69.068016 Y143.230421 Z-0.125000
G00 Z5.000000

(End cutting path id: path3081)


(Start cutting path id: path3004-8-8-2)
(Change tool to Default tool)

G00 Z5.000000
G00 X57.185840 Y119.877473

G01 Z-0.125000 F100.0(Penetrate)
G01 X55.317604 Y115.753555 Z-0.125000 F400.000000
G03 X62.061166 Y112.528278 Z-0.125000 I46.537723 J88.640769
G02 X70.847315 Y108.668056 Z-0.125000 I-367.527316 J-848.448113
G03 X75.154624 Y110.762938 Z-0.125000 I-4.520410 J14.770057
G03 X75.524163 Y111.717132 Z-0.125000 I-0.523246 J0.751296
G03 X74.718083 Y112.804638 Z-0.125000 I-1.639235 J-0.372539
G03 X71.312237 Y114.406800 Z-0.125000 I-11.841732 J-20.751798
G03 X62.464558 Y117.200827 Z-0.125000 I-29.811199 J-78.995651
G02 X57.185840 Y119.877473 Z-0.125000 I3.391497 J13.232007
G01 X57.185840 Y119.877473 Z-0.125000
G00 Z5.000000

(End cutting path id: path3004-8-8-2)


(Start cutting path id: path3004-8-8)
(Change tool to Default tool)

G00 Z5.000000
G00 X59.898297 Y126.883360

G01 Z-0.125000 F100.0(Penetrate)
G01 X57.913295 Y122.759441 Z-0.125000 F400.000000
G03 X65.265215 Y119.216139 Z-0.125000 I55.232012 J105.200850
G02 X74.844185 Y114.973354 Z-0.125000 I-960.382424 J-2181.198229
G03 X77.661538 Y117.150813 Z-0.125000 I-3.151446 J6.988943
G03 X77.793279 Y118.328938 Z-0.125000 I-0.859057 J0.692490
G03 X76.644395 Y119.571189 Z-0.125000 I-2.651029 J-1.299387
G03 X73.309510 Y121.237540 Z-0.125000 I-13.482704 J-22.812818
G03 X64.978975 Y124.188131 Z-0.125000 I-32.195896 J-77.664847
G02 X59.898297 Y126.883360 Z-0.125000 I4.110434 J13.884744
G01 X59.898297 Y126.883360 Z-0.125000
G00 Z5.000000

(End cutting path id: path3004-8-8)


(Start cutting path id: path3004-8)
(Change tool to Default tool)

G00 Z5.000000
G00 X63.451499 Y134.181155

G01 Z-0.125000 F100.0(Penetrate)
G01 X60.999438 Y129.860862 Z-0.125000 F400.000000
G01 X77.813563 Y121.337034 Z-0.125000
G03 X80.673087 Y123.623165 Z-0.125000 I-3.384727 J7.165096
G03 X80.853879 Y124.909746 Z-0.125000 I-1.023659 J0.799839
G03 X79.748675 Y126.276053 Z-0.125000 I-2.792023 J-1.128311
G03 X76.570800 Y128.083000 Z-0.125000 I-13.215912 J-19.544870
G03 X68.523510 Y131.302895 Z-0.125000 I-31.347659 J-66.679321
G02 X63.451499 Y134.181155 Z-0.125000 I4.773238 J14.319328
G01 X63.451499 Y134.181155 Z-0.125000
G00 Z5.000000

(End cutting path id: path3004-8)


(Start cutting path id: path3004)
(Change tool to Default tool)

G00 Z5.000000
G00 X67.433312 Y140.895125

G01 Z-0.125000 F100.0(Penetrate)
G01 X64.630956 Y137.041892 Z-0.125000 F400.000000
G01 X81.795375 Y127.233650 Z-0.125000
G03 X83.984426 Y129.770530 Z-0.125000 I-2.017532 J3.953807
G03 X83.079785 Y132.721595 Z-0.125000 I-2.508910 J0.845090
G01 X78.993019 Y135.407184 Z-0.125000
G01 X67.433312 Y140.895125 Z-0.125000
G01 X67.433312 Y140.895125 Z-0.125000
G00 Z5.000000

(End cutting path id: path3004)


(Start cutting path id: path2980-9)
(Change tool to Default tool)

G00 Z5.000000
G00 X62.680403 Y129.580603

G01 Z-0.125000 F100.0(Penetrate)
G01 X70.036580 Y125.377071 Z-0.125000 F400.000000
G03 X73.559943 Y124.822118 Z-0.125000 I3.475524 J10.603588
G03 X75.641283 Y127.245311 Z-0.125000 I-0.009060 J2.113236
G01 X63.964813 Y132.733252 Z-0.125000
G01 X62.680403 Y129.580603 Z-0.125000
G01 X62.680403 Y129.580603 Z-0.125000
G00 Z5.000000

(End cutting path id: path2980-9)


(Start cutting path id: path2980)
(Change tool to Default tool)

G00 Z5.000000
G00 X59.726841 Y122.913357

G01 Z-0.125000 F100.0(Penetrate)
G01 X67.083018 Y118.709826 Z-0.125000 F400.000000
G03 X70.685873 Y118.113774 Z-0.125000 I4.621175 J16.746026
G03 X73.154781 Y120.811593 Z-0.125000 I0.138121 J2.352218
G01 X61.011251 Y126.066006 Z-0.125000
G01 X59.726841 Y122.913357 Z-0.125000
G01 X59.726841 Y122.913357 Z-0.125000
G00 Z5.000000

(End cutting path id: path2980)


(Start cutting path id: path2978)
(Change tool to Default tool)

G00 Z5.000000
G00 X58.442427 Y118.359532

G01 Z-0.125000 F100.0(Penetrate)
G03 X58.033695 Y117.831583 Z-0.125000 I1.433038 J-1.531635 F400.000000
G03 X57.508308 Y116.024236 Z-0.125000 I3.854442 J-2.100506
G01 X67.316546 Y111.353645 Z-0.125000
G03 X69.499953 Y112.116926 Z-0.125000 I0.108651 J3.193716
G03 X70.235663 Y114.156000 Z-0.125000 I-1.421447 J1.665128
G01 X58.442427 Y118.359532 Z-0.125000
G01 X58.442427 Y118.359532 Z-0.125000
G00 Z5.000000

(End cutting path id: path2978)


(Start cutting path id: path2976)
(Change tool to Default tool)

G00 Z5.000000
G00 X121.845680 Y171.020431

G01 Z-0.125000 F100.0(Penetrate)
G01 X116.591268 Y166.700134 Z-0.125000 F400.000000
G01 X114.723032 Y163.664250 Z-0.125000
G01 X115.190092 Y161.796015 Z-0.125000
G02 X116.493680 Y161.334231 Z-0.125000 I-2.234467 J-8.378633
G02 X118.459503 Y160.044545 Z-0.125000 I-3.004169 J-6.722212
G02 X120.810678 Y160.782508 Z-0.125000 I1.526177 J-0.748009
G02 X121.845680 Y159.811013 Z-0.125000 I-1.409432 J-2.538648
G01 X120.678033 Y158.643366 Z-0.125000
G01 X122.429503 Y156.424836 Z-0.125000
G01 X124.180976 Y154.323072 Z-0.125000
G01 X126.399506 Y150.236307 Z-0.125000
G01 X128.267741 Y146.149538 Z-0.125000
G01 X129.085095 Y147.433952 Z-0.125000
G01 X129.668917 Y158.760131 Z-0.125000
G02 X126.735289 Y158.008006 Z-0.125000 I-2.893692 J5.189407
G02 X123.713916 Y159.460719 Z-0.125000 I0.026370 J3.923146
G02 X123.020923 Y163.984759 Z-0.125000 I16.252536 J4.804661
G02 X124.064210 Y170.786899 Z-0.125000 I20.484589 J0.339229
G02 X125.058146 Y173.723603 Z-0.125000 I6.057520 J-0.413634
G02 X127.917447 Y177.559254 Z-0.125000 I35.603201 J-23.556980
G01 X118.225975 Y171.604253 Z-0.125000
G02 X113.613119 Y168.784348 Z-0.125000 I-94.012218 J148.604198
G02 X108.300971 Y167.634253 Z-0.125000 I-4.390687 J7.436920
G02 X105.710860 Y169.183549 Z-0.125000 I4.396848 J10.290368
G02 X103.747146 Y170.786899 Z-0.125000 I76.209843 J95.342731
G01 X101.295085 Y169.268957 Z-0.125000
G02 X100.172577 Y167.384478 Z-0.125000 I-29.623508 J16.368965
G02 X98.843027 Y165.766018 Z-0.125000 I-7.486337 J4.794619
G01 X98.492733 Y163.080428 Z-0.125000
G01 X101.411851 Y159.927779 Z-0.125000
G02 X106.791638 Y150.678726 Z-0.125000 I-5.796152 J-9.560504
G03 X109.118325 Y145.682482 Z-0.125000 I6.943221 J0.193493
G01 X111.687149 Y148.718365 Z-0.125000
G02 X113.834019 Y149.236356 Z-0.125000 I1.723211 J-2.434076
G02 X116.124208 Y147.433952 Z-0.125000 I-0.413557 J-2.881671
G01 X117.058327 Y142.296305 Z-0.125000
G01 X118.809797 Y142.996892 Z-0.125000
G01 X121.495387 Y142.062773 Z-0.125000
G01 X123.597150 Y140.311303 Z-0.125000
G01 X125.348624 Y139.260421 Z-0.125000
G01 X126.866565 Y137.976008 Z-0.125000
G01 X127.800681 Y136.925126 Z-0.125000
G01 X126.749800 Y137.041892 Z-0.125000
G01 X126.282740 Y137.508948 Z-0.125000
G01 X125.698918 Y135.874244 Z-0.125000
G01 X123.130094 Y137.859242 Z-0.125000
G01 X124.064210 Y139.377183 Z-0.125000
G01 X122.079209 Y140.311303 Z-0.125000
G01 X121.028327 Y139.143655 Z-0.125000
G01 X119.043325 Y140.077771 Z-0.125000
G01 X119.393619 Y141.478951 Z-0.125000
G01 X117.408621 Y141.128657 Z-0.125000
G01 X118.109209 Y131.670713 Z-0.125000
G00 Z5.000000

(End cutting path id: path2976)


(Start cutting path id: path2951)
(Change tool to Default tool)

G00 Z5.000000
G00 X131.122612 Y174.501516

G01 Z-0.125000 F100.0(Penetrate)
G03 X129.437584 Y173.885454 Z-0.125000 I-0.276071 J-1.857344 F400.000000
G03 X127.550715 Y170.911424 Z-0.125000 I8.459207 J-7.452508
G03 X126.531075 Y167.346195 Z-0.125000 I13.129957 J-5.683528
G03 X126.890845 Y165.032523 Z-0.125000 I3.882011 J-0.581166
G03 X130.495993 Y164.997796 Z-0.125000 I1.825678 J2.381131
G03 X132.585086 Y167.948147 Z-0.125000 I-3.409773 J4.629204
G03 X132.966269 Y172.632570 Z-0.125000 I-10.528523 J3.214451
G03 X131.122612 Y174.501516 Z-0.125000 I-2.164807 J-0.291686
G01 X131.122612 Y174.501516 Z-0.125000
G00 Z5.000000

(End cutting path id: path2951)


(Start cutting path id: path2949)
(Change tool to Default tool)

G00 Z5.000000
G00 X135.595558 Y137.322653

G01 Z-0.125000 F100.0(Penetrate)
G01 X130.001748 Y137.865740 Z-0.125000 F400.000000
G01 X129.458657 Y140.689801 Z-0.125000
G01 X130.924996 Y146.174995 Z-0.125000
G01 X131.848247 Y149.867995 Z-0.125000
G01 X132.337026 Y151.986041 Z-0.125000
G01 X132.282718 Y158.122942 Z-0.125000
G01 X133.043041 Y161.870250 Z-0.125000
G01 X135.432631 Y166.649429 Z-0.125000
G01 X136.627425 Y171.808771 Z-0.125000
G01 X136.573117 Y175.719006 Z-0.125000
G01 X136.247265 Y177.511200 Z-0.125000
G01 X134.183528 Y179.412010 Z-0.125000
G01 X133.477513 Y179.683554 Z-0.125000
G01 X107.246341 Y190.925485 Z-0.125000
G01 X99.588794 Y193.803854 Z-0.125000
G01 X78.625577 Y184.625657 Z-0.125000
G01 X75.475665 Y186.037687 Z-0.125000
G01 X73.194695 Y185.005820 Z-0.125000
G01 X67.872429 Y187.015246 Z-0.125000
G01 X65.645764 Y186.906630 Z-0.125000
G01 X63.147558 Y185.711835 Z-0.125000
G01 X61.952764 Y184.408421 Z-0.125000
G01 X60.051954 Y184.571349 Z-0.125000
G01 X58.531307 Y183.050702 Z-0.125000
G01 X51.471155 Y185.603216 Z-0.125000
G01 X44.465315 Y185.603216 Z-0.125000
G01 X38.762885 Y184.136877 Z-0.125000
G01 X37.350855 Y183.430862 Z-0.125000
G01 X30.182087 Y179.520626 Z-0.125000
G01 X27.412338 Y178.434448 Z-0.125000
G01 X25.511528 Y178.108596 Z-0.125000
G01 X15.410083 Y163.933987 Z-0.125000
G01 X11.167476 Y156.574052 Z-0.125000
G01 X8.508513 Y150.161266 Z-0.125000
G01 X5.380324 Y135.458773 Z-0.125000
G01 X3.353259 Y125.586207 Z-0.125000
G01 X3.240644 Y118.378858 Z-0.125000
G01 X4.704634 Y113.311192 Z-0.125000
G01 X7.069548 Y106.666918 Z-0.125000
G01 X7.745234 Y104.865078 Z-0.125000
G01 X11.011064 Y102.049708 Z-0.125000
G01 X16.078733 Y98.671264 Z-0.125000
G01 X19.682408 Y96.531583 Z-0.125000
G00 Z5.000000

(End cutting path id: path2949)


(Start cutting path id: path2947)
(Change tool to Default tool)

G00 Z5.000000
G00 X25.155361 Y99.408796

G01 Z-0.125000 F100.0(Penetrate)
G03 X27.712282 Y97.769262 Z-0.125000 I18.176851 J25.533980 F400.000000
G02 X29.604233 Y96.173253 Z-0.125000 I-3.463076 J-6.024608
G03 X30.325988 Y94.195747 Z-0.125000 I8.988432 J2.160154
G02 X30.278307 Y93.207340 Z-0.125000 I-0.902673 J-0.451808
G01 X29.199790 Y93.387091 Z-0.125000
G01 X26.997825 Y95.184616 Z-0.125000
G01 X25.784497 Y96.577695 Z-0.125000
G01 X25.424992 Y97.116954 Z-0.125000
G01 X25.155361 Y99.408796 Z-0.125000
G01 X25.155361 Y99.408796 Z-0.125000
G00 Z5.000000

(End cutting path id: path2947)


(Start cutting path id: path2945)
(Change tool to Default tool)

G00 Z5.000000
G00 X18.504524 Y101.161383

G01 Z-0.125000 F100.0(Penetrate)
G01 X12.392942 Y104.441865 Z-0.125000 F400.000000
G01 X9.606780 Y106.194448 Z-0.125000
G01 X7.899132 Y107.632469 Z-0.125000
G01 X6.955434 Y109.834434 Z-0.125000
G01 X9.966285 Y107.767285 Z-0.125000
G01 X13.111951 Y106.374202 Z-0.125000
G01 X16.167744 Y104.711492 Z-0.125000
G01 X18.055143 Y104.037422 Z-0.125000
G01 X19.133656 Y102.194958 Z-0.125000
G01 X19.088718 Y101.790515 Z-0.125000
G01 X18.504524 Y101.161383 Z-0.125000
G01 X18.504524 Y101.161383 Z-0.125000
G00 Z5.000000

(End cutting path id: path2945)


(Start cutting path id: path2942)
(Change tool to Default tool)

G00 Z5.000000
G00 X25.739558 Y86.376749

G01 Z-0.125000 F100.0(Penetrate)
G03 X22.440903 Y89.065535 Z-0.125000 I-50.218247 J-58.240918 F400.000000
G03 X18.864029 Y91.409818 Z-0.125000 I-17.170460 J-22.297531
G01 X18.414647 Y90.825621 Z-0.125000
G00 Z5.000000

(End cutting path id: path2942)


(Start cutting path id: path2942)
(Change tool to Default tool)

G00 Z5.000000
G00 X99.779887 Y68.443586

G01 Z-0.125000 F100.0(Penetrate)
G01 X98.032695 Y68.496533 Z-0.125000 F400.000000
G02 X96.962787 Y67.481536 Z-0.125000 I-2.798030 J1.878010
G02 X88.979077 Y64.525646 Z-0.125000 I-11.938894 J19.986609
G02 X87.822654 Y62.831889 Z-0.125000 I-14.831688 J8.884775
G02 X85.696481 Y60.766539 Z-0.125000 I-8.312212 J6.429930
G03 X81.921419 Y61.421719 Z-0.125000 I-9.848364 J-45.541702
G03 X77.659676 Y61.285132 Z-0.125000 I-1.714971 J-13.045019
G03 X70.612967 Y56.727919 Z-0.125000 I11.275155 J-25.161186
G02 X67.430409 Y54.571961 Z-0.125000 I-9.746462 J10.960448
G03 X63.196789 Y52.652399 Z-0.125000 I38.897076 J-91.416471
G03 X59.435692 Y50.442237 Z-0.125000 I11.533378 J-23.931950
G03 X54.740080 Y45.904013 Z-0.125000 I29.291445 J-35.005632
G02 X50.329127 Y44.247658 Z-0.125000 I-3.793412 J3.400572
G02 X40.247023 Y49.221785 Z-0.125000 I25.669916 J64.735415
G02 X34.022026 Y53.936617 Z-0.125000 I18.411012 J30.774926
G02 X34.684668 Y60.927703 Z-0.125000 I12.530463 J2.339262
G03 X36.390600 Y65.385396 Z-0.125000 I-275.477191 J107.978678
G01 X40.154801 Y81.080195 Z-0.125000
G01 X33.200600 Y85.801395 Z-0.125000
G01 X30.202000 Y89.182792 Z-0.125000
G01 X29.372600 Y88.034393 Z-0.125000
G01 X29.805491 Y86.758394 Z-0.125000
G03 X29.163071 Y85.859718 Z-0.125000 I51.823429 J-37.724989
G03 X28.479399 Y84.816012 Z-0.125000 I15.912450 J-11.169110
G01 X25.672200 Y86.247994 Z-0.125000
G01 X24.140999 Y84.014993 Z-0.125000
G03 X24.749822 Y82.996126 Z-0.125000 I3.680007 J1.507650
G02 X24.842800 Y82.228594 Z-0.125000 I-0.555082 J-0.456639
G01 X23.247802 Y82.611395 Z-0.125000
G01 X21.014801 Y79.421395 Z-0.125000
G01 X19.100799 Y80.569795 Z-0.125000
G01 X17.250599 Y77.762595 Z-0.125000
G02 X14.617890 Y79.195704 Z-0.125000 I2.110649 J7.012172
G02 X13.677801 Y80.186994 Z-0.125000 I4.131977 J4.859967
G01 X15.464200 Y82.611395 Z-0.125000
G01 X13.486401 Y84.270195 Z-0.125000
G01 X15.974600 Y87.587794 Z-0.125000
G01 X15.967883 Y88.756594 Z-0.125000
G01 X16.995394 Y88.672392 Z-0.125000
G01 X18.414640 Y90.825621 Z-0.125000
G03 X17.815818 Y91.591243 Z-0.125000 I-2.286268 J-1.171187
G02 X16.357394 Y93.010795 Z-0.125000 I12.118407 J13.909200
G01 X17.888595 Y95.052393 Z-0.125000
G01 X19.100792 Y94.478195 Z-0.125000
G01 X19.930192 Y96.009395 Z-0.125000
G01 X18.398995 Y98.816594 Z-0.125000
G01 X18.462793 Y100.858195 Z-0.125000
G01 X19.674994 Y101.751392 Z-0.125000
G01 X19.762784 Y99.633488 Z-0.125000
G03 X21.826886 Y96.525810 Z-0.125000 I153.080456 J99.435804
G03 X24.526222 Y93.881411 Z-0.125000 I7.900182 J5.364400
G01 X25.155354 Y93.971288 Z-0.125000
G01 X25.155354 Y94.959924 Z-0.125000
G01 X26.503498 Y94.690296 Z-0.125000
G01 X25.200293 Y96.532761 Z-0.125000
G01 X24.750911 Y98.420160 Z-0.125000
G01 X24.436345 Y100.262620 Z-0.125000
G01 X23.537583 Y101.431010 Z-0.125000
G01 X23.582521 Y101.925330 Z-0.125000
G01 X25.514859 Y100.037931 Z-0.125000
G01 X27.537073 Y98.914479 Z-0.125000
G01 X28.795340 Y98.465098 Z-0.125000
G01 X28.615590 Y102.194958 Z-0.125000
G02 X25.000692 Y104.726584 Z-0.125000 I18.045947 J29.614385
G02 X22.638823 Y107.362842 Z-0.125000 I6.704855 J8.383144
G01 X18.729206 Y109.744561 Z-0.125000
G01 X17.426004 Y110.912951 Z-0.125000
G01 X17.965259 Y105.924821 Z-0.125000
G01 X19.178588 Y103.498163 Z-0.125000
G01 X19.674994 Y101.751392 Z-0.125000
G03 X20.428140 Y103.543628 Z-0.125000 I-0.267016 J1.166572
G02 X18.279825 Y109.564807 Z-0.125000 I13.231087 J8.114602
G01 X22.504008 Y107.048272 Z-0.125000
G03 X25.074995 Y104.000028 Z-0.125000 I7.009966 J3.304081
G02 X28.121270 Y101.835457 Z-0.125000 I-136.118389 J-194.789919
G00 Z5.000000

(End cutting path id: path2942)


(Start cutting path id: path2939)
(Change tool to Default tool)

G00 Z5.000000
G00 X69.329709 Y81.270506

G01 Z-0.125000 F100.0(Penetrate)
G03 X70.855437 Y80.209309 Z-0.125000 I58.566177 J82.575662 F400.000000
G03 X72.616725 Y79.173448 Z-0.125000 I8.610899 J12.625928
G00 Z5.000000

(End cutting path id: path2939)


(Start cutting path id: path2939)
(Change tool to Default tool)

G00 Z5.000000
G00 X59.631887 Y78.864847

G01 Z-0.125000 F100.0(Penetrate)
G02 X60.036903 Y79.683890 Z-0.125000 I1.018288 J0.006119 F400.000000
G03 X61.135424 Y80.518739 Z-0.125000 I-117.287951 J155.471352
G02 X63.981916 Y81.365337 Z-0.125000 I2.417960 J-2.921202
G03 X69.329709 Y81.270506 Z-0.125000 I3.168789 J27.861081
G02 X70.504081 Y81.349842 Z-0.125000 I1.339021 J-11.089344
G02 X72.487142 Y80.368385 Z-0.125000 I0.035705 J-2.421998
G01 X72.637493 Y79.165553 Z-0.125000
G01 X70.532540 Y78.940023 Z-0.125000
G01 X69.931125 Y78.639313 Z-0.125000
G01 X62.939671 Y78.564138 Z-0.125000
G01 X59.631887 Y78.864847 Z-0.125000
G01 X59.631887 Y78.864847 Z-0.125000
G00 Z5.000000

(End cutting path id: path2939)


(Start cutting path id: path2935)
(Change tool to Default tool)

G00 Z5.000000
G00 X56.610376 Y71.936597

G01 Z-0.125000 F100.0(Penetrate)
G01 X58.560615 Y74.886733 Z-0.125000 F400.000000
G01 X57.902815 Y75.406708 Z-0.125000
G01 X58.053170 Y76.308830 Z-0.125000
G01 X58.880116 Y76.609536 Z-0.125000
G01 X62.413431 Y74.955644 Z-0.125000
G01 X70.758071 Y74.654938 Z-0.125000
G01 X72.487142 Y75.256353 Z-0.125000
G01 X73.990679 Y74.955644 Z-0.125000
G01 X73.464443 Y76.609536 Z-0.125000
G01 X72.186432 Y77.210952 Z-0.125000
G01 X68.803472 Y76.534360 Z-0.125000
G01 X65.420509 Y76.158475 Z-0.125000
G01 X61.736840 Y76.459185 Z-0.125000
G01 X58.880116 Y77.812367 Z-0.125000
G01 X58.429055 Y78.113077 Z-0.125000
G01 X56.610376 Y71.936597 Z-0.125000
G01 X56.610376 Y71.936597 Z-0.125000
G00 Z5.000000

(End cutting path id: path2935)


(Start cutting path id: path2932)
(Change tool to Default tool)

G00 Z5.000000
G00 X54.527157 Y66.140681

G01 Z-0.125000 F100.0(Penetrate)
G01 X59.205724 Y74.379929 Z-0.125000 F400.000000
G01 X62.642196 Y72.723799 Z-0.125000
G03 X68.608469 Y72.217637 Z-0.125000 I4.578226 J18.548696
G03 X74.193705 Y73.717477 Z-0.125000 I-1.114493 J15.299564
G03 X75.461238 Y73.049884 Z-0.125000 I5.193708 J8.323981
G02 X75.849835 Y72.516781 Z-0.125000 I-0.261450 J-0.598763
G02 X74.927132 Y71.319120 Z-0.125000 I-7.258140 J4.637559
G02 X74.069493 Y70.695040 Z-0.125000 I-1.988844 J1.831814
G02 X66.182735 Y70.754680 Z-0.125000 I-3.740549 J26.852016
G02 X63.097631 Y71.895732 Z-0.125000 I1.261569 J8.152129
G01 X57.673806 Y64.567356 Z-0.125000
G00 Z5.000000

(End cutting path id: path2932)


(Start cutting path id: path2932)
(Change tool to Default tool)

G00 Z5.000000
G00 X54.527157 Y66.140681

G01 Z-0.125000 F100.0(Penetrate)
G02 X53.999305 Y65.041573 Z-0.125000 I-1340.931240 J643.312338 F400.000000
G02 X53.868155 Y64.774374 Z-0.125000 I-16.461477 J7.914008
G03 X54.785884 Y63.777175 Z-0.125000 I1.664814 J0.611245
G03 X57.798014 Y63.242452 Z-0.125000 I2.514615 J5.413864
G01 X57.880820 Y63.615081 Z-0.125000
G02 X57.099163 Y63.554274 Z-0.125000 I-1.386084 J12.763295
G02 X56.928545 Y63.697890 Z-0.125000 I-0.007729 J0.163976
G02 X56.931657 Y64.340256 Z-0.125000 I2.473659 J0.309204
G02 X57.094159 Y64.898582 Z-0.125000 I1.938629 J-0.261431
G02 X55.535406 Y65.353535 Z-0.125000 I0.725935 J5.384956
G02 X54.527157 Y66.140681 Z-0.125000 I1.185131 J2.557329
G01 X54.527157 Y66.140681 Z-0.125000
G00 Z5.000000

(End cutting path id: path2932)


(Start cutting path id: path2928)
(Change tool to Default tool)

G00 Z5.000000
G00 X59.743968 Y62.828420

G01 Z-0.125000 F100.0(Penetrate)
G01 X64.381132 Y69.866973 Z-0.125000 F400.000000
G03 X69.683381 Y69.178894 Z-0.125000 I10.375288 J59.177422
G03 X75.477206 Y70.405217 Z-0.125000 I0.865328 J10.211491
G03 X75.650095 Y70.362325 Z-0.125000 I0.161670 J0.281778
G02 X77.091930 Y70.405217 Z-0.125000 I5.185807 J-150.070713
G01 X78.168418 Y69.618556 Z-0.125000
G02 X77.474466 Y69.216284 Z-0.125000 I-3.717734 J5.613695
G03 X76.015447 Y68.252249 Z-0.125000 I3.331441 J-6.628066
G02 X67.303226 Y68.876114 Z-0.125000 I-2.783785 J22.269319
G02 X64.381132 Y69.866973 Z-0.125000 I6.842775 J24.983824
G00 Z5.000000

(End cutting path id: path2928)


(Start cutting path id: path2924)
(Change tool to Default tool)

G00 Z5.000000
G00 X60.298893 Y61.971488

G01 Z-0.125000 F100.0(Penetrate)
G03 X60.630914 Y62.120775 Z-0.125000 I-0.249950 J0.999763 F400.000000
G03 X67.189530 Y66.612121 Z-0.125000 I-6426.096119 J9390.923033
G01 X73.236416 Y64.830867 Z-0.125000
G01 X74.830166 Y63.893367 Z-0.125000
G00 Z5.000000

(End cutting path id: path2924)


(Start cutting path id: path2922)
(Change tool to Default tool)

G00 Z5.000000
G00 X46.749799 Y48.391001

G01 Z-0.125000 F100.0(Penetrate)
G02 X47.626583 Y52.793400 Z-0.125000 I53.707802 J-8.407961 F400.000000
G02 X48.947168 Y57.480125 Z-0.125000 I64.372505 J-15.608916
G01 X53.092208 Y62.024686 Z-0.125000
G02 X56.122298 Y62.846601 Z-0.125000 I4.348888 J-10.036345
G02 X58.835333 Y63.073433 Z-0.125000 I4.383558 J-36.091813
G02 X61.451922 Y59.794515 Z-0.125000 I-1.459925 J-3.848509
G02 X61.232464 Y57.030662 Z-0.125000 I-6.346243 J-0.886730
G02 X64.631879 Y58.982961 Z-0.125000 I6.031345 J-6.566256
G03 X72.918481 Y63.822533 Z-0.125000 I-6.241436 J20.201148
G03 X74.011285 Y63.769900 Z-0.125000 I1.823691 J26.493650
G02 X74.966028 Y63.023491 Z-0.125000 I-0.028076 J-1.019730
G02 X77.293618 Y64.944124 Z-0.125000 I3.505316 J-1.877343
G02 X83.923932 Y66.893371 Z-0.125000 I69.356271 J-223.662584
G01 X83.783307 Y67.408996 Z-0.125000
G03 X78.191952 Y66.036724 Z-0.125000 I5.457028 J-34.311977
G02 X71.877036 Y65.674618 Z-0.125000 I-3.821084 J11.392199
G03 X68.615814 Y67.122464 Z-0.125000 I-4.851793 J-6.531675
G02 X65.220775 Y68.768377 Z-0.125000 I1.463901 J7.344048
G01 X70.283285 Y66.893371 Z-0.125000
G01 X75.064543 Y67.221496 Z-0.125000
G03 X77.064390 Y67.729350 Z-0.125000 I-8.415288 J37.329485
G03 X78.767673 Y68.393376 Z-0.125000 I-2.593549 J9.169223
G02 X80.267704 Y68.289362 Z-0.125000 I0.435433 J-4.588741
G02 X80.783300 Y67.690249 Z-0.125000 I-0.155554 J-0.655287
G02 X78.673270 Y66.862773 Z-0.125000 I-3.694282 J6.316280
G03 X76.330172 Y66.283996 Z-0.125000 I10.919014 J-49.236390
G01 X73.330165 Y66.283996 Z-0.125000
G01 X71.548910 Y66.518373 Z-0.125000
G01 X70.330158 Y66.893371 Z-0.125000
G00 Z5.000000

(End cutting path id: path2922)


(Start cutting path id: path2875-7-4)
(Change tool to Default tool)

G00 Z5.000000
G00 X51.954426 Y54.075735

G01 Z-0.125000 F100.0(Penetrate)
G03 X51.541881 Y51.715864 Z-0.125000 I4.284134 J-1.964933 F400.000000
G03 X52.252594 Y50.637912 Z-0.125000 I1.344281 J0.113039
G03 X53.524725 Y50.736442 Z-0.125000 I0.558558 J1.049977
G03 X55.078974 Y52.594426 Z-0.125000 I-3.178302 J4.237801
G03 X55.744951 Y55.583081 Z-0.125000 I-5.601375 J2.816711
G03 X54.880686 Y56.581595 Z-0.125000 I-1.041967 J-0.028586
G03 X53.352722 Y56.094044 Z-0.125000 I-0.295950 J-1.710568
G03 X51.954426 Y54.075735 Z-0.125000 I4.980229 J-4.943857
G01 X51.954426 Y54.075735 Z-0.125000
G00 Z5.000000

(End cutting path id: path2875-7-4)


(Start cutting path id: path2875-7)
(Change tool to Default tool)

G00 Z5.000000
G00 X51.964212 Y54.412049

G01 Z-0.125000 F100.0(Penetrate)
G03 X51.501897 Y51.596521 Z-0.125000 I4.969432 J-2.261711 F400.000000
G03 X52.378213 Y50.351610 Z-0.125000 I1.546422 J0.157672
G03 X53.869775 Y50.470929 Z-0.125000 I0.642907 J1.345653
G03 X55.680208 Y52.636674 Z-0.125000 I-3.020197 J4.364284
G03 X56.142524 Y55.452206 Z-0.125000 I-4.969441 J2.261714
G03 X55.266208 Y56.697116 Z-0.125000 I-1.546421 J-0.157672
G03 X53.774647 Y56.577798 Z-0.125000 I-0.642906 J-1.345652
G03 X51.964212 Y54.412049 Z-0.125000 I3.020202 J-4.364290
G01 X51.964212 Y54.412049 Z-0.125000
G00 Z5.000000

(End cutting path id: path2875-7)


(Start cutting path id: path2875)
(Change tool to Default tool)

G00 Z5.000000
G00 X51.956487 Y54.374425

G01 Z-0.125000 F100.0(Penetrate)
G03 X51.433731 Y51.190985 Z-0.125000 I5.618417 J-2.557248 F400.000000
G03 X52.424622 Y49.783355 Z-0.125000 I1.748541 J0.178292
G03 X54.111242 Y49.918273 Z-0.125000 I0.726979 J1.521723
G03 X56.158380 Y52.367038 Z-0.125000 I-3.414767 J4.934776
G03 X56.681137 Y55.550482 Z-0.125000 I-5.618426 J2.557252
G03 X55.690246 Y56.958112 Z-0.125000 I-1.748540 J-0.178291
G03 X54.003627 Y56.823194 Z-0.125000 I-0.726978 J-1.521722
G03 X51.956487 Y54.374425 Z-0.125000 I3.414773 J-4.934784
G01 X51.956487 Y54.374425 Z-0.125000
G00 Z5.000000

(End cutting path id: path2875)


(Start cutting path id: path2847)
(Change tool to Default tool)

G00 Z5.000000
G00 X126.737650 Y98.117633

G01 Z-0.125000 F100.0(Penetrate)
G02 X126.149101 Y97.393837 Z-0.125000 I-1.486120 J0.607244 F400.000000
G02 X125.652707 Y97.386013 Z-0.125000 I-0.254201 J0.376963
G02 X125.343296 Y97.880880 Z-0.125000 I0.357194 J0.567495
G02 X125.487247 Y98.904665 Z-0.125000 I2.091741 J0.227899
G02 X126.075797 Y99.628463 Z-0.125000 I1.486131 J-0.607248
G02 X126.572192 Y99.636288 Z-0.125000 I0.254201 J-0.376962
G02 X126.881603 Y99.141420 Z-0.125000 I-0.357194 J-0.567495
G02 X126.737650 Y98.117633 Z-0.125000 I-2.091755 J-0.227896
G01 X126.737650 Y98.117633 Z-0.125000
G00 Z5.000000

(End cutting path id: path2847)


(Start cutting path id: path2845)
(Change tool to Default tool)

G00 Z5.000000
G00 X126.315176 Y102.687107

G01 Z-0.125000 F100.0(Penetrate)
G01 X128.909948 Y102.606019 Z-0.125000 F400.000000
G01 X128.909948 Y98.713865 Z-0.125000
G01 X127.369300 Y96.200177 Z-0.125000
G01 X125.017790 Y94.010838 Z-0.125000
G01 X123.396059 Y94.740620 Z-0.125000
G01 X123.233884 Y97.578650 Z-0.125000
G01 X124.531270 Y100.984288 Z-0.125000
G01 X126.315176 Y102.687107 Z-0.125000
G01 X126.315176 Y102.687107 Z-0.125000
G00 Z5.000000

(End cutting path id: path2845)


(Start cutting path id: path2843)
(Change tool to Default tool)

G00 Z5.000000
G00 X129.639726 Y108.363171

G01 Z-0.125000 F100.0(Penetrate)
G02 X128.718741 Y94.812845 Z-0.125000 I-15.586646 J-5.747072 F400.000000
G02 X120.882370 Y90.524113 Z-0.125000 I-7.183620 J3.822236
G00 Z5.000000

(End cutting path id: path2843)


(Start cutting path id: path3503-4)
(Change tool to Default tool)

G00 Z5.000000
G00 X104.327590 Y65.248144

G01 Z-0.125000 F100.0(Penetrate)
G02 X98.261136 Y71.119061 Z-0.125000 I3.107876 J9.281097 F400.000000
G02 X95.788438 Y84.157064 Z-0.125000 I37.095656 J13.788786
G02 X97.147818 Y98.721855 Z-0.125000 I65.408158 J1.241077
G02 X100.912430 Y109.285591 Z-0.125000 I40.126695 J-8.347335
G02 X121.049788 Y133.916909 Z-0.125000 I69.072612 J-35.923062
G02 X140.448482 Y135.153821 Z-0.125000 I10.573018 J-13.083462
G02 X141.683508 Y134.272232 Z-0.125000 I-5.192556 J-8.580171
G02 X142.492780 Y133.385033 Z-0.125000 I-2.845816 J-3.408552
G00 Z5.000000

(End cutting path id: path3503-4)


(Start cutting path id: path3503)
(Change tool to Default tool)

G00 Z5.000000
G00 X142.491907 Y133.401294

G01 Z-0.125000 F100.0(Penetrate)
G03 X123.398446 Y131.593543 Z-0.125000 I-8.342204 J-13.626087 F400.000000
G03 X105.769218 Y107.131678 Z-0.125000 I49.088651 J-53.960776
G03 X98.665005 Y76.140239 Z-0.125000 I76.604100 J-33.870045
G03 X108.138858 Y63.318795 Z-0.125000 I12.816409 J-0.440737
G01 X109.568100 Y63.391403 Z-0.125000
G03 X111.303917 Y61.931602 Z-0.125000 I6.227939 J5.643592
G02 X113.085419 Y60.694542 Z-0.125000 I-13.466347 J-21.294331
G00 Z5.000000

(End cutting path id: path3503)


(Start cutting path id: path3495)
(Change tool to Default tool)

G00 Z5.000000
G00 X113.163678 Y60.791515

G01 Z-0.125000 F100.0(Penetrate)
G01 X114.269268 Y59.717973 Z-0.125000 F400.000000
G00 Z5.000000

(End cutting path id: path3495)


(Start cutting path id: path3495)
(Change tool to Default tool)

G00 Z5.000000
G00 X143.729540 Y133.122392

G01 Z-0.125000 F100.0(Penetrate)
G03 X129.177320 Y127.925907 Z-0.125000 I-0.069357 J-22.780010 F400.000000
G03 X114.626474 Y109.576973 Z-0.125000 I35.489188 J-43.087133
G03 X109.283157 Y96.657458 Z-0.125000 I93.642136 J-46.293688
G03 X105.988176 Y82.763744 Z-0.125000 I73.371220 J-24.738017
G03 X106.091001 Y69.374178 Z-0.125000 I44.895566 J-6.350401
G03 X110.394707 Y61.491725 Z-0.125000 I13.157498 J2.067697
G03 X112.224133 Y60.323283 Z-0.125000 I4.563367 J5.128464
G03 X114.217661 Y59.768081 Z-0.125000 I2.995660 J6.899708
G03 X122.172221 Y58.398959 Z-0.125000 I5.111317 J5.904163
G03 X133.971118 Y65.526481 Z-0.125000 I-14.766568 J37.774279
G03 X144.770004 Y77.153391 Z-0.125000 I-48.158707 J55.557398
G03 X149.220893 Y85.755329 Z-0.125000 I-23.946775 J17.843223
G03 X152.823024 Y94.412142 Z-0.125000 I-40.660644 J21.996876
G03 X155.852748 Y108.002585 Z-0.125000 I-90.919978 J27.401767
G03 X156.461570 Y121.444922 Z-0.125000 I-66.213154 J9.733839
G03 X153.839375 Y127.664186 Z-0.125000 I-10.003165 J-0.555157
G03 X146.042411 Y130.856337 Z-0.125000 I-7.292016 J-6.692778
G03 X135.834427 Y127.719511 Z-0.125000 I1.113720 J-21.802340
G03 X126.469269 Y119.924254 Z-0.125000 I21.292550 J-35.103938
G03 X118.372085 Y107.919623 Z-0.125000 I40.383272 J-35.971831
G03 X113.197033 Y95.479792 Z-0.125000 I93.111505 J-46.031343
G03 X109.868085 Y82.001729 Z-0.125000 I75.438476 J-25.782697
G03 X109.602916 Y68.798280 Z-0.125000 I48.514786 J-7.578725
G03 X113.245349 Y60.729344 Z-0.125000 I14.449575 J1.666153
G02 X109.486425 Y68.766022 Z-0.125000 I10.444064 J9.782312
G02 X109.683786 Y82.002147 Z-0.125000 I48.031381 J5.903348
G02 X113.002790 Y95.549668 Z-0.125000 I78.307879 J-12.004305
G02 X118.206350 Y108.074309 Z-0.125000 I98.271614 J-33.485222
G02 X125.635451 Y119.294842 Z-0.125000 I48.110854 J-23.784470
G02 X134.342322 Y127.027009 Z-0.125000 I33.013339 J-28.406642
G02 X144.269086 Y131.063202 Z-0.125000 I14.625388 J-21.744998
G02 X151.784261 Y129.476222 Z-0.125000 I1.818307 J-9.976991
G03 X151.653246 Y129.640650 Z-0.125000 I-15.807101 J-12.460649
G03 X151.519085 Y129.796643 Z-0.125000 I-2.482052 J-1.998974
G03 X147.906775 Y132.302299 Z-0.125000 I-7.362342 J-6.757319
G03 X143.729540 Y133.122392 Z-0.125000 I-4.211411 J-10.402628
G01 X143.729540 Y133.122392 Z-0.125000
G00 Z5.000000

(End cutting path id: path3495)


(Start cutting path id: path3412-4)
(Change tool to Default tool)

G00 Z5.000000
G00 X140.072321 Y115.399796

G01 Z-0.125000 F100.0(Penetrate)
G03 X135.870828 Y114.065144 Z-0.125000 I0.253216 J-8.077615 F400.000000
G03 X130.485031 Y109.630340 Z-0.125000 I18.339454 J-27.759902
G03 X125.906542 Y104.069188 Z-0.125000 I29.188251 J-28.695958
G03 X123.996026 Y100.163225 Z-0.125000 I12.347591 J-8.459777
G03 X120.038416 Y88.384500 Z-0.125000 I163.900667 J-61.624283
G03 X122.327627 Y75.844376 Z-0.125000 I13.511981 J-4.012386
G03 X124.410677 Y74.396785 Z-0.125000 I4.129641 J3.719932
G03 X126.736178 Y73.988144 Z-0.125000 I2.154639 J5.440337
G03 X133.975091 Y76.848415 Z-0.125000 I-0.334078 J11.435932
G03 X141.453446 Y86.694494 Z-0.125000 I-20.819451 J23.575961
G03 X146.790577 Y101.964067 Z-0.125000 I-63.152382 J30.640995
G03 X144.469823 Y112.306076 Z-0.125000 I-12.101083 J2.715903
G02 X145.632629 Y101.882013 Z-0.125000 I-13.877729 J-6.824950
G02 X140.657918 Y87.965129 Z-0.125000 I-66.412223 J15.892058
G02 X130.854944 Y76.690451 Z-0.125000 I-25.760220 J12.498667
G02 X122.327627 Y75.844376 Z-0.125000 I-5.052482 J7.527264
G03 X130.847714 Y76.735836 Z-0.125000 I3.421249 J8.462466
G03 X140.624771 Y87.998276 Z-0.125000 I-16.011691 J23.774947
G03 X146.199005 Y104.206209 Z-0.125000 I-64.149532 J31.124827
G03 X142.911914 Y114.405386 Z-0.125000 I-10.497845 J2.245938
G03 X141.581710 Y115.180979 Z-0.125000 I-2.497112 J-2.754248
G03 X140.072321 Y115.399796 Z-0.125000 I-1.372388 J-4.151411
G01 X140.072321 Y115.399796 Z-0.125000
G00 Z5.000000

(End cutting path id: path3412-4)


(Footer)
M5
G00 X0.0000 Y0.0000
M2
(Using default footer. To add your own footer create file "footer" in the output dir.)
(end)
%