%
(Header)
(Generated by gcodetools from Inkscape.)
(Using default header. To add your own header create file "header" in the output dir.)
M3
(Header end.)
G21 (All units in mm)

(Start cutting path id: path33309)
(Change tool to Default tool)

G00 Z5.000000
G00 X65.410320 Y136.952059

G01 Z-0.125000 F100.0(Penetrate)
G01 X70.967885 Y138.098996 Z-0.125000 F400.000000
G01 X70.725942 Y134.695278 Z-0.125000
G01 X65.168377 Y133.548341 Z-0.125000
G01 X65.410320 Y136.952059 Z-0.125000
G01 X65.410320 Y136.952059 Z-0.125000
G00 Z5.000000

(End cutting path id: path33309)


(Start cutting path id: path33307)
(Change tool to Default tool)

G00 Z5.000000
G00 X65.410317 Y136.952057

G01 Z-0.125000 F100.0(Penetrate)
G01 X70.967883 Y138.098991 Z-0.125000 F400.000000
G01 X70.725939 Y134.695272 Z-0.125000
G01 X65.168374 Y133.548338 Z-0.125000
G00 Z5.000000

(End cutting path id: path33307)


(Start cutting path id: path33305)
(Change tool to Default tool)

G00 Z5.000000
G00 X106.428682 Y142.773042

G01 Z-0.125000 F100.0(Penetrate)
G01 X107.625552 Y145.937103 Z-0.125000 F400.000000
G01 X108.086602 Y146.002012 Z-0.125000
G01 X109.276335 Y143.176039 Z-0.125000
G01 X108.842407 Y143.114698 Z-0.125000
G01 X108.504830 Y143.972047 Z-0.125000
G01 X107.201615 Y143.787312 Z-0.125000
G01 X106.861896 Y142.834383 Z-0.125000
G01 X106.428682 Y142.773042 Z-0.125000
G01 X106.428682 Y142.773042 Z-0.125000
G00 Z5.000000

(End cutting path id: path33305)


(Start cutting path id: path33305)
(Change tool to Default tool)

G00 Z5.000000
G00 X107.332936 Y144.154644

G01 Z-0.125000 F100.0(Penetrate)
G01 X108.374934 Y144.301578 Z-0.125000 F400.000000
G01 X108.072327 Y145.069770 Z-0.125000
G02 X107.931631 Y145.427117 Z-0.125000 I175.508650 J69.308326
G03 X107.855363 Y145.621125 Z-0.125000 I-196.941828 J-77.309344
G02 X107.763578 Y145.360964 Z-0.125000 I-93.337496 J32.783216
G02 X107.657669 Y145.063349 Z-0.125000 I-112.459685 J39.852207
G01 X107.332936 Y144.154644 Z-0.125000
G00 Z5.000000

(End cutting path id: path33305)


(Start cutting path id: path33303)
(Change tool to Default tool)

G00 Z5.000000
G00 X102.833072 Y143.135385

G01 Z-0.125000 F100.0(Penetrate)
G01 X103.242734 Y143.193158 Z-0.125000 F400.000000
G03 X103.288420 Y142.978421 Z-0.125000 I1.088631 J0.119377
G03 X103.356924 Y142.837951 Z-0.125000 I0.519587 J0.166453
G03 X103.464010 Y142.728490 Z-0.125000 I0.350166 J0.235457
G03 X103.634555 Y142.641801 Z-0.125000 I0.384972 J0.546254
G03 X103.824866 Y142.604039 Z-0.125000 I0.244575 J0.734169
G03 X104.058489 Y142.612557 Z-0.125000 I0.077021 J1.095652
G03 X104.261892 Y142.659564 Z-0.125000 I-0.171087 J1.203871
G03 X104.428186 Y142.732385 Z-0.125000 I-0.280898 J0.867743
G03 X104.573051 Y142.838540 Z-0.125000 I-0.399183 J0.696675
G03 X104.666560 Y142.952787 Z-0.125000 I-0.357342 J0.387866
G03 X104.725868 Y143.088550 Z-0.125000 I-0.489455 J0.294656
G03 X104.745782 Y143.225256 Z-0.125000 I-0.485169 J0.140479
G03 X104.726379 Y143.364231 Z-0.125000 I-0.507416 J0.000000
G03 X104.677267 Y143.468480 Z-0.125000 I-0.341836 J-0.097348
G03 X104.593924 Y143.546126 Z-0.125000 I-0.228036 J-0.161217
G03 X104.436749 Y143.614700 Z-0.125000 I-0.334376 J-0.551995
G03 X104.324807 Y143.640353 Z-0.125000 I-0.254768 J-0.854644
G03 X103.949295 Y143.694585 Z-0.125000 I-1.744504 J-10.752049
G02 X103.575106 Y143.756898 Z-0.125000 I0.604292 J4.783484
G02 X103.402602 Y143.807996 Z-0.125000 I0.218565 J1.054574
G02 X103.204307 Y143.915556 Z-0.125000 I0.300873 J0.791247
G02 X103.077869 Y144.044801 Z-0.125000 I0.323151 J0.442605
G02 X103.000068 Y144.207336 Z-0.125000 I0.472519 J0.326067
G02 X102.971527 Y144.407143 Z-0.125000 I0.660608 J0.196305
G02 X103.002157 Y144.628852 Z-0.125000 I0.817712 J0.000000
G02 X103.097139 Y144.855075 Z-0.125000 I0.962927 J-0.271241
G02 X103.246429 Y145.047729 Z-0.125000 I0.756387 J-0.431963
G02 X103.461838 Y145.210282 Z-0.125000 I0.756000 J-0.777817
G02 X103.711461 Y145.321977 Z-0.125000 I0.706081 J-1.243216
G02 X103.995683 Y145.389313 Z-0.125000 I0.505740 J-1.501196
G02 X104.317942 Y145.403896 Z-0.125000 I0.238214 J-1.696148
G02 X104.567356 Y145.361486 Z-0.125000 I-0.052135 J-1.061207
G02 X104.789497 Y145.254427 Z-0.125000 I-0.220228 J-0.740954
G02 X104.947043 Y145.096152 Z-0.125000 I-0.360061 J-0.515953
G02 X105.045932 Y144.892632 Z-0.125000 I-0.613189 J-0.423730
G02 X105.089069 Y144.638232 Z-0.125000 I-0.936779 J-0.289699
G01 X104.678692 Y144.580458 Z-0.125000
G03 X104.608840 Y144.827685 Z-0.125000 I-0.737476 J-0.074889
G03 X104.490278 Y144.969903 Z-0.125000 I-0.343209 J-0.165591
G03 X104.317242 Y145.041347 Z-0.125000 I-0.233202 J-0.319541
G03 X104.011386 Y145.043368 Z-0.125000 I-0.159794 J-1.038408
G03 X103.702679 Y144.957884 Z-0.125000 I0.175696 J-1.234647
G03 X103.531781 Y144.840800 Z-0.125000 I0.200795 J-0.476352
G03 X103.417942 Y144.670575 Z-0.125000 I0.423246 J-0.406226
G03 X103.381190 Y144.495577 Z-0.125000 I0.398256 J-0.174998
G03 X103.411214 Y144.345459 Z-0.125000 I0.390296 J0.000000
G03 X103.487531 Y144.240942 Z-0.125000 I0.255565 J0.106489
G03 X103.604778 Y144.179013 Z-0.125000 I0.188512 J0.214948
G03 X104.034224 Y144.100427 Z-0.125000 I0.767793 J2.983017
G02 X104.473356 Y144.038395 Z-0.125000 I-0.804645 J-7.281608
G02 X104.653713 Y143.993436 Z-0.125000 I-0.214301 J-1.243923
G02 X104.888479 Y143.878541 Z-0.125000 I-0.302242 J-0.914874
G02 X105.033400 Y143.738801 Z-0.125000 I-0.320396 J-0.477293
G02 X105.121733 Y143.559058 Z-0.125000 I-0.480378 J-0.347651
G02 X105.155445 Y143.325817 Z-0.125000 I-0.789997 J-0.233241
G02 X105.123132 Y143.093027 Z-0.125000 I-0.854696 J0.000000
G02 X105.021268 Y142.851495 Z-0.125000 I-1.025769 J0.290362
G02 X104.862468 Y142.643237 Z-0.125000 I-0.881347 J0.507369
G02 X104.638013 Y142.464901 Z-0.125000 I-0.859173 J0.850943
G02 X104.377649 Y142.340617 Z-0.125000 I-0.707595 J1.147492
G02 X104.074906 Y142.266614 Z-0.125000 I-0.526142 J1.496171
G02 X103.682713 Y142.247255 Z-0.125000 I-0.300881 J2.113105
G02 X103.411879 Y142.295144 Z-0.125000 I0.044626 J1.042169
G02 X103.172584 Y142.416681 Z-0.125000 I0.253195 J0.794860
G02 X102.992225 Y142.602563 Z-0.125000 I0.454625 J0.621555
G02 X102.879973 Y142.839181 Z-0.125000 I0.711398 J0.482425
G02 X102.833072 Y143.135376 Z-0.125000 I1.083661 J0.323404
G00 Z5.000000

(End cutting path id: path33303)


(Start cutting path id: path33301)
(Change tool to Default tool)

G00 Z5.000000
G00 X101.341443 Y144.968483

G01 Z-0.125000 F100.0(Penetrate)
G01 X101.751105 Y145.026259 Z-0.125000 F400.000000
G01 X101.748847 Y143.285169 Z-0.125000
G02 X101.718635 Y142.835820 Z-0.125000 I-3.356699 J-0.000000
G02 X101.650358 Y142.550502 Z-0.125000 I-1.447193 J0.195490
G02 X101.516384 Y142.294656 Z-0.125000 I-0.924677 J0.321208
G02 X101.297077 Y142.065480 Z-0.125000 I-0.966468 J0.705327
G02 X101.022231 Y141.906721 Z-0.125000 I-0.660393 J0.825991
G02 X100.626915 Y141.802997 Z-0.125000 I-0.640529 J1.636021
G02 X100.230275 Y141.790712 Z-0.125000 I-0.253696 J1.781725
G02 X99.968172 Y141.855778 Z-0.125000 I0.065763 J0.825351
G02 X99.751060 Y142.003629 Z-0.125000 I0.267356 J0.625934
G02 X99.603470 Y142.225966 Z-0.125000 I0.495823 J0.489287
G02 X99.528919 Y142.493992 Z-0.125000 I1.025437 J0.429607
G02 X99.494990 Y142.965625 Z-0.125000 I3.162414 J0.464538
G01 X99.497247 Y144.707427 Z-0.125000
G01 X99.906910 Y144.765204 Z-0.125000
G01 X99.904652 Y143.018406 Z-0.125000
G03 X99.926918 Y142.628451 Z-0.125000 I3.425904 J-0.000000
G03 X99.970311 Y142.447079 Z-0.125000 I0.768994 J0.088104
G03 X100.063325 Y142.294068 Z-0.125000 I0.454738 J0.171655
G03 X100.199411 Y142.191730 Z-0.125000 I0.327735 J0.294158
G03 X100.365711 Y142.143527 Z-0.125000 I0.222941 J0.458183
G03 X100.594798 Y142.146794 Z-0.125000 I0.101612 J0.908448
G03 X100.963161 Y142.260080 Z-0.125000 I-0.168726 J1.204158
G03 X101.167185 Y142.427820 Z-0.125000 I-0.255223 J0.518379
G03 X101.279867 Y142.672512 Z-0.125000 I-0.495351 J0.376404
G03 X101.339185 Y143.221688 Z-0.125000 I-2.557781 J0.554064
G01 X101.341443 Y144.968483 Z-0.125000
G00 Z5.000000

(End cutting path id: path33301)


(Start cutting path id: path33299)
(Change tool to Default tool)

G00 Z5.000000
G00 X121.742503 Y138.421393

G01 Z-0.125000 F100.0(Penetrate)
G01 X119.036872 Y144.341526 Z-0.125000 F400.000000
G03 X118.771611 Y145.109174 Z-0.125000 I-3.541891 J-0.794249
G03 X118.351010 Y145.691742 Z-0.125000 I-1.806435 J-0.861087
G03 X117.671341 Y146.259368 Z-0.125000 I-4.394235 J-4.570882
G03 X116.289134 Y147.226698 Z-0.125000 I-32.298929 J-44.680404
G01 X102.886601 Y156.594771 Z-0.125000
G02 X101.627812 Y157.993283 Z-0.125000 I6.406067 J7.031819
G02 X100.916794 Y159.425023 Z-0.125000 I3.744282 J2.751870
G02 X100.328532 Y161.964425 Z-0.125000 I20.645081 J6.120347
G02 X97.085664 Y181.305969 Z-0.125000 I10105.292709 J1704.229918
G03 X97.355499 Y183.170527 Z-0.125000 I-88.193087 J13.714906
G03 X97.344022 Y183.717532 Z-0.125000 I-1.765995 J0.236570
G02 X97.325741 Y184.196517 Z-0.125000 I1.732803 J0.305974
G02 X97.448221 Y185.186152 Z-0.125000 I20.127856 J-1.988678
G03 X102.044082 Y162.239580 Z-0.125000 I2902.606298 J569.415892
G03 X103.434722 Y159.420028 Z-0.125000 I6.068760 J1.240474
G03 X112.943193 Y151.715137 Z-0.125000 I26.541142 J23.034395
G02 X119.282386 Y146.580477 Z-0.125000 I-11.366545 J-20.513486
G02 X120.154637 Y144.922674 Z-0.125000 I-3.096853 J-2.687775
G02 X121.742503 Y138.421393 Z-0.125000 I-225.746139 J-58.580533
G01 X121.742503 Y138.421393 Z-0.125000
G00 Z5.000000

(End cutting path id: path33299)


(Start cutting path id: path33297)
(Change tool to Default tool)

G00 Z5.000000
G00 X121.742500 Y138.421390

G01 Z-0.125000 F100.0(Penetrate)
G01 X119.036869 Y144.341521 Z-0.125000 F400.000000
G03 X118.771608 Y145.109169 Z-0.125000 I-3.541902 J-0.794251
G03 X118.351007 Y145.691739 Z-0.125000 I-1.806452 J-0.861094
G03 X117.671338 Y146.259363 Z-0.125000 I-4.394286 J-4.570963
G03 X116.289131 Y147.226693 Z-0.125000 I-32.299581 J-44.681366
G01 X102.886598 Y156.594766 Z-0.125000
G02 X101.627809 Y157.993279 Z-0.125000 I6.406113 J7.031855
G02 X100.916791 Y159.425017 Z-0.125000 I3.744283 J2.751871
G02 X100.328530 Y161.964419 Z-0.125000 I20.645077 J6.120346
G02 X97.085661 Y181.305966 Z-0.125000 I10105.294728 J1704.230025
G03 X97.355496 Y183.170525 Z-0.125000 I-88.193823 J13.715021
G03 X97.344019 Y183.717527 Z-0.125000 I-1.765974 J0.236567
G02 X97.325739 Y184.196514 Z-0.125000 I1.732824 J0.305975
G02 X97.448218 Y185.186149 Z-0.125000 I20.127736 J-1.988661
G03 X102.044082 Y162.239575 Z-0.125000 I2902.617490 J569.418424
G03 X103.434719 Y159.420025 Z-0.125000 I6.068770 J1.240476
G03 X112.943192 Y151.715127 Z-0.125000 I26.541073 J23.034290
G02 X119.282383 Y146.580471 Z-0.125000 I-11.366517 J-20.513457
G02 X120.154634 Y144.922669 Z-0.125000 I-3.096853 J-2.687775
G02 X121.742500 Y138.421390 Z-0.125000 I-225.745950 J-58.580507
G00 Z5.000000

(End cutting path id: path33297)


(Start cutting path id: path33295)
(Change tool to Default tool)

G00 Z5.000000
G00 X96.361259 Y136.837223

G01 Z-0.125000 F100.0(Penetrate)
G01 X120.778296 Y141.962774 Z-0.125000 F400.000000
G01 X121.736079 Y139.551213 Z-0.125000
G01 X110.660200 Y136.430660 Z-0.125000
G01 X111.100552 Y132.841493 Z-0.125000
G01 X110.557426 Y132.532646 Z-0.125000
G01 X109.679577 Y136.066181 Z-0.125000
G01 X97.289067 Y132.778724 Z-0.125000
G03 X97.131227 Y134.028417 Z-0.125000 I-57.169358 J-6.585858
G03 X96.997879 Y134.795848 Z-0.125000 I-10.883483 J-1.495805
G03 X96.794041 Y135.561642 Z-0.125000 I-7.400522 J-1.559836
G03 X96.361259 Y136.837223 Z-0.125000 I-44.095340 J-14.249547
G01 X96.361259 Y136.837223 Z-0.125000
G00 Z5.000000

(End cutting path id: path33295)


(Start cutting path id: path33293)
(Change tool to Default tool)

G00 Z5.000000
G00 X96.361256 Y136.837220

G01 Z-0.125000 F100.0(Penetrate)
G01 X120.778293 Y141.962768 Z-0.125000 F400.000000
G01 X121.736076 Y139.551208 Z-0.125000
G01 X110.660198 Y136.430657 Z-0.125000
G01 X111.100549 Y132.841487 Z-0.125000
G01 X110.557424 Y132.532643 Z-0.125000
G01 X109.679574 Y136.066175 Z-0.125000
G01 X97.289065 Y132.778721 Z-0.125000
G03 X97.131224 Y134.028414 Z-0.125000 I-57.169358 J-6.585858
G03 X96.997876 Y134.795845 Z-0.125000 I-10.883483 J-1.495805
G03 X96.794038 Y135.561637 Z-0.125000 I-7.400571 J-1.559854
G03 X96.361256 Y136.837220 Z-0.125000 I-44.096232 J-14.249831
G00 Z5.000000

(End cutting path id: path33293)


(Start cutting path id: path33291)
(Change tool to Default tool)

G00 Z5.000000
G00 X72.741426 Y129.486274

G01 Z-0.125000 F100.0(Penetrate)
G01 X67.317321 Y128.915660 Z-0.125000 F400.000000
G01 X67.318732 Y125.270142 Z-0.125000
G01 X66.276020 Y125.257301 Z-0.125000
G01 X66.422330 Y128.545472 Z-0.125000
G02 X65.911867 Y128.468753 Z-0.125000 I-0.623143 J2.409592
G02 X56.401296 Y128.040478 Z-0.125000 I-747.227087 J16487.630362
G01 X56.775988 Y130.877861 Z-0.125000
G01 X72.825627 Y133.125369 Z-0.125000
G01 X72.654341 Y130.707388 Z-0.125000
G01 X72.741412 Y129.486271 Z-0.125000
G01 X72.741426 Y129.486274 Z-0.125000
G00 Z5.000000

(End cutting path id: path33291)


(Start cutting path id: path33289)
(Change tool to Default tool)

G00 Z5.000000
G00 X72.741424 Y129.486271

G01 Z-0.125000 F100.0(Penetrate)
G01 X67.317318 Y128.915655 Z-0.125000 F400.000000
G01 X67.318730 Y125.270139 Z-0.125000
G01 X66.276014 Y125.257298 Z-0.125000
G01 X66.422324 Y128.545467 Z-0.125000
G02 X65.911867 Y128.468750 Z-0.125000 I-0.623141 J2.409657
G02 X56.401290 Y128.040472 Z-0.125000 I-747.276396 J16488.630428
G01 X56.775983 Y130.877855 Z-0.125000
G01 X72.825622 Y133.125366 Z-0.125000
G01 X72.654335 Y130.707385 Z-0.125000
G01 X72.741407 Y129.486268 Z-0.125000
G00 Z5.000000

(End cutting path id: path33289)


(Start cutting path id: path33287)
(Change tool to Default tool)

G00 Z5.000000
G00 X86.323097 Y120.191669

G01 Z-0.125000 F100.0(Penetrate)
G03 X86.674348 Y120.892977 Z-0.125000 I-2.894213 J1.888187 F400.000000
G03 X86.767019 Y121.549020 Z-0.125000 I-1.490626 J0.545128
G03 X86.666602 Y122.493577 Z-0.125000 I-13.643589 J-0.972848
G03 X86.196774 Y125.755881 Z-0.125000 I-682.453393 J-96.619913
G01 X86.727764 Y125.891401 Z-0.125000
G03 X86.636760 Y122.759223 Z-0.125000 I37.336411 J-2.652207
G03 X87.118157 Y121.610361 Z-0.125000 I1.662469 J0.021320
G03 X87.930645 Y121.027593 Z-0.125000 I2.137840 J2.122788
G03 X89.044428 Y120.606078 Z-0.125000 I2.799320 J5.714495
G03 X86.403313 Y120.389339 Z-0.125000 I44.720842 J-561.153702
G03 X86.323097 Y120.191669 Z-0.125000 I0.010064 J-0.119195
G01 X86.323097 Y120.191669 Z-0.125000
G00 Z5.000000

(End cutting path id: path33287)


(Start cutting path id: path33285)
(Change tool to Default tool)

G00 Z5.000000
G00 X86.323094 Y120.191663

G01 Z-0.125000 F100.0(Penetrate)
G03 X86.674345 Y120.892971 Z-0.125000 I-2.894213 J1.888187 F400.000000
G03 X86.767016 Y121.549014 Z-0.125000 I-1.490626 J0.545128
G03 X86.666599 Y122.493571 Z-0.125000 I-13.643589 J-0.972848
G03 X86.196772 Y125.755875 Z-0.125000 I-682.453393 J-96.619913
G01 X86.727761 Y125.891395 Z-0.125000
G03 X86.636757 Y122.759220 Z-0.125000 I37.336279 J-2.652200
G03 X87.118154 Y121.610355 Z-0.125000 I1.662477 J0.021320
G03 X87.930642 Y121.027587 Z-0.125000 I2.137840 J2.122788
G03 X89.044425 Y120.606073 Z-0.125000 I2.799320 J5.714495
G03 X86.403310 Y120.389333 Z-0.125000 I44.720842 J-561.153702
G03 X86.323094 Y120.191663 Z-0.125000 I0.010064 J-0.119195
G00 Z5.000000

(End cutting path id: path33285)


(Start cutting path id: path33283)
(Change tool to Default tool)

G00 Z5.000000
G00 X81.502067 Y134.245204

G01 Z-0.125000 F100.0(Penetrate)
G01 X76.239258 Y136.657482 Z-0.125000 F400.000000
G01 X76.174313 Y138.701707 Z-0.125000
G03 X76.660677 Y138.678242 Z-0.125000 I0.747928 J10.450155
G03 X83.975031 Y138.496286 Z-0.125000 I942.759146 J37750.374294
G01 X83.845138 Y139.112552 Z-0.125000
G01 X76.295640 Y139.351496 Z-0.125000
G01 X76.399128 Y142.716700 Z-0.125000
G01 X83.112884 Y147.148952 Z-0.125000
G01 X82.390621 Y147.981335 Z-0.125000
G01 X74.654137 Y142.975616 Z-0.125000
G01 X75.108049 Y135.913541 Z-0.125000
G01 X81.502067 Y134.245204 Z-0.125000
G01 X81.502067 Y134.245204 Z-0.125000
G00 Z5.000000

(End cutting path id: path33283)


(Start cutting path id: path33283)
(Change tool to Default tool)

G00 Z5.000000
G00 X84.432513 Y136.380732

G01 Z-0.125000 F100.0(Penetrate)
G02 X84.588329 Y139.886523 Z-0.125000 I98.136540 J-2.605348 F400.000000
G02 X84.849310 Y142.253073 Z-0.125000 I24.999109 J-1.559215
G02 X85.156403 Y144.136601 Z-0.125000 I246.121511 J-39.161206
G02 X85.452385 Y145.855081 Z-0.125000 I168.191484 J-28.083685
G02 X85.750228 Y146.776547 Z-0.125000 I5.315691 J-1.209311
G02 X86.161087 Y147.280193 Z-0.125000 I1.072298 J-0.455340
G02 X88.173124 Y147.648474 Z-0.125000 I2.008554 J-5.293032
G02 X90.690929 Y147.479908 Z-0.125000 I-0.011727 J-19.063130
G02 X92.288881 Y146.876735 Z-0.125000 I-1.321393 J-5.918962
G02 X93.783382 Y145.785180 Z-0.125000 I-3.472991 J-6.323915
G02 X95.169984 Y142.087774 Z-0.125000 I-3.108788 J-3.274564
G03 X95.187226 Y139.870757 Z-0.125000 I10.885642 J-1.023919
G02 X95.214343 Y138.338484 Z-0.125000 I-8.322988 J-0.913672
G02 X94.746875 Y132.438496 Z-0.125000 I-576.511932 J42.709758
G00 Z5.000000

(End cutting path id: path33283)


(Start cutting path id: path33281)
(Change tool to Default tool)

G00 Z5.000000
G00 X81.502064 Y134.245201

G01 Z-0.125000 F100.0(Penetrate)
G01 X76.239258 Y136.657476 Z-0.125000 F400.000000
G01 X76.174310 Y138.701705 Z-0.125000
G03 X76.660675 Y138.678239 Z-0.125000 I0.747928 J10.450155
G03 X83.975028 Y138.496284 Z-0.125000 I942.758386 J37750.374311
G01 X83.845135 Y139.112547 Z-0.125000
G01 X76.295640 Y139.351493 Z-0.125000
G01 X76.399125 Y142.716694 Z-0.125000
G01 X83.112881 Y147.148946 Z-0.125000
G01 X82.390618 Y147.981332 Z-0.125000
G01 X74.654134 Y142.975610 Z-0.125000
G01 X75.108046 Y135.913535 Z-0.125000
G01 X81.502064 Y134.245201 Z-0.125000
G00 Z5.000000

(End cutting path id: path33281)


(Start cutting path id: path33279)
(Change tool to Default tool)

G00 Z5.000000
G00 X84.593095 Y136.195995

G01 Z-0.125000 F100.0(Penetrate)
G02 X86.626446 Y135.447411 Z-0.125000 I-9.056784 J-27.736472 F400.000000
G02 X87.191667 Y134.883579 Z-0.125000 I-0.394973 J-0.961169
G02 X87.457423 Y134.110626 Z-0.125000 I-6.058677 J-2.515249
G02 X87.958894 Y132.225941 Z-0.125000 I-107.235061 J-29.541813
G01 X88.243659 Y130.122510 Z-0.125000
G02 X89.655003 Y131.027934 Z-0.125000 I2.401107 J-2.190073
G02 X91.606605 Y131.011956 Z-0.125000 I0.951503 J-2.975837
G02 X93.220016 Y129.943166 Z-0.125000 I-1.206618 J-3.573644
G02 X93.946106 Y128.502679 Z-0.125000 I-2.351096 J-2.088330
G01 X94.693348 Y128.016229 Z-0.125000
G01 X96.717395 Y128.393546 Z-0.125000
G01 X93.468642 Y134.004833 Z-0.125000
G01 X93.491474 Y136.780875 Z-0.125000
G03 X91.877325 Y137.756547 Z-0.125000 I-2.503907 J-2.319396
G03 X89.325620 Y138.030524 Z-0.125000 I-2.142460 J-7.934241
G03 X86.641429 Y137.461374 Z-0.125000 I0.431154 J-8.647466
G03 X84.593089 Y136.195995 Z-0.125000 I2.350949 J-6.096184
G01 X84.593095 Y136.195995 Z-0.125000
G00 Z5.000000

(End cutting path id: path33279)


(Start cutting path id: path33277)
(Change tool to Default tool)

G00 Z5.000000
G00 X84.593092 Y136.195992

G01 Z-0.125000 F100.0(Penetrate)
G02 X86.626445 Y135.447406 Z-0.125000 I-9.056906 J-27.736746 F400.000000
G02 X87.191664 Y134.883577 Z-0.125000 I-0.394973 J-0.961168
G02 X87.457420 Y134.110623 Z-0.125000 I-6.058663 J-2.515243
G02 X87.958891 Y132.225935 Z-0.125000 I-107.235148 J-29.541801
G01 X88.243656 Y130.122507 Z-0.125000
G02 X89.655000 Y131.027931 Z-0.125000 I2.401107 J-2.190077
G02 X91.606602 Y131.011953 Z-0.125000 I0.951504 J-2.975844
G02 X93.220013 Y129.943161 Z-0.125000 I-1.206626 J-3.573650
G02 X93.946103 Y128.502673 Z-0.125000 I-2.351100 J-2.088332
G01 X94.693345 Y128.016224 Z-0.125000
G01 X96.717392 Y128.393544 Z-0.125000
G01 X93.468639 Y134.004830 Z-0.125000
G01 X93.491471 Y136.780872 Z-0.125000
G03 X91.877322 Y137.756543 Z-0.125000 I-2.503904 J-2.319399
G03 X89.325617 Y138.030518 Z-0.125000 I-2.142459 J-7.934261
G03 X86.641426 Y137.461370 Z-0.125000 I0.431145 J-8.647453
G03 X84.593086 Y136.195992 Z-0.125000 I2.350943 J-6.096176
G00 Z5.000000

(End cutting path id: path33277)


(Start cutting path id: path33275)
(Change tool to Default tool)

G00 Z5.000000
G00 X78.154110 Y128.668157

G01 Z-0.125000 F100.0(Penetrate)
G01 X78.035636 Y131.887853 Z-0.125000 F400.000000
G01 X80.083237 Y133.825802 Z-0.125000
G01 X74.534949 Y135.173168 Z-0.125000
G01 X73.922594 Y137.560480 Z-0.125000
G01 X73.171070 Y135.530515 Z-0.125000
G01 X73.093278 Y130.762314 Z-0.125000
G01 X74.235909 Y128.511950 Z-0.125000
G01 X78.154110 Y128.668157 Z-0.125000
G01 X78.154110 Y128.668157 Z-0.125000
G00 Z5.000000

(End cutting path id: path33275)


(Start cutting path id: path33273)
(Change tool to Default tool)

G00 Z5.000000
G00 X78.154107 Y128.668151

G01 Z-0.125000 F100.0(Penetrate)
G01 X78.035633 Y131.887847 Z-0.125000 F400.000000
G01 X80.083234 Y133.825799 Z-0.125000
G01 X74.534946 Y135.173162 Z-0.125000
G01 X73.922594 Y137.560474 Z-0.125000
G01 X73.171070 Y135.530512 Z-0.125000
G01 X73.093276 Y130.762308 Z-0.125000
G01 X74.235906 Y128.511944 Z-0.125000
G01 X78.154107 Y128.668151 Z-0.125000
G00 Z5.000000

(End cutting path id: path33273)


(Start cutting path id: path33271)
(Change tool to Default tool)

G00 Z5.000000
G00 X87.121013 Y128.292262

G01 Z-0.125000 F100.0(Penetrate)
G02 X86.172246 Y126.722903 Z-0.125000 I-2.007828 J0.142375 F400.000000
G02 X83.533965 Y126.072571 Z-0.125000 I-2.325991 J3.759443
G02 X81.013523 Y127.088633 Z-0.125000 I0.312061 J4.408232
G02 X80.295917 Y128.775859 Z-0.125000 I1.289987 J1.544872
G02 X81.244398 Y130.344951 Z-0.125000 I2.007643 J-0.142361
G02 X83.882964 Y130.995553 Z-0.125000 I2.326399 J-3.759128
G02 X86.403150 Y129.979761 Z-0.125000 I-0.312221 J-4.408815
G02 X87.121013 Y128.292262 Z-0.125000 I-1.289840 J-1.545137
G01 X87.121013 Y128.292262 Z-0.125000
G00 Z5.000000

(End cutting path id: path33271)


(Start cutting path id: path33269)
(Change tool to Default tool)

G00 Z5.000000
G00 X87.121010 Y128.292260

G01 Z-0.125000 F100.0(Penetrate)
G02 X86.172242 Y126.722898 Z-0.125000 I-2.007831 J0.142375 F400.000000
G02 X83.533963 Y126.072565 Z-0.125000 I-2.325990 J3.759439
G02 X81.013523 Y127.088627 Z-0.125000 I0.312069 J4.408243
G02 X80.295917 Y128.775856 Z-0.125000 I1.289984 J1.544871
G02 X81.244394 Y130.344945 Z-0.125000 I2.007634 J-0.142357
G02 X83.882961 Y130.995548 Z-0.125000 I2.326399 J-3.759130
G02 X86.403149 Y129.979755 Z-0.125000 I-0.312221 J-4.408819
G02 X87.121010 Y128.292260 Z-0.125000 I-1.289837 J-1.545134
G00 Z5.000000

(End cutting path id: path33269)


(Start cutting path id: path33267)
(Change tool to Default tool)

G00 Z5.000000
G00 X80.381563 Y129.464876

G01 Z-0.125000 F100.0(Penetrate)
G02 X80.824061 Y131.392883 Z-0.125000 I27.580776 J-5.315299 F400.000000
G02 X81.312225 Y132.783716 Z-0.125000 I9.289497 J-2.479401
G02 X82.077955 Y133.950333 Z-0.125000 I3.836357 J-1.683455
G02 X83.390512 Y135.153198 Z-0.125000 I8.082209 J-7.501687
G02 X83.832779 Y135.122299 Z-0.125000 I-15.043764 J-218.510745
G02 X84.513161 Y135.074023 Z-0.125000 I-328.854101 J-4639.512014
G02 X85.299998 Y134.901147 Z-0.125000 I-0.196790 J-2.772745
G02 X85.864904 Y134.544066 Z-0.125000 I-0.589354 J-1.557750
G02 X86.472208 Y133.487636 Z-0.125000 I-8.233646 J-5.436004
G02 X86.927600 Y132.385712 Z-0.125000 I-7.856710 J-3.892007
G02 X87.163372 Y131.002700 Z-0.125000 I-4.305279 J-1.445554
G02 X87.096033 Y128.641766 Z-0.125000 I-27.933315 J-0.384711
G00 Z5.000000

(End cutting path id: path33267)


(Start cutting path id: path33265)
(Change tool to Default tool)

G00 Z5.000000
G00 X80.381560 Y129.464873

G01 Z-0.125000 F100.0(Penetrate)
G02 X80.824058 Y131.392880 Z-0.125000 I27.580776 J-5.315299 F400.000000
G02 X81.312222 Y132.783713 Z-0.125000 I9.289497 J-2.479401
G02 X82.077952 Y133.950329 Z-0.125000 I3.836349 J-1.683451
G02 X83.390509 Y135.153192 Z-0.125000 I8.082173 J-7.501662
G02 X83.832776 Y135.122294 Z-0.125000 I-15.066336 J-218.838530
G02 X84.513158 Y135.074020 Z-0.125000 I-329.331373 J-4646.467457
G02 X85.299996 Y134.901143 Z-0.125000 I-0.196789 J-2.772734
G02 X85.864901 Y134.544060 Z-0.125000 I-0.589350 J-1.557731
G02 X86.472205 Y133.487631 Z-0.125000 I-8.233681 J-5.436027
G02 X86.927597 Y132.385710 Z-0.125000 I-7.856705 J-3.892010
G02 X87.163369 Y131.002695 Z-0.125000 I-4.305300 J-1.445557
G02 X87.096030 Y128.641761 Z-0.125000 I-27.933294 J-0.384713
G00 Z5.000000

(End cutting path id: path33265)


(Start cutting path id: path33263)
(Change tool to Default tool)

G00 Z5.000000
G00 X94.492084 Y123.257299

G01 Z-0.125000 F100.0(Penetrate)
G02 X93.509399 Y121.634418 Z-0.125000 I-2.074968 J0.147474 F400.000000
G02 X90.768724 Y120.960572 Z-0.125000 I-2.415920 J3.915686
G02 X88.151618 Y122.013479 Z-0.125000 I0.324621 J4.585870
G02 X87.407206 Y123.759440 Z-0.125000 I1.331846 J1.599524
G02 X88.390264 Y125.382673 Z-0.125000 I2.075075 J-0.147407
G02 X91.130566 Y126.056165 Z-0.125000 I2.415507 J-3.916599
G02 X93.748028 Y125.003322 Z-0.125000 I-0.324717 J-4.587319
G02 X94.492084 Y123.257299 Z-0.125000 I-1.330741 J-1.598636
G01 X94.492084 Y123.257299 Z-0.125000
G00 Z5.000000

(End cutting path id: path33263)


(Start cutting path id: path33261)
(Change tool to Default tool)

G00 Z5.000000
G00 X94.492081 Y123.257294

G01 Z-0.125000 F100.0(Penetrate)
G02 X93.509397 Y121.634413 Z-0.125000 I-2.074967 J0.147474 F400.000000
G02 X90.768721 Y120.960569 Z-0.125000 I-2.415914 J3.915678
G02 X88.151614 Y122.013476 Z-0.125000 I0.324614 J4.585859
G02 X87.407203 Y123.759435 Z-0.125000 I1.331846 J1.599522
G02 X88.390262 Y125.382670 Z-0.125000 I2.075079 J-0.147407
G02 X91.130564 Y126.056162 Z-0.125000 I2.415506 J-3.916595
G02 X93.748023 Y125.003319 Z-0.125000 I-0.324724 J-4.587330
G02 X94.492081 Y123.257294 Z-0.125000 I-1.330741 J-1.598638
G00 Z5.000000

(End cutting path id: path33261)


(Start cutting path id: path33259)
(Change tool to Default tool)

G00 Z5.000000
G00 X86.038332 Y121.600376

G01 Z-0.125000 F100.0(Penetrate)
G02 X85.079270 Y119.949335 Z-0.125000 I-2.165497 J0.153830 F400.000000
G02 X82.574757 Y119.285103 Z-0.125000 I-2.221934 J3.324092
G02 X80.188724 Y120.295729 Z-0.125000 I0.282646 J3.989273
G02 X79.472311 Y122.065427 Z-0.125000 I1.447797 J1.615959
G02 X80.431063 Y123.715752 Z-0.125000 I2.164560 J-0.153841
G02 X82.935886 Y124.379985 Z-0.125000 I2.222187 J-3.324902
G02 X85.322474 Y123.369031 Z-0.125000 I-0.282554 J-3.989557
G02 X86.038332 Y121.600376 Z-0.125000 I-1.447144 J-1.614925
G01 X86.038332 Y121.600376 Z-0.125000
G00 Z5.000000

(End cutting path id: path33259)


(Start cutting path id: path33257)
(Change tool to Default tool)

G00 Z5.000000
G00 X86.038329 Y121.600370

G01 Z-0.125000 F100.0(Penetrate)
G02 X85.079269 Y119.949333 Z-0.125000 I-2.165494 J0.153830 F400.000000
G02 X82.574754 Y119.285101 Z-0.125000 I-2.221935 J3.324096
G02 X80.188720 Y120.295726 Z-0.125000 I0.282646 J3.989276
G02 X79.472308 Y122.065421 Z-0.125000 I1.447794 J1.615956
G02 X80.431060 Y123.715745 Z-0.125000 I2.164559 J-0.153841
G02 X82.935886 Y124.379979 Z-0.125000 I2.222190 J-3.324908
G02 X85.322471 Y123.369026 Z-0.125000 I-0.282555 J-3.989552
G02 X86.038329 Y121.600370 Z-0.125000 I-1.447145 J-1.614926
G00 Z5.000000

(End cutting path id: path33257)


(Start cutting path id: path33255)
(Change tool to Default tool)

G00 Z5.000000
G00 X79.749938 Y122.519065

G01 Z-0.125000 F100.0(Penetrate)
G02 X79.961558 Y124.343270 Z-0.125000 I26.695068 J-2.172421 F400.000000
G02 X80.265942 Y125.674567 Z-0.125000 I9.011566 J-1.359938
G02 X80.842199 Y126.826828 Z-0.125000 I3.764150 J-1.162261
G02 X81.903881 Y128.064732 Z-0.125000 I8.162224 J-5.926064
G03 X82.304333 Y128.078519 Z-0.125000 I-6.596907 J197.430106
G03 X82.920186 Y128.100394 Z-0.125000 I-147.420335 J4159.201758
G02 X83.643986 Y128.016311 Z-0.125000 I0.084302 J-2.431669
G02 X84.184857 Y127.741619 Z-0.125000 I-0.393563 J-1.444765
G02 X84.831291 Y126.825088 Z-0.125000 I-7.150089 J-5.729224
G02 X85.346044 Y125.851458 Z-0.125000 I-7.030936 J-4.340107
G02 X85.690992 Y124.598318 Z-0.125000 I-3.933412 J-1.756785
G02 X85.857766 Y122.409936 Z-0.125000 I-26.512539 J-3.121039
G00 Z5.000000

(End cutting path id: path33255)


(Start cutting path id: path33253)
(Change tool to Default tool)

G00 Z5.000000
G00 X79.749936 Y122.519060

G01 Z-0.125000 F100.0(Penetrate)
G02 X79.961555 Y124.343265 Z-0.125000 I26.695068 J-2.172421 F400.000000
G02 X80.265939 Y125.674561 Z-0.125000 I9.011566 J-1.359938
G02 X80.842197 Y126.826823 Z-0.125000 I3.764150 J-1.162261
G02 X81.903878 Y128.064726 Z-0.125000 I8.162224 J-5.926064
G03 X82.304331 Y128.078514 Z-0.125000 I-6.586002 J197.103483
G03 X82.920183 Y128.100391 Z-0.125000 I-147.187893 J4152.323148
G02 X83.643983 Y128.016309 Z-0.125000 I0.084302 J-2.431674
G02 X84.184857 Y127.741616 Z-0.125000 I-0.393566 J-1.444778
G02 X84.831289 Y126.825085 Z-0.125000 I-7.150161 J-5.729259
G02 X85.346044 Y125.851452 Z-0.125000 I-7.031070 J-4.340181
G02 X85.690990 Y124.598313 Z-0.125000 I-3.933438 J-1.756785
G02 X85.857763 Y122.409930 Z-0.125000 I-26.512742 J-3.121046
G00 Z5.000000

(End cutting path id: path33253)


(Start cutting path id: path33251)
(Change tool to Default tool)

G00 Z5.000000
G00 X87.400068 Y123.910652

G01 Z-0.125000 F100.0(Penetrate)
G02 X87.636535 Y125.874359 Z-0.125000 I27.949568 J-2.369553 F400.000000
G02 X87.975308 Y127.308664 Z-0.125000 I9.484466 J-1.483005
G02 X88.613910 Y128.549429 Z-0.125000 I4.000665 J-1.274359
G02 X89.791670 Y129.884281 Z-0.125000 I8.843312 J-6.615585
G03 X90.235073 Y129.899397 Z-0.125000 I-6.221761 J189.014588
G03 X90.917173 Y129.923510 Z-0.125000 I-141.308594 J4006.884163
G02 X91.717756 Y129.834498 Z-0.125000 I0.096189 J-2.779637
G02 X92.317446 Y129.539058 Z-0.125000 I-0.422557 J-1.614068
G02 X93.032450 Y128.552607 Z-0.125000 I-7.617736 J-6.273868
G02 X93.601391 Y127.504814 Z-0.125000 I-7.410150 J-4.702002
G02 X93.981770 Y126.154819 Z-0.125000 I-4.123984 J-1.890573
G02 X94.163784 Y123.800097 Z-0.125000 I-27.728174 J-3.327711
G00 Z5.000000

(End cutting path id: path33251)


(Start cutting path id: path33249)
(Change tool to Default tool)

G00 Z5.000000
G00 X87.400066 Y123.910650

G01 Z-0.125000 F100.0(Penetrate)
G02 X87.636532 Y125.874357 Z-0.125000 I27.949568 J-2.369553 F400.000000
G02 X87.975305 Y127.308662 Z-0.125000 I9.484466 J-1.483005
G02 X88.613907 Y128.549425 Z-0.125000 I4.000658 J-1.274356
G02 X89.791668 Y129.884275 Z-0.125000 I8.843274 J-6.615564
G03 X90.235070 Y129.899391 Z-0.125000 I-6.221767 J189.014588
G03 X90.917170 Y129.923504 Z-0.125000 I-141.306942 J4006.884217
G02 X91.717753 Y129.834492 Z-0.125000 I0.096189 J-2.779637
G02 X92.317444 Y129.539052 Z-0.125000 I-0.422557 J-1.614068
G02 X93.032448 Y128.552603 Z-0.125000 I-7.617519 J-6.273730
G02 X93.601388 Y127.504809 Z-0.125000 I-7.409980 J-4.701894
G02 X93.981767 Y126.154814 Z-0.125000 I-4.123984 J-1.890573
G02 X94.163781 Y123.800092 Z-0.125000 I-27.728174 J-3.327711
G00 Z5.000000

(End cutting path id: path33249)


(Start cutting path id: path33247)
(Change tool to Default tool)

G00 Z5.000000
G00 X83.850133 Y193.204720

G01 Z-0.125000 F100.0(Penetrate)
G01 X85.249696 Y193.347375 Z-0.125000 F400.000000
G01 X85.169762 Y192.224689 Z-0.125000
G01 X83.770914 Y192.082034 Z-0.125000
G01 X83.850133 Y193.204720 Z-0.125000
G01 X83.850133 Y193.204720 Z-0.125000
G00 Z5.000000

(End cutting path id: path33247)


(Start cutting path id: path33245)
(Change tool to Default tool)

G00 Z5.000000
G00 X83.850131 Y193.204717

G01 Z-0.125000 F100.0(Penetrate)
G01 X85.249693 Y193.347369 Z-0.125000 F400.000000
G01 X85.169759 Y192.224684 Z-0.125000
G01 X83.770911 Y192.082032 Z-0.125000
G00 Z5.000000

(End cutting path id: path33245)


(Start cutting path id: path33243)
(Change tool to Default tool)

G00 Z5.000000
G00 X86.207479 Y193.385176

G01 Z-0.125000 F100.0(Penetrate)
G01 X87.607042 Y193.527831 Z-0.125000 F400.000000
G01 X87.527105 Y192.405145 Z-0.125000
G01 X86.127545 Y192.262493 Z-0.125000
G01 X86.207479 Y193.385176 Z-0.125000
G01 X86.207479 Y193.385176 Z-0.125000
G00 Z5.000000

(End cutting path id: path33243)


(Start cutting path id: path33241)
(Change tool to Default tool)

G00 Z5.000000
G00 X86.207476 Y193.385173

G01 Z-0.125000 F100.0(Penetrate)
G01 X87.607039 Y193.527828 Z-0.125000 F400.000000
G01 X87.527102 Y192.405142 Z-0.125000
G01 X86.127543 Y192.262487 Z-0.125000
G00 Z5.000000

(End cutting path id: path33241)


(Start cutting path id: path33239)
(Change tool to Default tool)

G00 Z5.000000
G00 X84.705145 Y196.502876

G01 Z-0.125000 F100.0(Penetrate)
G02 X86.405009 Y197.461008 Z-0.125000 I2.912780 J-3.180726 F400.000000
G02 X88.598367 Y197.528557 Z-0.125000 I1.226624 J-4.185632
G02 X90.440315 Y196.990546 Z-0.125000 I-3.484305 J-15.351033
G02 X91.548794 Y196.278196 Z-0.125000 I-0.994758 J-2.766554
G01 X92.135455 Y195.975770 Z-0.125000
G02 X92.336167 Y194.857327 Z-0.125000 I-14.747151 J-3.223704
G02 X92.036963 Y194.594168 Z-0.125000 I-0.236086 J-0.033250
G02 X90.609166 Y195.011495 Z-0.125000 I12.327881 J44.828360
G02 X89.962957 Y195.956511 Z-0.125000 I0.272502 J0.879788
G03 X89.711888 Y196.438260 Z-0.125000 I-0.517153 J0.036778
G03 X87.697680 Y197.072065 Z-0.125000 I-2.336129 J-3.906687
G03 X84.908183 Y196.627083 Z-0.125000 I-0.440082 J-6.207088
G03 X84.705145 Y196.502876 Z-0.125000 I0.278833 J-0.683859
G01 X84.705145 Y196.502876 Z-0.125000
G00 Z5.000000

(End cutting path id: path33239)


(Start cutting path id: path33237)
(Change tool to Default tool)

G00 Z5.000000
G00 X84.705143 Y196.502871

G01 Z-0.125000 F100.0(Penetrate)
G02 X86.405006 Y197.461002 Z-0.125000 I2.912780 J-3.180726 F400.000000
G02 X88.598364 Y197.528551 Z-0.125000 I1.226624 J-4.185632
G02 X90.440312 Y196.990540 Z-0.125000 I-3.484305 J-15.351033
G02 X91.548792 Y196.278191 Z-0.125000 I-0.994758 J-2.766554
G01 X92.135453 Y195.975767 Z-0.125000
G02 X92.336166 Y194.857321 Z-0.125000 I-14.747544 J-3.223783
G02 X92.036963 Y194.594165 Z-0.125000 I-0.236083 J-0.033250
G02 X90.609161 Y195.011494 Z-0.125000 I12.326559 J44.823851
G02 X89.962954 Y195.956508 Z-0.125000 I0.272503 J0.879787
G03 X89.711887 Y196.438253 Z-0.125000 I-0.517149 J0.036778
G03 X87.697677 Y197.072059 Z-0.125000 I-2.336131 J-3.906688
G03 X84.908180 Y196.627077 Z-0.125000 I-0.440082 J-6.207088
G03 X84.705143 Y196.502871 Z-0.125000 I0.278833 J-0.683859
G00 Z5.000000

(End cutting path id: path33237)


(Start cutting path id: path33235)
(Change tool to Default tool)

G00 Z5.000000
G00 X88.472042 Y203.091340

G01 Z-0.125000 F100.0(Penetrate)
G02 X89.259936 Y203.187207 Z-0.125000 I2.182403 J-14.650741 F400.000000
G02 X90.045747 Y203.239699 Z-0.125000 I1.344161 J-14.214200
G02 X90.970010 Y203.220561 Z-0.125000 I0.304773 J-7.609529
G02 X92.291753 Y203.080641 Z-0.125000 I-2.249555 J-27.562972
G03 X91.723522 Y204.092976 Z-0.125000 I-2.324248 J-0.638973
G03 X90.576025 Y204.592057 Z-0.125000 I-1.154444 J-1.085606
G03 X88.607853 Y203.121174 Z-0.125000 I-0.007831 J-2.041758
G02 X88.472042 Y203.091340 Z-0.125000 I-0.076048 J0.022146
G01 X88.472042 Y203.091340 Z-0.125000
G00 Z5.000000

(End cutting path id: path33235)


(Start cutting path id: path33235)
(Change tool to Default tool)

G00 Z5.000000
G00 X86.449423 Y200.283915

G01 Z-0.125000 F100.0(Penetrate)
G02 X88.600313 Y200.793862 Z-0.125000 I3.082396 J-8.210072 F400.000000
G02 X90.911463 Y200.749677 Z-0.125000 I0.980515 J-9.178811
G02 X92.847722 Y200.397314 Z-0.125000 I-4.018406 J-27.577515
G02 X94.151651 Y199.911587 Z-0.125000 I-1.055879 J-4.827555
G00 Z5.000000

(End cutting path id: path33235)


(Start cutting path id: path33233)
(Change tool to Default tool)

G00 Z5.000000
G00 X88.472039 Y203.091334

G01 Z-0.125000 F100.0(Penetrate)
G02 X89.259933 Y203.187202 Z-0.125000 I2.182475 J-14.651225 F400.000000
G02 X90.045744 Y203.239696 Z-0.125000 I1.344231 J-14.214671
G02 X90.970007 Y203.220557 Z-0.125000 I0.304755 J-7.609777
G02 X92.291750 Y203.080638 Z-0.125000 I-2.249618 J-27.563856
G03 X91.723520 Y204.092973 Z-0.125000 I-2.324248 J-0.638973
G03 X90.576022 Y204.592054 Z-0.125000 I-1.154444 J-1.085606
G03 X88.607850 Y203.121169 Z-0.125000 I-0.007831 J-2.041757
G02 X88.472039 Y203.091334 Z-0.125000 I-0.076048 J0.022146
G00 Z5.000000

(End cutting path id: path33233)


(Start cutting path id: path33231)
(Change tool to Default tool)

G00 Z5.000000
G00 X92.996174 Y201.989338

G01 Z-0.125000 F100.0(Penetrate)
G03 X91.763637 Y202.295039 Z-0.125000 I-1.821416 J-4.706112 F400.000000
G03 X90.243440 Y202.358098 Z-0.125000 I-1.176888 J-10.016226
G03 X88.716780 Y202.229409 Z-0.125000 I0.521624 J-15.307921
G03 X87.436467 Y201.949395 Z-0.125000 I1.080553 J-8.007656
G02 X89.116792 Y204.009223 Z-0.125000 I12.124689 J-8.175553
G02 X90.569602 Y204.505750 Z-0.125000 I1.219806 J-1.195398
G02 X92.951236 Y201.989067 Z-0.125000 I-0.379454 J-2.744350
G01 X92.996174 Y201.989338 Z-0.125000
G01 X92.996174 Y201.989338 Z-0.125000
G00 Z5.000000

(End cutting path id: path33231)


(Start cutting path id: path33229)
(Change tool to Default tool)

G00 Z5.000000
G00 X92.996171 Y201.989336

G01 Z-0.125000 F100.0(Penetrate)
G03 X91.763634 Y202.295036 Z-0.125000 I-1.821416 J-4.706112 F400.000000
G03 X90.243438 Y202.358096 Z-0.125000 I-1.176888 J-10.016226
G03 X88.716777 Y202.229406 Z-0.125000 I0.521624 J-15.307921
G03 X87.436464 Y201.949393 Z-0.125000 I1.080553 J-8.007656
G02 X89.116789 Y204.009220 Z-0.125000 I12.124689 J-8.175553
G02 X90.569599 Y204.505747 Z-0.125000 I1.219806 J-1.195398
G02 X92.951234 Y201.989064 Z-0.125000 I-0.379454 J-2.744350
G01 X92.996171 Y201.989336 Z-0.125000
G00 Z5.000000

(End cutting path id: path33229)


(Start cutting path id: path33227)
(Change tool to Default tool)

G00 Z5.000000
G00 X79.787765 Y188.389442

G01 Z-0.125000 F100.0(Penetrate)
G02 X82.550194 Y190.749816 Z-0.125000 I14.046465 J-13.642402 F400.000000
G02 X84.870722 Y191.501436 Z-0.125000 I2.371192 J-3.362774
G03 X88.347460 Y191.685821 Z-0.125000 I-0.527000 J42.807592
G02 X92.140451 Y191.159777 Z-0.125000 I0.780540 J-8.309519
G02 X93.996632 Y190.252351 Z-0.125000 I-4.363395 J-11.277690
G02 X95.127990 Y189.211840 Z-0.125000 I-1.957289 J-3.263503
G00 Z5.000000

(End cutting path id: path33227)


(Start cutting path id: path33227)
(Change tool to Default tool)

G00 Z5.000000
G00 X85.456669 Y191.297440

G01 Z-0.125000 F100.0(Penetrate)
G01 X83.978601 Y149.560512 Z-0.125000 F400.000000
G00 Z5.000000

(End cutting path id: path33227)


(Start cutting path id: path33227)
(Change tool to Default tool)

G00 Z5.000000
G00 X95.128704 Y189.211840

G01 Z-0.125000 F100.0(Penetrate)
G01 X93.051128 Y147.702449 Z-0.125000 F400.000000
G00 Z5.000000

(End cutting path id: path33227)


(Start cutting path id: path33227)
(Change tool to Default tool)

G00 Z5.000000
G00 X79.015545 Y177.509239

G01 Z-0.125000 F100.0(Penetrate)
G02 X81.199711 Y179.682449 Z-0.125000 I5.190465 J-3.032438 F400.000000
G02 X84.802207 Y180.744626 Z-0.125000 I4.000051 J-6.926408
G02 X92.152659 Y180.082563 Z-0.125000 I1.320149 J-26.477928
G02 X94.356482 Y178.331637 Z-0.125000 I-0.748553 J-3.204571
G00 Z5.000000

(End cutting path id: path33227)


(Start cutting path id: path33227)
(Change tool to Default tool)

G00 Z5.000000
G00 X78.761466 Y166.592660

G01 Z-0.125000 F100.0(Penetrate)
G02 X80.946189 Y168.765927 Z-0.125000 I5.191869 J-3.034484 F400.000000
G02 X84.548845 Y169.828047 Z-0.125000 I4.000269 J-6.927632
G02 X91.898751 Y169.165910 Z-0.125000 I1.319896 J-26.472854
G02 X94.102406 Y167.415059 Z-0.125000 I-0.748639 J-3.204458
G00 Z5.000000

(End cutting path id: path33227)


(Start cutting path id: path33227)
(Change tool to Default tool)

G00 Z5.000000
G00 X77.963553 Y155.296623

G01 Z-0.125000 F100.0(Penetrate)
G02 X80.148129 Y157.471431 Z-0.125000 I5.196528 J-3.035268 F400.000000
G02 X83.750929 Y158.536288 Z-0.125000 I4.007842 J-6.932768
G02 X91.102698 Y157.880923 Z-0.125000 I1.345708 J-26.467165
G02 X93.305204 Y156.132573 Z-0.125000 I-0.744436 J-3.199305
G00 Z5.000000

(End cutting path id: path33227)


(Start cutting path id: path33227)
(Change tool to Default tool)

G00 Z5.000000
G00 X77.635967 Y145.774481

G01 Z-0.125000 F100.0(Penetrate)
G02 X79.837894 Y148.053447 Z-0.125000 I5.595244 J-3.202872 F400.000000
G02 X83.440471 Y149.266646 Z-0.125000 I4.398431 J-7.105580
G02 X90.843029 Y148.938056 Z-0.125000 I2.532226 J-26.501069
G02 X93.026863 Y147.303017 Z-0.125000 I-0.563599 J-3.028703
G00 Z5.000000

(End cutting path id: path33227)


(Start cutting path id: path33227)
(Change tool to Default tool)

G00 Z5.000000
G00 X96.635319 Y188.410840

G01 Z-0.125000 F100.0(Penetrate)
G02 X97.157325 Y184.437431 Z-0.125000 I-57.899951 J-9.627588 F400.000000
G02 X97.193431 Y181.601977 Z-0.125000 I-16.870770 J-1.632783
G03 X96.258970 Y167.186421 Z-0.125000 I1199.084301 J-84.966398
G03 X95.838121 Y152.712449 Z-0.125000 I243.751184 J-14.330485
G02 X95.585480 Y144.927911 Z-0.125000 I-117.947151 J-0.068489
G03 X95.831686 Y140.390017 Z-0.125000 I18.992735 J-1.245163
G02 X96.080897 Y138.443597 Z-0.125000 I-20.593216 J-3.625826
G03 X96.574644 Y136.171743 Z-0.125000 I8.698553 J0.700897
G02 X97.101461 Y133.822403 Z-0.125000 I-8.935180 J-3.237364
G02 X97.553837 Y127.944900 Z-0.125000 I-175.084232 J-16.431932
G00 Z5.000000

(End cutting path id: path33227)


(Start cutting path id: path33225)
(Change tool to Default tool)

G00 Z5.000000
G00 X85.165481 Y146.091174

G01 Z-0.125000 F100.0(Penetrate)
G01 X83.761637 Y148.735975 Z-0.125000 F400.000000
G01 X74.466433 Y142.771620 Z-0.125000
G01 X74.642715 Y135.469174 Z-0.125000
G02 X75.536349 Y135.324499 Z-0.125000 I-0.363424 J-5.077072
G02 X81.641239 Y133.758043 Z-0.125000 I-478.506109 J-1877.543964
G00 Z5.000000

(End cutting path id: path33225)


(Start cutting path id: path33223)
(Change tool to Default tool)

G00 Z5.000000
G00 X85.165478 Y146.091169

G01 Z-0.125000 F100.0(Penetrate)
G01 X83.761634 Y148.735969 Z-0.125000 F400.000000
G01 X74.466431 Y142.771617 Z-0.125000
G01 X74.642715 Y135.469171 Z-0.125000
G02 X75.536345 Y135.324496 Z-0.125000 I-0.363424 J-5.077046
G02 X81.641236 Y133.758038 Z-0.125000 I-478.511655 J-1877.562278
G00 Z5.000000

(End cutting path id: path33223)


(Start cutting path id: path33221)
(Change tool to Default tool)

G00 Z5.000000
G00 X74.245899 Y139.663907

G01 Z-0.125000 F100.0(Penetrate)
G03 X73.502405 Y136.923089 Z-0.125000 I54.868637 J-16.355320 F400.000000
G03 X73.236018 Y135.222384 Z-0.125000 I9.880139 J-2.418774
G03 X73.147756 Y133.983626 Z-0.125000 I16949.552500 J-1206.907665
G03 X73.076150 Y132.977013 Z-0.125000 I6513.231686 J-464.077776
G01 X72.916994 Y130.731642 Z-0.125000
G01 X73.769864 Y128.067583 Z-0.125000
G01 X77.953560 Y128.291551 Z-0.125000
G01 X79.609341 Y124.703096 Z-0.125000
G00 Z5.000000

(End cutting path id: path33221)


(Start cutting path id: path33219)
(Change tool to Default tool)

G00 Z5.000000
G00 X70.005107 Y108.178795

G01 Z-0.125000 F100.0(Penetrate)
G02 X72.345199 Y109.228853 Z-0.125000 I4.123638 J-6.057160 F400.000000
G02 X75.167284 Y109.455546 Z-0.125000 I2.088756 J-8.323445
G02 X78.344661 Y108.923010 Z-0.125000 I-1.720505 J-20.010562
G02 X80.049692 Y107.814314 Z-0.125000 I-0.764838 J-3.041630
G00 Z5.000000

(End cutting path id: path33219)


(Start cutting path id: path33219)
(Change tool to Default tool)

G00 Z5.000000
G00 X70.077903 Y111.645283

G01 Z-0.125000 F100.0(Penetrate)
G02 X72.417494 Y112.694830 Z-0.125000 I4.121419 J-6.054816 F400.000000
G02 X75.239367 Y112.921320 Z-0.125000 I2.088317 J-8.326374
G02 X78.416779 Y112.389305 Z-0.125000 I-1.716327 J-20.005045
G02 X80.121775 Y111.280801 Z-0.125000 I-0.764208 J-3.040916
G00 Z5.000000

(End cutting path id: path33219)


(Start cutting path id: path33219)
(Change tool to Default tool)

G00 Z5.000000
G00 X70.137856 Y114.938444

G01 Z-0.125000 F100.0(Penetrate)
G02 X72.514785 Y115.986897 Z-0.125000 I4.155120 J-6.201425 F400.000000
G02 X75.379253 Y116.209488 Z-0.125000 I2.109091 J-8.598991
G02 X78.604348 Y115.676692 Z-0.125000 I-1.779550 J-20.799259
G02 X80.340167 Y114.562552 Z-0.125000 I-0.766299 J-3.103152
G00 Z5.000000

(End cutting path id: path33219)


(Start cutting path id: path33219)
(Change tool to Default tool)

G00 Z5.000000
G00 X70.370520 Y118.220194

G01 Z-0.125000 F100.0(Penetrate)
G02 X72.729732 Y119.471734 Z-0.125000 I4.519430 J-5.669959 F400.000000
G02 X75.601926 Y119.780827 Z-0.125000 I2.217259 J-7.104262
G02 X78.833647 Y119.156597 Z-0.125000 I-1.410701 J-15.981017
G02 X80.516451 Y117.909208 Z-0.125000 I-0.897866 J-2.970074
G00 Z5.000000

(End cutting path id: path33219)


(Start cutting path id: path33219)
(Change tool to Default tool)

G00 Z5.000000
G00 X70.503983 Y122.549737

G01 Z-0.125000 F100.0(Penetrate)
G02 X72.863195 Y123.801276 Z-0.125000 I4.519423 J-5.669951 F400.000000
G02 X75.735389 Y124.110367 Z-0.125000 I2.217253 J-7.104254
G02 X78.967109 Y123.486138 Z-0.125000 I-1.410705 J-15.981057
G02 X80.649911 Y122.238751 Z-0.125000 I-0.897862 J-2.970067
G00 Z5.000000

(End cutting path id: path33219)


(Start cutting path id: path33219)
(Change tool to Default tool)

G00 Z5.000000
G00 X70.077903 Y114.096787

G01 Z-0.125000 F100.0(Penetrate)
G02 X72.455341 Y115.129533 Z-0.125000 I4.128799 J-6.251850 F400.000000
G02 X75.317875 Y115.345721 Z-0.125000 I2.098699 J-8.729313
G02 X78.541268 Y114.819623 Z-0.125000 I-1.814246 J-21.253739
G02 X80.280217 Y113.715902 Z-0.125000 I-0.756884 J-3.114241
G00 Z5.000000

(End cutting path id: path33219)


(Start cutting path id: path33219)
(Change tool to Default tool)

G00 Z5.000000
G00 X70.431897 Y119.083250

G01 Z-0.125000 F100.0(Penetrate)
G02 X72.791170 Y120.334994 Z-0.125000 I4.521071 J-5.672025 F400.000000
G02 X75.663304 Y120.644596 Z-0.125000 I2.218774 J-7.106249
G02 X78.894901 Y120.020136 Z-0.125000 I-1.415034 J-15.996871
G02 X80.577829 Y118.772977 Z-0.125000 I-0.897991 J-2.970817
G00 Z5.000000

(End cutting path id: path33219)


(Start cutting path id: path33219)
(Change tool to Default tool)

G00 Z5.000000
G00 X70.005821 Y110.630302

G01 Z-0.125000 F100.0(Penetrate)
G02 X72.407045 Y111.784202 Z-0.125000 I4.368330 J-6.014952 F400.000000
G02 X75.314305 Y112.048279 Z-0.125000 I2.190870 J-7.984330
G02 X78.586980 Y111.468102 Z-0.125000 I-1.618927 J-18.652446
G02 X80.322325 Y110.278659 Z-0.125000 I-0.832269 J-3.074859
G00 Z5.000000

(End cutting path id: path33219)


(Start cutting path id: path33219)
(Change tool to Default tool)

G00 Z5.000000
G00 X105.886273 Y114.313621

G01 Z-0.125000 F100.0(Penetrate)
G02 X108.341158 Y115.358411 Z-0.125000 I4.225064 J-6.520947 F400.000000
G02 X111.293964 Y115.572541 Z-0.125000 I2.150776 J-9.192408
G02 X114.618666 Y115.038937 Z-0.125000 I-1.926983 J-22.630724
G02 X116.419030 Y113.914903 Z-0.125000 I-0.768953 J-3.235468
G00 Z5.000000

(End cutting path id: path33219)


(Start cutting path id: path33219)
(Change tool to Default tool)

G00 Z5.000000
G00 X105.937660 Y117.608210

G01 Z-0.125000 F100.0(Penetrate)
G02 X108.393011 Y118.652703 Z-0.125000 I4.227678 J-6.530036 F400.000000
G02 X111.345348 Y118.867130 Z-0.125000 I2.151915 J-9.196800
G02 X114.670158 Y118.333262 Z-0.125000 I-1.925187 J-22.609644
G02 X116.470414 Y117.208778 Z-0.125000 I-0.769336 J-3.234989
G00 Z5.000000

(End cutting path id: path33219)


(Start cutting path id: path33219)
(Change tool to Default tool)

G00 Z5.000000
G00 X106.171038 Y120.889246

G01 Z-0.125000 F100.0(Penetrate)
G02 X108.645881 Y122.136231 Z-0.125000 I4.611842 J-6.073588 F400.000000
G02 X111.650098 Y122.432759 Z-0.125000 I2.291578 J-7.850105
G02 X115.031728 Y121.808581 Z-0.125000 I-1.575512 J-18.008184
G02 X116.809422 Y120.544023 Z-0.125000 I-0.895638 J-3.140878
G00 Z5.000000

(End cutting path id: path33219)


(Start cutting path id: path33219)
(Change tool to Default tool)

G00 Z5.000000
G00 X106.295936 Y125.219500

G01 Z-0.125000 F100.0(Penetrate)
G02 X108.770954 Y126.466489 Z-0.125000 I4.611408 J-6.073007 F400.000000
G02 X111.775709 Y126.763016 Z-0.125000 I2.292010 J-7.853206
G02 X115.157337 Y126.138837 Z-0.125000 I-1.575529 J-18.008225
G02 X116.935031 Y124.874280 Z-0.125000 I-0.895640 J-3.140881
G00 Z5.000000

(End cutting path id: path33219)


(Start cutting path id: path33219)
(Change tool to Default tool)

G00 Z5.000000
G00 X105.877708 Y116.765838

G01 Z-0.125000 F100.0(Penetrate)
G02 X108.324244 Y117.795579 Z-0.125000 I4.193205 J-6.541334 F400.000000
G02 X111.264701 Y118.004788 Z-0.125000 I2.136595 J-9.261241
G02 X114.575588 Y117.477783 Z-0.125000 I-1.941947 J-22.863964
G02 X116.371210 Y116.364981 Z-0.125000 I-0.759869 J-3.231240
G00 Z5.000000

(End cutting path id: path33219)


(Start cutting path id: path33219)
(Change tool to Default tool)

G00 Z5.000000
G00 X106.231702 Y121.753015

G01 Z-0.125000 F100.0(Penetrate)
G02 X108.707145 Y122.999527 Z-0.125000 I4.612441 J-6.078587 F400.000000
G02 X111.711475 Y123.295814 Z-0.125000 I2.291356 J-7.854195
G02 X115.093106 Y122.671637 Z-0.125000 I-1.575512 J-18.008184
G02 X116.870800 Y121.407079 Z-0.125000 I-0.895638 J-3.140878
G00 Z5.000000

(End cutting path id: path33219)


(Start cutting path id: path33219)
(Change tool to Default tool)

G00 Z5.000000
G00 X105.814191 Y113.299354

G01 Z-0.125000 F100.0(Penetrate)
G02 X108.333790 Y114.447999 Z-0.125000 I4.471373 J-6.470392 F400.000000
G02 X111.375323 Y114.699500 Z-0.125000 I2.260986 J-8.826093
G02 X114.800092 Y114.118216 Z-0.125000 I-1.816874 J-21.084084
G02 X116.632423 Y112.912049 Z-0.125000 I-0.833838 J-3.261574
G00 Z5.000000

(End cutting path id: path33219)


(Start cutting path id: path33219)
(Change tool to Default tool)

G00 Z5.000000
G00 X106.430824 Y127.118935

G01 Z-0.125000 F100.0(Penetrate)
G02 X108.905842 Y128.365923 Z-0.125000 I4.611408 J-6.073007 F400.000000
G02 X111.910597 Y128.662451 Z-0.125000 I2.292010 J-7.853206
G02 X115.292227 Y128.038273 Z-0.125000 I-1.575512 J-18.008184
G02 X117.069921 Y126.773715 Z-0.125000 I-0.895638 J-3.140878
G00 Z5.000000

(End cutting path id: path33219)


(Start cutting path id: path33219)
(Change tool to Default tool)

G00 Z5.000000
G00 X106.762695 Y129.352182

G01 Z-0.125000 F100.0(Penetrate)
G02 X109.237711 Y130.599168 Z-0.125000 I4.611397 J-6.072995 F400.000000
G02 X112.242468 Y130.895695 Z-0.125000 I2.292011 J-7.853227
G02 X115.624187 Y130.271235 Z-0.125000 I-1.574324 J-17.994601
G02 X117.401789 Y129.006245 Z-0.125000 I-0.896103 J-3.140697
G00 Z5.000000

(End cutting path id: path33219)


(Start cutting path id: path33219)
(Change tool to Default tool)

G00 Z5.000000
G00 X107.478534 Y154.121156

G01 Z-0.125000 F100.0(Penetrate)
G02 X109.953551 Y155.368142 Z-0.125000 I4.611397 J-6.072995 F400.000000
G02 X112.958308 Y155.664669 Z-0.125000 I2.292011 J-7.853227
G02 X116.339936 Y155.040491 Z-0.125000 I-1.575510 J-18.008154
G02 X118.117629 Y153.775933 Z-0.125000 I-0.895639 J-3.140878
G00 Z5.000000

(End cutting path id: path33219)


(Start cutting path id: path33219)
(Change tool to Default tool)

G00 Z5.000000
G00 X107.806835 Y163.644719

G01 Z-0.125000 F100.0(Penetrate)
G02 X110.281897 Y164.891215 Z-0.125000 I4.610531 J-6.074236 F400.000000
G02 X113.286608 Y165.187521 Z-0.125000 I2.291711 J-7.856355
G02 X116.668237 Y164.563343 Z-0.125000 I-1.575510 J-18.008154
G02 X118.445930 Y163.298785 Z-0.125000 I-0.895639 J-3.140878
G00 Z5.000000

(End cutting path id: path33219)


(Start cutting path id: path33219)
(Change tool to Default tool)

G00 Z5.000000
G00 X107.938156 Y172.834476

G01 Z-0.125000 F100.0(Penetrate)
G02 X110.413218 Y174.080970 Z-0.125000 I4.610527 J-6.074241 F400.000000
G02 X113.417929 Y174.377275 Z-0.125000 I2.291710 J-7.856368
G02 X116.799557 Y173.753097 Z-0.125000 I-1.575510 J-18.008154
G02 X118.577251 Y172.488539 Z-0.125000 I-0.895639 J-3.140878
G00 Z5.000000

(End cutting path id: path33219)


(Start cutting path id: path33219)
(Change tool to Default tool)

G00 Z5.000000
G00 X108.476283 Y182.863037

G01 Z-0.125000 F100.0(Penetrate)
G02 X110.951301 Y184.110023 Z-0.125000 I4.611404 J-6.073012 F400.000000
G02 X113.956056 Y184.406550 Z-0.125000 I2.292009 J-7.853218
G02 X117.337647 Y183.781854 Z-0.125000 I-1.579048 J-18.012598
G02 X119.115378 Y182.517100 Z-0.125000 I-0.896256 J-3.141534
G00 Z5.000000

(End cutting path id: path33219)


(Start cutting path id: path33219)
(Change tool to Default tool)

G00 Z5.000000
G00 X108.447022 Y192.237528

G01 Z-0.125000 F100.0(Penetrate)
G02 X110.922039 Y193.484514 Z-0.125000 I4.611397 J-6.072995 F400.000000
G02 X113.926796 Y193.781040 Z-0.125000 I2.292011 J-7.853227
G02 X117.308424 Y193.156863 Z-0.125000 I-1.575510 J-18.008154
G02 X119.086117 Y191.892305 Z-0.125000 I-0.895639 J-3.140878
G00 Z5.000000

(End cutting path id: path33219)


(Start cutting path id: path33219)
(Change tool to Default tool)

G00 Z5.000000
G00 X108.616169 Y199.515723

G01 Z-0.125000 F100.0(Penetrate)
G02 X111.091231 Y200.762217 Z-0.125000 I4.610536 J-6.074252 F400.000000
G02 X114.095940 Y201.058524 Z-0.125000 I2.291714 J-7.856364
G02 X117.477570 Y200.434346 Z-0.125000 I-1.575530 J-18.008255
G02 X119.255264 Y199.169789 Z-0.125000 I-0.895639 J-3.140881
G00 Z5.000000

(End cutting path id: path33219)


(Start cutting path id: path33219)
(Change tool to Default tool)

G00 Z5.000000
G00 X72.485922 Y157.816599

G01 Z-0.125000 F100.0(Penetrate)
G02 X74.845090 Y159.068631 Z-0.125000 I4.520335 J-5.668863 F400.000000
G02 X77.717329 Y159.377945 Z-0.125000 I2.217530 J-7.101391
G02 X78.273334 Y159.318742 Z-0.125000 I-1.360183 J-15.414427
G02 X78.755757 Y159.249557 Z-0.125000 I-1.649803 J-13.220572
G00 Z5.000000

(End cutting path id: path33219)


(Start cutting path id: path33219)
(Change tool to Default tool)

G00 Z5.000000
G00 X72.974804 Y167.154717

G01 Z-0.125000 F100.0(Penetrate)
G02 X75.334075 Y168.406460 Z-0.125000 I4.521057 J-5.672000 F400.000000
G02 X78.206211 Y168.716061 Z-0.125000 I2.218769 J-7.106249
G02 X78.762215 Y168.656478 Z-0.125000 I-1.310696 J-14.854896
G02 X79.244642 Y168.586961 Z-0.125000 I-1.732615 J-13.732565
G00 Z5.000000

(End cutting path id: path33219)


(Start cutting path id: path33219)
(Change tool to Default tool)

G00 Z5.000000
G00 X73.303819 Y176.677569

G01 Z-0.125000 F100.0(Penetrate)
G02 X75.662534 Y177.929290 Z-0.125000 I4.519565 J-5.668357 F400.000000
G02 X78.534512 Y178.238913 Z-0.125000 I2.218692 J-7.105313
G02 X79.091083 Y178.179303 Z-0.125000 I-1.316863 J-14.923503
G02 X79.572943 Y178.109810 Z-0.125000 I-1.705256 J-13.529556
G00 Z5.000000

(End cutting path id: path33219)


(Start cutting path id: path33219)
(Change tool to Default tool)

G00 Z5.000000
G00 X73.767722 Y185.670462

G01 Z-0.125000 F100.0(Penetrate)
G02 X76.126935 Y186.922001 Z-0.125000 I4.519437 J-5.669975 F400.000000
G02 X78.999128 Y187.231094 Z-0.125000 I2.217257 J-7.104254
G02 X79.555135 Y187.171890 Z-0.125000 I-1.360061 J-15.413049
G02 X80.037559 Y187.102706 Z-0.125000 I-1.650388 J-13.224897
G00 Z5.000000

(End cutting path id: path33219)


(Start cutting path id: path33217)
(Change tool to Default tool)

G00 Z5.000000
G00 X79.231081 Y124.297957

G01 Z-0.125000 F100.0(Penetrate)
G01 X55.870317 Y125.730201 Z-0.125000 F400.000000
G01 X57.057911 Y133.016242 Z-0.125000
G02 X58.077141 Y134.978692 Z-0.125000 I8.878640 J-3.365362
G02 X59.548717 Y136.636083 Z-0.125000 I7.057201 J-4.784003
G03 X67.417298 Y143.736288 Z-0.125000 I-173.900054 J200.629481
G03 X75.182984 Y152.276642 Z-0.125000 I-50.195797 J53.443523
G03 X76.644340 Y155.146097 Z-0.125000 I-6.807275 J5.273654
G03 X78.306843 Y161.658267 Z-0.125000 I-97.782013 J28.431235
G01 X79.675714 Y187.243219 Z-0.125000
G02 X80.613575 Y191.862852 Z-0.125000 I50.310229 J-7.808783
G02 X81.752576 Y194.465779 Z-0.125000 I8.343367 J-2.100260
G02 X84.194053 Y197.104769 Z-0.125000 I8.979982 J-5.859016
G03 X85.656502 Y199.102027 Z-0.125000 I-2.703376 J3.513541
G02 X87.033510 Y202.702830 Z-0.125000 I113.795610 J-41.453679
G02 X90.322660 Y205.024297 Z-0.125000 I3.435635 J-1.376914
G02 X93.080303 Y203.316673 Z-0.125000 I0.115639 J-2.893726
G02 X94.947424 Y197.773921 Z-0.125000 I-27.532045 J-12.360248
G03 X96.604769 Y190.723583 Z-0.125000 I1149.917491 J266.594657
G02 X97.493899 Y186.427241 Z-0.125000 I-71.428870 J-17.022408
G02 X97.789073 Y184.746778 Z-0.125000 I-3412.202886 J-600.221077
G03 X99.956067 Y173.104270 Z-0.125000 I561.252030 J98.441701
G03 X102.349871 Y161.729746 Z-0.125000 I438.234456 J86.288651
G03 X103.383335 Y159.211042 Z-0.125000 I7.900617 J1.770370
G03 X112.497382 Y151.977909 Z-0.125000 I14.723198 J9.193234
G02 X119.253836 Y146.696027 Z-0.125000 I-4.221311 J-12.362085
G02 X121.796217 Y140.335549 Z-0.125000 I-15.024466 J-9.693863
G02 X121.958039 Y137.571890 Z-0.125000 I-10.568280 J-2.005377
G02 X121.107919 Y136.417523 Z-0.125000 I-1.337121 J0.094493
G02 X98.460244 Y127.624643 Z-0.125000 I-2970.934948 J7618.624916
G01 X96.478305 Y121.735182 Z-0.125000
G01 X80.837614 Y118.601079 Z-0.125000
G02 X79.419966 Y120.046680 Z-0.125000 I3.168762 J4.525407
G02 X79.057653 Y121.853585 Z-0.125000 I1.995319 J1.339870
G03 X79.293110 Y123.310291 Z-0.125000 I-20.730210 J4.098149
G03 X79.231081 Y124.297957 Z-0.125000 I-2.626060 J0.330855
G01 X79.231081 Y124.297957 Z-0.125000
G00 Z5.000000

(End cutting path id: path33217)


(Start cutting path id: path33217)
(Change tool to Default tool)

G00 Z5.000000
G00 X77.600280 Y145.406435

G01 Z-0.125000 F100.0(Penetrate)
G01 X79.796330 Y188.079169 Z-0.125000 F400.000000
G00 Z5.000000

(End cutting path id: path33217)


(Start cutting path id: path33215)
(Change tool to Default tool)

G00 Z5.000000
G00 X79.231078 Y124.297954

G01 Z-0.125000 F100.0(Penetrate)
G01 X55.870317 Y125.730198 Z-0.125000 F400.000000
G01 X57.057908 Y133.016239 Z-0.125000
G02 X58.077140 Y134.978689 Z-0.125000 I8.878670 J-3.365385
G02 X59.548714 Y136.636078 Z-0.125000 I7.057194 J-4.784001
G03 X67.417292 Y143.736281 Z-0.125000 I-173.898847 J200.628089
G03 X75.182984 Y152.276636 Z-0.125000 I-50.196212 J53.443937
G03 X76.644338 Y155.146091 Z-0.125000 I-6.807290 J5.273656
G03 X78.306840 Y161.658261 Z-0.125000 I-97.782305 J28.431299
G01 X79.675711 Y187.243216 Z-0.125000
G02 X80.613572 Y191.862849 Z-0.125000 I50.310229 J-7.808783
G02 X81.752573 Y194.465777 Z-0.125000 I8.343367 J-2.100260
G02 X84.194051 Y197.104766 Z-0.125000 I8.979979 J-5.859014
G03 X85.656502 Y199.102024 Z-0.125000 I-2.703385 J3.513553
G02 X87.033507 Y202.702826 Z-0.125000 I113.789706 J-41.451317
G02 X90.322657 Y205.024294 Z-0.125000 I3.435636 J-1.376915
G02 X93.080300 Y203.316670 Z-0.125000 I0.115639 J-2.893726
G02 X94.947422 Y197.773918 Z-0.125000 I-27.532045 J-12.360248
G03 X96.604766 Y190.723576 Z-0.125000 I1149.876309 J266.584855
G02 X97.493896 Y186.427235 Z-0.125000 I-71.428830 J-17.022400
G02 X97.789070 Y184.746773 Z-0.125000 I-3412.202894 J-600.221028
G03 X99.956065 Y173.104265 Z-0.125000 I561.252030 J98.441701
G03 X102.349869 Y161.729740 Z-0.125000 I438.234456 J86.288651
G03 X103.383332 Y159.211036 Z-0.125000 I7.900617 J1.770370
G03 X112.497379 Y151.977903 Z-0.125000 I14.723198 J9.193234
G02 X119.253833 Y146.696022 Z-0.125000 I-4.221311 J-12.362085
G02 X121.796215 Y140.335539 Z-0.125000 I-15.024468 J-9.693864
G02 X121.958036 Y137.571887 Z-0.125000 I-10.568252 J-2.005369
G02 X121.107914 Y136.417516 Z-0.125000 I-1.337125 J0.094493
G02 X98.460244 Y127.624640 Z-0.125000 I-2970.915129 J7618.575119
G01 X96.478305 Y121.735179 Z-0.125000
G01 X80.837611 Y118.601076 Z-0.125000
G02 X79.419963 Y120.046677 Z-0.125000 I3.168766 J4.525413
G02 X79.057650 Y121.853580 Z-0.125000 I1.995313 J1.339868
G03 X79.293107 Y123.310286 Z-0.125000 I-20.730098 J4.098127
G03 X79.231078 Y124.297954 Z-0.125000 I-2.626075 J0.330855
G00 Z5.000000

(End cutting path id: path33215)


(Start cutting path id: path33213)
(Change tool to Default tool)

G00 Z5.000000
G00 X74.492127 Y193.429400

G01 Z-0.125000 F100.0(Penetrate)
G02 X76.851398 Y194.681144 Z-0.125000 I4.521063 J-5.672008 F400.000000
G02 X79.723534 Y194.990747 Z-0.125000 I2.218775 J-7.106257
G02 X82.955130 Y194.366287 Z-0.125000 I-1.415033 J-15.996864
G02 X84.638055 Y193.119128 Z-0.125000 I-0.897989 J-2.970809
G00 Z5.000000

(End cutting path id: path33213)


(Start cutting path id: path33211)
(Change tool to Default tool)

G00 Z5.000000
G00 X70.178535 Y124.591113

G01 Z-0.125000 F100.0(Penetrate)
G01 X70.493275 Y123.235901 Z-0.125000 F400.000000
G01 X70.299865 Y118.833604 Z-0.125000
G01 X69.757454 Y117.772974 Z-0.125000
G01 X70.154984 Y116.491230 Z-0.125000
G01 X70.128568 Y114.662408 Z-0.125000
G01 X69.558324 Y113.238013 Z-0.125000
G01 X69.688217 Y111.533300 Z-0.125000
G01 X69.392747 Y109.938431 Z-0.125000
G01 X69.987970 Y108.474090 Z-0.125000
G01 X67.478608 Y102.963374 Z-0.125000
G02 X71.110379 Y104.702913 Z-0.125000 I5.946884 J-7.754834
G02 X75.858136 Y105.048971 Z-0.125000 I3.404017 J-13.960011
G02 X79.980095 Y104.173929 Z-0.125000 I-1.714309 J-18.221348
G02 X81.810378 Y102.499750 Z-0.125000 I-0.977990 J-2.906740
G01 X80.311611 Y107.724443 Z-0.125000
G01 X80.806917 Y109.264391 Z-0.125000
G01 X80.627779 Y111.079659 Z-0.125000
G01 X80.981773 Y112.730876 Z-0.125000
G01 X80.492177 Y114.338586 Z-0.125000
G01 X80.657040 Y116.091087 Z-0.125000
G01 X81.255834 Y117.248723 Z-0.125000
G01 X80.644193 Y118.302933 Z-0.125000
G01 X81.147350 Y124.149599 Z-0.125000
G03 X81.753030 Y125.062314 Z-0.125000 I-2.795155 J2.512194
G03 X82.044470 Y126.128205 Z-0.125000 I-2.909095 J1.368204
G03 X81.921547 Y127.067340 Z-0.125000 I-2.125601 J0.199392
G03 X81.510624 Y127.504100 Z-0.125000 I-0.720406 J-0.266101
G01 X81.675487 Y129.257316 Z-0.125000
G01 X84.641617 Y191.308139 Z-0.125000
G01 X81.165192 Y201.360948 Z-0.125000
G03 X80.785898 Y202.677864 Z-0.125000 I-5.257172 J-0.801076
G03 X80.014714 Y203.236845 Z-0.125000 I-0.858309 J-0.372681
G03 X79.142295 Y202.740661 Z-0.125000 I-0.082128 J-0.870658
G03 X78.472411 Y200.950820 Z-0.125000 I10.246600 J-4.855271
G01 X74.317976 Y192.058497 Z-0.125000
G01 X70.178527 Y124.591113 Z-0.125000
G01 X70.178535 Y124.591113 Z-0.125000
G00 Z5.000000

(End cutting path id: path33211)


(Start cutting path id: path33209)
(Change tool to Default tool)

G00 Z5.000000
G00 X70.178532 Y124.591107

G01 Z-0.125000 F100.0(Penetrate)
G01 X70.493275 Y123.235896 Z-0.125000 F400.000000
G01 X70.299863 Y118.833602 Z-0.125000
G01 X69.757451 Y117.772971 Z-0.125000
G01 X70.154981 Y116.491225 Z-0.125000
G01 X70.128565 Y114.662405 Z-0.125000
G01 X69.558321 Y113.238007 Z-0.125000
G01 X69.688214 Y111.533294 Z-0.125000
G01 X69.392744 Y109.938426 Z-0.125000
G01 X69.987968 Y108.474084 Z-0.125000
G01 X67.478606 Y102.963368 Z-0.125000
G02 X71.110378 Y104.702908 Z-0.125000 I5.946895 J-7.754855
G02 X75.858133 Y105.048968 Z-0.125000 I3.404022 J-13.960009
G02 X79.980092 Y104.173924 Z-0.125000 I-1.714320 J-18.221361
G02 X81.810375 Y102.499745 Z-0.125000 I-0.977992 J-2.906742
G01 X80.311609 Y107.724437 Z-0.125000
G01 X80.806914 Y109.264386 Z-0.125000
G01 X80.627776 Y111.079656 Z-0.125000
G01 X80.981771 Y112.730873 Z-0.125000
G01 X80.492174 Y114.338580 Z-0.125000
G01 X80.657037 Y116.091082 Z-0.125000
G01 X81.255831 Y117.248718 Z-0.125000
G01 X80.644190 Y118.302928 Z-0.125000
G01 X81.147348 Y124.149593 Z-0.125000
G03 X81.753027 Y125.062310 Z-0.125000 I-2.795174 J2.512203
G03 X82.044467 Y126.128202 Z-0.125000 I-2.909102 J1.368205
G03 X81.921544 Y127.067338 Z-0.125000 I-2.125584 J0.199396
G03 X81.510621 Y127.504098 Z-0.125000 I-0.720405 J-0.266102
G01 X81.675484 Y129.257313 Z-0.125000
G01 X84.641614 Y191.308133 Z-0.125000
G01 X81.165192 Y201.360945 Z-0.125000
G03 X80.785897 Y202.677860 Z-0.125000 I-5.257147 J-0.801073
G03 X80.014711 Y203.236842 Z-0.125000 I-0.858311 J-0.372683
G03 X79.142292 Y202.740658 Z-0.125000 I-0.082128 J-0.870658
G03 X78.472409 Y200.950817 Z-0.125000 I10.246600 J-4.855271
G01 X74.317982 Y192.058494 Z-0.125000
G01 X70.178532 Y124.591107 Z-0.125000
G00 Z5.000000

(End cutting path id: path33209)


(Start cutting path id: path33207)
(Change tool to Default tool)

G00 Z5.000000
G00 X106.033294 Y130.437775

G01 Z-0.125000 F100.0(Penetrate)
G01 X106.383721 Y129.072579 Z-0.125000 F400.000000
G01 X106.290226 Y124.613222 Z-0.125000
G01 X105.766371 Y123.526915 Z-0.125000
G01 X106.198874 Y122.239465 Z-0.125000
G01 X106.213860 Y120.387819 Z-0.125000
G01 X105.670023 Y118.933463 Z-0.125000
G01 X105.842024 Y117.210920 Z-0.125000
G01 X105.580096 Y115.589657 Z-0.125000
G01 X106.216002 Y114.121752 Z-0.125000
G01 X103.805130 Y108.486214 Z-0.125000
G02 X107.440058 Y110.331550 Z-0.125000 I6.199259 J-7.708557
G02 X112.236759 Y110.792213 Z-0.125000 I3.769058 J-14.042324
G02 X116.428500 Y110.002576 Z-0.125000 I-1.308799 J-18.468313
G02 X118.319607 Y108.350694 Z-0.125000 I-0.922317 J-2.964315
G01 X116.681668 Y113.603205 Z-0.125000
G01 X117.146999 Y115.173109 Z-0.125000
G01 X116.922898 Y117.006210 Z-0.125000
G01 X117.242636 Y118.685960 Z-0.125000
G01 X116.709504 Y120.301513 Z-0.125000
G01 X116.835827 Y122.078979 Z-0.125000
G01 X117.414636 Y123.264431 Z-0.125000
G01 X116.771596 Y124.316502 Z-0.125000
G01 X117.144860 Y130.245906 Z-0.125000
G03 X117.736263 Y131.183299 Z-0.125000 I-2.884002 J2.474778
G03 X118.006292 Y132.268737 Z-0.125000 I-2.977002 J1.316911
G03 X117.860067 Y133.216570 Z-0.125000 I-2.157209 J0.152396
G03 X117.433906 Y133.649625 Z-0.125000 I-0.724199 J-0.286454
G01 X117.559518 Y135.427091 Z-0.125000
G01 X119.116806 Y198.293892 Z-0.125000
G01 X115.364182 Y208.385933 Z-0.125000
G03 X114.949175 Y209.710159 Z-0.125000 I-5.306495 J-0.935890
G03 X114.155892 Y210.258266 Z-0.125000 I-0.860804 J-0.397735
G03 X113.284875 Y209.735577 Z-0.125000 I-0.062338 J-0.883202
G03 X112.648560 Y207.908044 Z-0.125000 I10.494971 J-4.678705
G01 X108.651853 Y198.811728 Z-0.125000
G01 X106.033294 Y130.437775 Z-0.125000
G01 X106.033294 Y130.437775 Z-0.125000
G00 Z5.000000

(End cutting path id: path33207)


(Start cutting path id: path33205)
(Change tool to Default tool)

G00 Z5.000000
G00 X106.033291 Y130.437772

G01 Z-0.125000 F100.0(Penetrate)
G01 X106.383718 Y129.072576 Z-0.125000 F400.000000
G01 X106.290224 Y124.613219 Z-0.125000
G01 X105.766368 Y123.526909 Z-0.125000
G01 X106.198871 Y122.239459 Z-0.125000
G01 X106.213857 Y120.387813 Z-0.125000
G01 X105.670020 Y118.933457 Z-0.125000
G01 X105.842021 Y117.210914 Z-0.125000
G01 X105.580093 Y115.589655 Z-0.125000
G01 X106.215999 Y114.121746 Z-0.125000
G01 X103.805127 Y108.486209 Z-0.125000
G02 X107.440054 Y110.331546 Z-0.125000 I6.199257 J-7.708545
G02 X112.236756 Y110.792207 Z-0.125000 I3.769052 J-14.042299
G02 X116.428497 Y110.002570 Z-0.125000 I-1.308799 J-18.468313
G02 X118.319604 Y108.350688 Z-0.125000 I-0.922317 J-2.964315
G01 X116.681666 Y113.603200 Z-0.125000
G01 X117.146996 Y115.173106 Z-0.125000
G01 X116.922895 Y117.006207 Z-0.125000
G01 X117.242633 Y118.685954 Z-0.125000
G01 X116.709501 Y120.301507 Z-0.125000
G01 X116.835824 Y122.078974 Z-0.125000
G01 X117.414633 Y123.264426 Z-0.125000
G01 X116.771593 Y124.316499 Z-0.125000
G01 X117.144857 Y130.245903 Z-0.125000
G03 X117.736260 Y131.183294 Z-0.125000 I-2.883983 J2.474769
G03 X118.006290 Y132.268731 Z-0.125000 I-2.976996 J1.316910
G03 X117.860064 Y133.216567 Z-0.125000 I-2.157220 J0.152396
G03 X117.433903 Y133.649622 Z-0.125000 I-0.724199 J-0.286453
G01 X117.559515 Y135.427086 Z-0.125000
G01 X119.116803 Y198.293890 Z-0.125000
G01 X115.364179 Y208.385931 Z-0.125000
G03 X114.949172 Y209.710155 Z-0.125000 I-5.306488 J-0.935889
G03 X114.155890 Y210.258260 Z-0.125000 I-0.860801 J-0.397734
G03 X113.284872 Y209.735573 Z-0.125000 I-0.062341 J-0.883199
G03 X112.648558 Y207.908041 Z-0.125000 I10.494960 J-4.678701
G01 X108.651851 Y198.811722 Z-0.125000
G01 X106.033291 Y130.437772 Z-0.125000
G00 Z5.000000

(End cutting path id: path33205)


(Start cutting path id: path33203)
(Change tool to Default tool)

G00 Z5.000000
G00 X105.200408 Y125.751599

G01 Z-0.125000 F100.0(Penetrate)
G02 X99.267220 Y124.932655 Z-0.125000 I-7.643342 J33.473212 F400.000000
G02 X92.166144 Y124.942753 Z-0.125000 I-3.452108 J69.221968
G02 X85.111593 Y125.621466 Z-0.125000 I4.322387 J81.928806
G02 X80.215269 Y127.069007 Z-0.125000 I2.395420 J17.107249
G00 Z5.000000

(End cutting path id: path33203)


(Start cutting path id: path33203)
(Change tool to Default tool)

G00 Z5.000000
G00 X99.177512 Y227.435919

G01 Z-0.125000 F100.0(Penetrate)
G02 X99.982410 Y218.255870 Z-0.125000 I-250.643043 J-26.601444 F400.000000
G02 X100.130300 Y211.851707 Z-0.125000 I-69.358891 J-4.805482
G02 X100.013339 Y207.327156 Z-0.125000 I-832.920022 J19.267415
G02 X99.881933 Y204.097761 Z-0.125000 I-133.423727 J3.811721
G01 X95.710367 Y125.094679 Z-0.125000
G00 Z5.000000

(End cutting path id: path33203)


(Start cutting path id: path33201)
(Change tool to Default tool)

G00 Z5.000000
G00 X97.557418 Y230.237638

G01 Z-0.125000 F100.0(Penetrate)
G01 X99.431588 Y230.139207 Z-0.125000 F400.000000
G01 X99.336666 Y228.346049 Z-0.125000
G01 X97.462496 Y228.445194 Z-0.125000
G01 X97.557418 Y230.237638 Z-0.125000
G01 X97.557418 Y230.237638 Z-0.125000
G00 Z5.000000

(End cutting path id: path33201)


(Start cutting path id: path33199)
(Change tool to Default tool)

G00 Z5.000000
G00 X97.557416 Y230.237635

G01 Z-0.125000 F100.0(Penetrate)
G01 X99.431586 Y230.139205 Z-0.125000 F400.000000
G01 X99.336663 Y228.346046 Z-0.125000
G01 X97.462493 Y228.445191 Z-0.125000
G00 Z5.000000

(End cutting path id: path33199)


(Start cutting path id: path33197)
(Change tool to Default tool)

G00 Z5.000000
G00 X98.523764 Y230.178439

G01 Z-0.125000 F100.0(Penetrate)
G01 X98.642238 Y232.418815 Z-0.125000 F400.000000
G00 Z5.000000

(End cutting path id: path33197)


(Start cutting path id: path33195)
(Change tool to Default tool)

G00 Z5.000000
G00 X82.207916 Y164.016333

G01 Z-0.125000 F100.0(Penetrate)
G02 X88.143116 Y164.546615 Z-0.125000 I6.957810 J-44.395417 F400.000000
G02 X95.220771 Y164.440727 Z-0.125000 I2.135820 J-93.831594
G02 X102.243881 Y163.851860 Z-0.125000 I-6.000831 J-113.743615
G02 X107.191627 Y162.698211 Z-0.125000 I-2.542766 J-22.092088
G00 Z5.000000

(End cutting path id: path33195)


(Start cutting path id: path33193)
(Change tool to Default tool)

G00 Z5.000000
G00 X108.325692 Y204.174083

G01 Z-0.125000 F100.0(Penetrate)
G01 X107.185918 Y185.074169 Z-0.125000 F400.000000
G00 Z5.000000

(End cutting path id: path33193)


(Start cutting path id: path33193)
(Change tool to Default tool)

G00 Z5.000000
G00 X107.630550 Y204.510746

G01 Z-0.125000 F100.0(Penetrate)
G01 X106.572849 Y185.548491 Z-0.125000 F400.000000
G00 Z5.000000

(End cutting path id: path33193)


(Start cutting path id: path33193)
(Change tool to Default tool)

G00 Z5.000000
G00 X106.859756 Y204.781072

G01 Z-0.125000 F100.0(Penetrate)
G01 X105.791351 Y185.676169 Z-0.125000 F400.000000
G00 Z5.000000

(End cutting path id: path33193)


(Start cutting path id: path33193)
(Change tool to Default tool)

G00 Z5.000000
G00 X106.026871 Y205.199049

G01 Z-0.125000 F100.0(Penetrate)
G01 X104.968458 Y186.237511 Z-0.125000 F400.000000
G00 Z5.000000

(End cutting path id: path33193)


(Start cutting path id: path33193)
(Change tool to Default tool)

G00 Z5.000000
G00 X105.188990 Y205.545697

G01 Z-0.125000 F100.0(Penetrate)
G01 X104.109879 Y186.298138 Z-0.125000 F400.000000
G00 Z5.000000

(End cutting path id: path33193)


(Start cutting path id: path33193)
(Change tool to Default tool)

G00 Z5.000000
G00 X104.289731 Y206.040706

G01 Z-0.125000 F100.0(Penetrate)
G01 X103.267003 Y186.573460 Z-0.125000 F400.000000
G00 Z5.000000

(End cutting path id: path33193)


(Start cutting path id: path33193)
(Change tool to Default tool)

G00 Z5.000000
G00 X102.373450 Y206.392347

G01 Z-0.125000 F100.0(Penetrate)
G01 X101.223685 Y187.149067 Z-0.125000 F400.000000
G00 Z5.000000

(End cutting path id: path33193)


(Start cutting path id: path33193)
(Change tool to Default tool)

G00 Z5.000000
G00 X103.293407 Y206.183361

G01 Z-0.125000 F100.0(Penetrate)
G01 X102.215011 Y186.935089 Z-0.125000 F400.000000
G00 Z5.000000

(End cutting path id: path33193)


(Start cutting path id: path33193)
(Change tool to Default tool)

G00 Z5.000000
G00 X101.448498 Y206.910182

G01 Z-0.125000 F100.0(Penetrate)
G01 X100.380806 Y187.424388 Z-0.125000 F400.000000
G00 Z5.000000

(End cutting path id: path33193)


(Start cutting path id: path33193)
(Change tool to Default tool)

G00 Z5.000000
G00 X100.641306 Y206.832435

G01 Z-0.125000 F100.0(Penetrate)
G01 X99.445863 Y187.418685 Z-0.125000 F400.000000
G00 Z5.000000

(End cutting path id: path33193)


(Start cutting path id: path33193)
(Change tool to Default tool)

G00 Z5.000000
G00 X99.717068 Y206.877371

G01 Z-0.125000 F100.0(Penetrate)
G01 X98.587998 Y187.480026 Z-0.125000 F400.000000
G00 Z5.000000

(End cutting path id: path33193)


(Start cutting path id: path33193)
(Change tool to Default tool)

G00 Z5.000000
G00 X98.793543 Y206.922306

G01 Z-0.125000 F100.0(Penetrate)
G01 X97.591675 Y187.621964 Z-0.125000 F400.000000
G00 Z5.000000

(End cutting path id: path33193)


(Start cutting path id: path33193)
(Change tool to Default tool)

G00 Z5.000000
G00 X97.752970 Y207.099912

G01 Z-0.125000 F100.0(Penetrate)
G01 X96.526125 Y187.838798 Z-0.125000 F400.000000
G00 Z5.000000

(End cutting path id: path33193)


(Start cutting path id: path33193)
(Change tool to Default tool)

G00 Z5.000000
G00 X109.005134 Y203.623439

G01 Z-0.125000 F100.0(Penetrate)
G01 X107.864645 Y184.762471 Z-0.125000 F400.000000
G00 Z5.000000

(End cutting path id: path33193)


(Start cutting path id: path33193)
(Change tool to Default tool)

G00 Z5.000000
G00 X85.820654 Y205.292487

G01 Z-0.125000 F100.0(Penetrate)
G01 X84.251233 Y186.216824 Z-0.125000 F400.000000
G00 Z5.000000

(End cutting path id: path33193)


(Start cutting path id: path33193)
(Change tool to Default tool)

G00 Z5.000000
G00 X86.557192 Y205.546411

G01 Z-0.125000 F100.0(Penetrate)
G01 X84.926391 Y186.616970 Z-0.125000 F400.000000
G00 Z5.000000

(End cutting path id: path33193)


(Start cutting path id: path33193)
(Change tool to Default tool)

G00 Z5.000000
G00 X87.360814 Y205.725441

G01 Z-0.125000 F100.0(Penetrate)
G01 X85.719308 Y186.653346 Z-0.125000 F400.000000
G00 Z5.000000

(End cutting path id: path33193)


(Start cutting path id: path33193)
(Change tool to Default tool)

G00 Z5.000000
G00 X88.245801 Y206.044985

G01 Z-0.125000 F100.0(Penetrate)
G01 X86.615000 Y187.115544 Z-0.125000 F400.000000
G00 Z5.000000

(End cutting path id: path33193)


(Start cutting path id: path33193)
(Change tool to Default tool)

G00 Z5.000000
G00 X89.125790 Y206.292491

G01 Z-0.125000 F100.0(Penetrate)
G01 X87.474293 Y187.077027 Z-0.125000 F400.000000
G00 Z5.000000

(End cutting path id: path33193)


(Start cutting path id: path33193)
(Change tool to Default tool)

G00 Z5.000000
G00 X90.087854 Y206.679796

G01 Z-0.125000 F100.0(Penetrate)
G01 X88.349286 Y187.253204 Z-0.125000 F400.000000
G00 Z5.000000

(End cutting path id: path33193)


(Start cutting path id: path33193)
(Change tool to Default tool)

G00 Z5.000000
G00 X92.037677 Y206.808895

G01 Z-0.125000 F100.0(Penetrate)
G01 X90.457551 Y187.589867 Z-0.125000 F400.000000
G00 Z5.000000

(End cutting path id: path33193)


(Start cutting path id: path33193)
(Change tool to Default tool)

G00 Z5.000000
G00 X91.095596 Y206.706900

G01 Z-0.125000 F100.0(Penetrate)
G01 X89.444814 Y187.491436 Z-0.125000 F400.000000
G00 Z5.000000

(End cutting path id: path33193)


(Start cutting path id: path33193)
(Change tool to Default tool)

G00 Z5.000000
G00 X93.028291 Y207.216173

G01 Z-0.125000 F100.0(Penetrate)
G01 X91.333258 Y187.766047 Z-0.125000 F400.000000
G00 Z5.000000

(End cutting path id: path33193)


(Start cutting path id: path33193)
(Change tool to Default tool)

G00 Z5.000000
G00 X93.818355 Y207.045702

G01 Z-0.125000 F100.0(Penetrate)
G01 X92.259639 Y187.653350 Z-0.125000 F400.000000
G00 Z5.000000

(End cutting path id: path33193)


(Start cutting path id: path33193)
(Change tool to Default tool)

G00 Z5.000000
G00 X94.741165 Y206.984361

G01 Z-0.125000 F100.0(Penetrate)
G01 X93.118929 Y187.615546 Z-0.125000 F400.000000
G00 Z5.000000

(End cutting path id: path33193)


(Start cutting path id: path33193)
(Change tool to Default tool)

G00 Z5.000000
G00 X95.663978 Y206.923020

G01 Z-0.125000 F100.0(Penetrate)
G01 X94.127385 Y187.641937 Z-0.125000 F400.000000
G00 Z5.000000

(End cutting path id: path33193)


(Start cutting path id: path33193)
(Change tool to Default tool)

G00 Z5.000000
G00 X96.713828 Y206.963677

G01 Z-0.125000 F100.0(Penetrate)
G01 X95.207924 Y187.718255 Z-0.125000 F400.000000
G00 Z5.000000

(End cutting path id: path33193)


(Start cutting path id: path33193)
(Change tool to Default tool)

G00 Z5.000000
G00 X85.068416 Y204.823868

G01 Z-0.125000 F100.0(Penetrate)
G01 X83.533965 Y185.985727 Z-0.125000 F400.000000
G00 Z5.000000

(End cutting path id: path33193)


(Start cutting path id: path33191)
(Change tool to Default tool)

G00 Z5.000000
G00 X84.720131 Y209.734013

G01 Z-0.125000 F100.0(Penetrate)
G02 X90.569561 Y212.589935 Z-0.125000 I10.583641 J-14.258863 F400.000000
G02 X97.903561 Y213.389516 Z-0.125000 I6.124448 J-22.140670
G02 X105.222573 Y211.797825 Z-0.125000 I-1.227563 J-23.267876
G02 X109.703842 Y208.416605 Z-0.125000 I-3.848550 J-9.760855
G00 Z5.000000

(End cutting path id: path33191)


(Start cutting path id: path33191)
(Change tool to Default tool)

G00 Z5.000000
G00 X84.511733 Y204.529290

G01 Z-0.125000 F100.0(Penetrate)
G02 X90.399223 Y206.638413 Z-0.125000 I9.520063 J-17.302840 F400.000000
G02 X97.640920 Y207.132009 Z-0.125000 I5.721758 J-30.576275
G02 X104.934178 Y205.817655 Z-0.125000 I-1.398347 J-28.651411
G02 X109.591795 Y202.891625 Z-0.125000 I-3.328089 J-10.467591
G00 Z5.000000

(End cutting path id: path33191)


(Start cutting path id: path33191)
(Change tool to Default tool)

G00 Z5.000000
G00 X83.439043 Y185.580588

G01 Z-0.125000 F100.0(Penetrate)
G02 X89.358637 Y187.306924 Z-0.125000 I9.058453 J-20.049085 F400.000000
G02 X96.558953 Y187.646929 Z-0.125000 I5.366040 J-37.226198
G02 X103.731839 Y186.655348 Z-0.125000 I-1.994564 J-40.867605
G02 X108.429894 Y184.360186 Z-0.125000 I-2.586369 J-11.250035
G00 Z5.000000

(End cutting path id: path33191)


(Start cutting path id: path33189)
(Change tool to Default tool)

G00 Z5.000000
G00 X105.662172 Y125.735194

G01 Z-0.125000 F100.0(Penetrate)
G01 X109.749520 Y203.140554 Z-0.125000 F400.000000
G03 X109.487165 Y209.703296 Z-0.125000 I-64.548083 J0.706209
G03 X108.449875 Y213.873823 Z-0.125000 I-14.048329 J-1.279825
G02 X107.282027 Y216.678738 Z-0.125000 I670.947447 J280.999890
G03 X104.646490 Y222.104055 Z-0.125000 I-46.647681 J-19.307923
G03 X101.447838 Y226.651498 Z-0.125000 I-24.030510 J-13.504281
G03 X98.622254 Y228.032927 Z-0.125000 I-3.037205 J-2.631872
G01 X98.002051 Y228.065735 Z-0.125000
G03 X95.046209 Y226.989072 Z-0.125000 I-0.211660 J-4.014691
G03 X91.386339 Y222.803416 Z-0.125000 I18.816855 J-20.146050
G03 X88.194104 Y217.685404 Z-0.125000 I41.159679 J-29.226889
G02 X86.737755 Y215.019335 Z-0.125000 I-647.803212 J352.133798
G03 X85.266858 Y210.980847 Z-0.125000 I12.366908 J-6.791381
G03 X84.314750 Y204.482213 Z-0.125000 I63.303388 J-12.593572
G01 X80.227402 Y127.076853 Z-0.125000
G03 X82.224602 Y122.639436 Z-0.125000 I4.229019 J-0.764756
G03 X92.480170 Y119.474122 Z-0.125000 I11.412865 J18.780903
G03 X103.073557 Y121.493449 Z-0.125000 I1.189417 J22.556429
G03 X105.662172 Y125.735194 Z-0.125000 I-1.849735 J4.039590
G01 X105.662172 Y125.735194 Z-0.125000
G00 Z5.000000

(End cutting path id: path33189)


(Start cutting path id: path33187)
(Change tool to Default tool)

G00 Z5.000000
G00 X105.662169 Y125.735191

G01 Z-0.125000 F100.0(Penetrate)
G01 X109.749517 Y203.140551 Z-0.125000 F400.000000
G03 X109.487162 Y209.703294 Z-0.125000 I-64.548083 J0.706209
G03 X108.449873 Y213.873821 Z-0.125000 I-14.048329 J-1.279825
G02 X107.282024 Y216.678735 Z-0.125000 I670.947875 J281.000069
G03 X104.646488 Y222.104052 Z-0.125000 I-46.647660 J-19.307914
G03 X101.447835 Y226.651494 Z-0.125000 I-24.030491 J-13.504272
G03 X98.622251 Y228.032921 Z-0.125000 I-3.037203 J-2.631871
G01 X98.002048 Y228.065732 Z-0.125000
G03 X95.046206 Y226.989068 Z-0.125000 I-0.211658 J-4.014694
G03 X91.386336 Y222.803412 Z-0.125000 I18.816855 J-20.146048
G03 X88.194102 Y217.685400 Z-0.125000 I41.159634 J-29.226852
G02 X86.737755 Y215.019330 Z-0.125000 I-647.939818 J352.207883
G03 X85.266858 Y210.980843 Z-0.125000 I12.366884 J-6.791374
G03 X84.314750 Y204.482210 Z-0.125000 I63.303376 J-12.593571
G01 X80.227402 Y127.076850 Z-0.125000
G03 X82.224600 Y122.639433 Z-0.125000 I4.229018 J-0.764757
G03 X92.480167 Y119.474116 Z-0.125000 I11.412868 J18.780895
G03 X103.073555 Y121.493445 Z-0.125000 I1.189416 J22.556417
G03 X105.662169 Y125.735191 Z-0.125000 I-1.849737 J4.039592
G00 Z5.000000

(End cutting path id: path33187)


(Start cutting path id: path33185)
(Change tool to Default tool)

G00 Z5.000000
G00 X106.217430 Y107.996198

G01 Z-0.125000 F100.0(Penetrate)
G03 X105.791749 Y107.223850 Z-0.125000 I1.439580 J-1.296908 F400.000000
G03 X105.607932 Y106.070372 Z-0.125000 I4.852734 J-1.364716
G03 X105.988155 Y104.268665 Z-0.125000 I3.719282 J-0.156076
G02 X106.412982 Y102.583915 Z-0.125000 I-3.722479 J-1.834598
G03 X106.949517 Y102.430230 Z-0.125000 I0.293314 J0.010598
G03 X107.349353 Y103.108168 Z-0.125000 I-5.333450 J3.602450
G03 X107.241884 Y101.959933 Z-0.125000 I1.956134 J-0.762231
G03 X107.810402 Y100.576062 Z-0.125000 I3.614135 J0.676035
G02 X108.686259 Y98.668753 Z-0.125000 I-5.326329 J-3.600665
G02 X108.705380 Y97.048236 Z-0.125000 I-3.102175 J-0.846974
G01 X109.665305 Y98.807158 Z-0.125000
G02 X110.124633 Y97.806155 Z-0.125000 I-1.882345 J-1.469634
G02 X110.357590 Y96.185895 Z-0.125000 I-14.674234 J-2.936708
G03 X110.584735 Y94.271309 Z-0.125000 I32.397395 J2.872828
G03 X110.918558 Y92.444085 Z-0.125000 I27.866873 J4.147006
G03 X111.690486 Y94.970522 Z-0.125000 I-90.198683 J28.940454
G03 X112.080458 Y96.575339 Z-0.125000 I-17.944639 J5.210364
G03 X112.288544 Y97.779717 Z-0.125000 I-25.972368 J5.107532
G03 X112.395198 Y98.792891 Z-0.125000 I-11.688879 J1.742655
G02 X112.880594 Y98.352100 Z-0.125000 I-89.542033 J-99.090553
G02 X113.254492 Y98.007583 Z-0.125000 I-35.746220 J-39.169797
G03 X113.455243 Y98.120036 Z-0.125000 I0.082310 J0.088477
G02 X113.705548 Y99.658800 Z-0.125000 I2.163100 J0.437878
G03 X113.907859 Y100.468504 Z-0.125000 I-1.320514 J0.760069
G03 X113.742660 Y101.459090 Z-0.125000 I-3.794049 J-0.123664
G01 X114.366433 Y101.154524 Z-0.125000
G03 X114.656087 Y102.294236 Z-0.125000 I-5.025378 J1.883847
G03 X114.596244 Y103.287912 Z-0.125000 I-2.490340 J0.348662
G02 X114.424138 Y103.998974 Z-0.125000 I15.725781 J4.182641
G02 X114.560560 Y104.267943 Z-0.125000 I0.233032 J0.050887
G01 X114.869590 Y104.197328 Z-0.125000
G03 X115.157990 Y105.097172 Z-0.125000 I-2.475301 J1.289472
G03 X115.107966 Y106.086064 Z-0.125000 I-2.587678 J0.364812
G03 X114.790013 Y107.059988 Z-0.125000 I-6.737324 J-1.660644
G03 X114.322897 Y108.020449 Z-0.125000 I-7.819960 J-3.209383
G00 Z5.000000

(End cutting path id: path33185)


(Start cutting path id: path33183)
(Change tool to Default tool)

G00 Z5.000000
G00 X106.217427 Y107.996195

G01 Z-0.125000 F100.0(Penetrate)
G03 X105.791747 Y107.223845 Z-0.125000 I1.439593 J-1.296913 F400.000000
G03 X105.607929 Y106.070367 Z-0.125000 I4.852740 J-1.364717
G03 X105.988152 Y104.268661 Z-0.125000 I3.719277 J-0.156076
G02 X106.412979 Y102.583909 Z-0.125000 I-3.722483 J-1.834600
G03 X106.949515 Y102.430224 Z-0.125000 I0.293314 J0.010598
G03 X107.349353 Y103.108162 Z-0.125000 I-5.333444 J3.602463
G03 X107.241882 Y101.959929 Z-0.125000 I1.956128 J-0.762234
G03 X107.810399 Y100.576059 Z-0.125000 I3.614111 J0.676026
G02 X108.686257 Y98.668749 Z-0.125000 I-5.326346 J-3.600672
G02 X108.705377 Y97.048230 Z-0.125000 I-3.102177 J-0.846974
G01 X109.665302 Y98.807152 Z-0.125000
G02 X110.124630 Y97.806150 Z-0.125000 I-1.882345 J-1.469634
G02 X110.357588 Y96.185889 Z-0.125000 I-14.674234 J-2.936708
G03 X110.584732 Y94.271304 Z-0.125000 I32.397395 J2.872828
G03 X110.918555 Y92.444079 Z-0.125000 I27.866873 J4.147006
G03 X111.690483 Y94.970516 Z-0.125000 I-90.198683 J28.940454
G03 X112.080456 Y96.575333 Z-0.125000 I-17.944639 J5.210364
G03 X112.288541 Y97.779711 Z-0.125000 I-25.972368 J5.107532
G03 X112.395195 Y98.792886 Z-0.125000 I-11.688879 J1.742655
G02 X112.880591 Y98.352094 Z-0.125000 I-89.542033 J-99.090553
G02 X113.254489 Y98.007577 Z-0.125000 I-35.746220 J-39.169797
G03 X113.455240 Y98.120030 Z-0.125000 I0.082310 J0.088477
G02 X113.705545 Y99.658794 Z-0.125000 I2.163100 J0.437878
G03 X113.907856 Y100.468498 Z-0.125000 I-1.320514 J0.760069
G03 X113.742657 Y101.459084 Z-0.125000 I-3.794049 J-0.123664
G01 X114.366430 Y101.154518 Z-0.125000
G03 X114.656084 Y102.294230 Z-0.125000 I-5.025378 J1.883847
G03 X114.596241 Y103.287907 Z-0.125000 I-2.490340 J0.348662
G02 X114.424135 Y103.998969 Z-0.125000 I15.725781 J4.182641
G02 X114.560557 Y104.267938 Z-0.125000 I0.233032 J0.050887
G01 X114.869587 Y104.197323 Z-0.125000
G03 X115.157987 Y105.097167 Z-0.125000 I-2.475299 J1.289471
G03 X115.107963 Y106.086061 Z-0.125000 I-2.587691 J0.364813
G03 X114.790010 Y107.059984 Z-0.125000 I-6.737338 J-1.660652
G03 X114.322895 Y108.020446 Z-0.125000 I-7.820055 J-3.209423
G00 Z5.000000

(End cutting path id: path33183)


(Start cutting path id: path33181)
(Change tool to Default tool)

G00 Z5.000000
G00 X117.330421 Y109.079654

G01 Z-0.125000 F100.0(Penetrate)
G02 X118.158174 Y107.513141 Z-0.125000 I-3.261453 J-2.725317 F400.000000
G02 X118.602944 Y105.165949 Z-0.125000 I-12.948419 J-3.669337
G02 X118.214354 Y101.376908 Z-0.125000 I-9.497984 J-0.940368
G03 X117.737227 Y97.823560 Z-0.125000 I10.136045 J-3.169726
G02 X116.797970 Y97.538855 Z-0.125000 I-0.507221 J-0.018334
G02 X116.110710 Y98.785046 Z-0.125000 I12.490630 J7.701045
G02 X116.283645 Y96.719391 Z-0.125000 I-3.762842 J-1.355088
G02 X115.432697 Y93.999725 Z-0.125000 I-11.280665 J2.036616
G03 X114.130797 Y89.842089 Z-0.125000 I15.976841 J-7.285554
G03 X114.021715 Y85.957619 Z-0.125000 I12.708888 J-2.300651
G01 X113.237363 Y88.819965 Z-0.125000
G03 X112.263773 Y87.301144 Z-0.125000 I1.103438 J-1.778777
G03 X112.049769 Y84.016100 Z-0.125000 I27.485605 J-3.440040
G02 X111.964208 Y78.889409 Z-0.125000 I-231.095245 J1.292795
G02 X111.696489 Y70.231466 Z-0.125000 I-1383.100572 J38.434730
G03 X109.919409 Y80.658106 Z-0.125000 I-1796.589190 J-300.839651
G03 X109.135740 Y84.590995 Z-0.125000 I-79.138353 J-13.724613
G03 X108.508293 Y86.971053 Z-0.125000 I-33.253811 J-7.493863
G03 X107.792560 Y88.793575 Z-0.125000 I-11.676351 J-3.533687
G02 X107.447049 Y88.094653 Z-0.125000 I-5.450563 J2.259612
G02 X106.992505 Y87.404127 Z-0.125000 I-6.285823 J3.642828
G02 X106.638735 Y87.545396 Z-0.125000 I-0.158150 J0.117553
G03 X106.019736 Y90.769330 Z-0.125000 I-5.335948 J0.646885
G02 X105.571680 Y92.390001 Z-0.125000 I3.232375 J1.765905
G02 X105.714987 Y94.499013 Z-0.125000 I9.862779 J0.389199
G01 X104.719377 Y93.782891 Z-0.125000
G02 X104.081324 Y96.124058 Z-0.125000 I12.382722 J4.632275
G02 X104.049929 Y98.179479 Z-0.125000 I6.397341 J1.125663
G02 X104.276863 Y99.655623 Z-0.125000 I86.534069 J-12.547736
G03 X103.976416 Y100.217289 Z-0.125000 I-0.517904 J0.084153
G01 X103.472548 Y100.028985 Z-0.125000
G02 X102.865257 Y101.877432 Z-0.125000 I6.002419 J2.996023
G02 X102.821653 Y103.916300 Z-0.125000 I6.699589 J1.163181
G02 X103.217297 Y105.977034 Z-0.125000 I17.195425 J-2.233034
G02 X103.864365 Y108.034715 Z-0.125000 I19.201457 J-4.907601
G00 Z5.000000

(End cutting path id: path33181)


(Start cutting path id: path33179)
(Change tool to Default tool)

G00 Z5.000000
G00 X117.330418 Y109.079649

G01 Z-0.125000 F100.0(Penetrate)
G02 X118.158171 Y107.513135 Z-0.125000 I-3.261453 J-2.725317 F400.000000
G02 X118.602941 Y105.165943 Z-0.125000 I-12.948419 J-3.669337
G02 X118.214351 Y101.376904 Z-0.125000 I-9.497980 J-0.940367
G03 X117.737225 Y97.823554 Z-0.125000 I10.136053 J-3.169728
G02 X116.797968 Y97.538849 Z-0.125000 I-0.507220 J-0.018334
G02 X116.110707 Y98.785040 Z-0.125000 I12.490678 J7.701080
G02 X116.283642 Y96.719385 Z-0.125000 I-3.762842 J-1.355088
G02 X115.432694 Y93.999719 Z-0.125000 I-11.280665 J2.036616
G03 X114.130794 Y89.842083 Z-0.125000 I15.976841 J-7.285554
G03 X114.021713 Y85.957614 Z-0.125000 I12.708888 J-2.300651
G01 X113.237361 Y88.819962 Z-0.125000
G03 X112.263771 Y87.301139 Z-0.125000 I1.103445 J-1.778781
G03 X112.049767 Y84.016094 Z-0.125000 I27.485586 J-3.440041
G02 X111.964205 Y78.889404 Z-0.125000 I-231.095245 J1.292795
G02 X111.696487 Y70.231460 Z-0.125000 I-1383.100572 J38.434730
G03 X109.919406 Y80.658100 Z-0.125000 I-1796.589190 J-300.839651
G03 X109.135738 Y84.590989 Z-0.125000 I-79.138353 J-13.724613
G03 X108.508290 Y86.971048 Z-0.125000 I-33.253811 J-7.493863
G03 X107.792557 Y88.793569 Z-0.125000 I-11.676351 J-3.533687
G02 X107.447047 Y88.094647 Z-0.125000 I-5.450563 J2.259612
G02 X106.992502 Y87.404121 Z-0.125000 I-6.285823 J3.642828
G02 X106.638733 Y87.545389 Z-0.125000 I-0.158149 J0.117553
G03 X106.019733 Y90.769325 Z-0.125000 I-5.335946 J0.646884
G02 X105.571677 Y92.389995 Z-0.125000 I3.232375 J1.765905
G02 X105.714984 Y94.499007 Z-0.125000 I9.862779 J0.389199
G01 X104.719375 Y93.782885 Z-0.125000
G02 X104.081321 Y96.124052 Z-0.125000 I12.382712 J4.632272
G02 X104.049927 Y98.179476 Z-0.125000 I6.397356 J1.125664
G02 X104.276862 Y99.655618 Z-0.125000 I86.525893 J-12.546569
G03 X103.976416 Y100.217284 Z-0.125000 I-0.517903 J0.084154
G01 X103.472545 Y100.028980 Z-0.125000
G02 X102.865255 Y101.877427 Z-0.125000 I6.002417 J2.996022
G02 X102.821650 Y103.916297 Z-0.125000 I6.699605 J1.163182
G02 X103.217297 Y105.977029 Z-0.125000 I17.195507 J-2.233072
G02 X103.864365 Y108.034710 Z-0.125000 I19.201594 J-4.907652
G00 Z5.000000

(End cutting path id: path33179)


(Start cutting path id: path33177)
(Change tool to Default tool)

G00 Z5.000000
G00 X79.255347 Y101.999035

G01 Z-0.125000 F100.0(Penetrate)
G02 X79.670189 Y101.220695 Z-0.125000 I-1.457647 J-1.276623 F400.000000
G02 X79.837724 Y100.064650 Z-0.125000 I-4.869841 J-1.295903
G02 X79.432329 Y98.268309 Z-0.125000 I-3.724161 J-0.103454
G03 X78.984142 Y96.589602 Z-0.125000 I3.698630 J-1.886654
G02 X78.445458 Y96.443454 Z-0.125000 I-0.293156 J0.014701
G02 X78.054906 Y97.127408 Z-0.125000 I5.392417 J3.532667
G02 X78.146424 Y95.977623 Z-0.125000 I-1.967516 J-0.735140
G02 X77.558886 Y94.601722 Z-0.125000 I-3.604806 J0.725929
G03 X76.656204 Y92.706580 Z-0.125000 I5.276018 J-3.675591
G03 X76.614664 Y91.086735 Z-0.125000 I3.087276 J-0.889627
G01 X75.679007 Y92.858495 Z-0.125000
G03 X75.205741 Y91.864489 Z-0.125000 I1.858452 J-1.494513
G03 X74.950320 Y90.247931 Z-0.125000 I14.624368 J-3.139151
G02 X74.696392 Y88.336366 Z-0.125000 I-32.224398 J3.307973
G02 X74.336541 Y86.513967 Z-0.125000 I-27.682815 J4.519530
G02 X73.600471 Y89.050765 Z-0.125000 I90.621033 J27.669520
G02 X73.233162 Y90.660912 Z-0.125000 I18.027203 J4.959359
G02 X73.041911 Y91.868133 Z-0.125000 I26.160845 J4.763214
G02 X72.949111 Y92.882746 Z-0.125000 I11.765861 J1.587704
G03 X72.457739 Y92.448620 Z-0.125000 I95.512081 J-108.601732
G03 X72.079113 Y92.109561 Z-0.125000 I38.075810 J-42.900220
G02 X71.880236 Y92.224536 Z-0.125000 I-0.080996 J0.089388
G03 X71.651608 Y93.767199 Z-0.125000 I-2.158127 J0.468432
G02 X71.460527 Y94.579408 Z-0.125000 I1.329843 J0.741441
G02 X71.639473 Y95.567489 Z-0.125000 I3.791534 J-0.176417
G01 X71.011418 Y95.271483 Z-0.125000
G02 X70.738161 Y96.415237 Z-0.125000 I5.048148 J1.810588
G02 X70.812296 Y97.408436 Z-0.125000 I2.497395 J0.312953
G03 X70.993571 Y98.116833 Z-0.125000 I-15.714071 J4.398541
G03 X70.860827 Y98.387753 Z-0.125000 I-0.232619 J0.054003
G01 X70.551083 Y98.321419 Z-0.125000
G02 X70.275282 Y99.225227 Z-0.125000 I2.491867 J1.254387
G02 X70.339114 Y100.213722 Z-0.125000 I2.595154 J0.328728
G02 X70.670674 Y101.182440 Z-0.125000 I6.705362 J-1.753922
G02 X71.151302 Y102.135983 Z-0.125000 I7.776746 J-3.321923
G00 Z5.000000

(End cutting path id: path33177)


(Start cutting path id: path33175)
(Change tool to Default tool)

G00 Z5.000000
G00 X79.255344 Y101.999029

G01 Z-0.125000 F100.0(Penetrate)
G02 X79.670186 Y101.220690 Z-0.125000 I-1.457647 J-1.276623 F400.000000
G02 X79.837721 Y100.064644 Z-0.125000 I-4.869841 J-1.295903
G02 X79.432326 Y98.268306 Z-0.125000 I-3.724151 J-0.103454
G03 X78.984140 Y96.589599 Z-0.125000 I3.698627 J-1.886655
G02 X78.445455 Y96.443450 Z-0.125000 I-0.293156 J0.014701
G02 X78.054903 Y97.127402 Z-0.125000 I5.392397 J3.532665
G02 X78.146421 Y95.977619 Z-0.125000 I-1.967514 J-0.735140
G02 X77.558884 Y94.601719 Z-0.125000 I-3.604793 J0.725926
G03 X76.656201 Y92.706575 Z-0.125000 I5.276035 J-3.675598
G03 X76.614661 Y91.086729 Z-0.125000 I3.087278 J-0.889627
G01 X75.679004 Y92.858489 Z-0.125000
G03 X75.205739 Y91.864483 Z-0.125000 I1.858452 J-1.494513
G03 X74.950318 Y90.247925 Z-0.125000 I14.624368 J-3.139151
G02 X74.696389 Y88.336361 Z-0.125000 I-32.224336 J3.307967
G02 X74.336538 Y86.513964 Z-0.125000 I-27.682677 J4.519510
G02 X73.600469 Y89.050760 Z-0.125000 I90.618570 J27.668796
G02 X73.233162 Y90.660909 Z-0.125000 I18.026817 J4.959244
G02 X73.041909 Y91.868128 Z-0.125000 I26.160264 J4.763174
G02 X72.949108 Y92.882740 Z-0.125000 I11.765644 J1.587693
G03 X72.457736 Y92.448614 Z-0.125000 I95.512081 J-108.601732
G03 X72.079110 Y92.109556 Z-0.125000 I38.075810 J-42.900220
G02 X71.880233 Y92.224531 Z-0.125000 I-0.080996 J0.089388
G03 X71.651605 Y93.767194 Z-0.125000 I-2.158125 J0.468432
G02 X71.460526 Y94.579402 Z-0.125000 I1.329853 J0.741441
G02 X71.639470 Y95.567484 Z-0.125000 I3.791561 J-0.176417
G01 X71.011415 Y95.271478 Z-0.125000
G02 X70.738158 Y96.415231 Z-0.125000 I5.048148 J1.810588
G02 X70.812294 Y97.408430 Z-0.125000 I2.497395 J0.312953
G03 X70.993568 Y98.116827 Z-0.125000 I-15.713710 J4.398439
G03 X70.860824 Y98.387750 Z-0.125000 I-0.232622 J0.054004
G01 X70.551080 Y98.321417 Z-0.125000
G02 X70.275280 Y99.225222 Z-0.125000 I2.491851 J1.254383
G02 X70.339111 Y100.213717 Z-0.125000 I2.595152 J0.328727
G02 X70.670673 Y101.182434 Z-0.125000 I6.705431 J-1.753960
G02 X71.151302 Y102.135977 Z-0.125000 I7.776817 J-3.321964
G00 Z5.000000

(End cutting path id: path33175)


(Start cutting path id: path33173)
(Change tool to Default tool)

G00 Z5.000000
G00 X68.132362 Y103.265800

G01 Z-0.125000 F100.0(Penetrate)
G03 X67.282822 Y101.711099 Z-0.125000 I3.224837 J-2.771617 F400.000000
G03 X66.804885 Y99.370640 Z-0.125000 I12.904048 J-3.854119
G03 X67.140528 Y95.576302 Z-0.125000 I9.485577 J-1.072930
G02 X67.567827 Y92.016837 Z-0.125000 I-10.178174 J-3.027230
G03 X68.502822 Y91.719143 Z-0.125000 I0.506791 J-0.025433
G03 X69.207191 Y92.955500 Z-0.125000 I-12.386041 J7.875318
G03 X69.005394 Y90.892521 Z-0.125000 I3.744056 J-1.407597
G03 X69.818118 Y88.161620 Z-0.125000 I11.302543 J1.877283
G02 X71.061545 Y83.986294 Z-0.125000 I-16.075841 J-7.060256
G02 X71.116334 Y80.100255 Z-0.125000 I-12.745775 J-2.123108
G01 X71.940655 Y82.951191 Z-0.125000
G02 X72.892898 Y81.419416 Z-0.125000 I-1.126576 J-1.762220
G02 X73.060448 Y78.131634 Z-0.125000 I-27.518512 J-3.050539
G03 X73.074030 Y73.004187 Z-0.125000 I232.173680 J-1.948723
G03 X73.219604 Y64.343433 Z-0.125000 I1389.883948 J19.030219
G02 X75.143412 Y74.744106 Z-0.125000 I1794.283130 J-326.509562
G02 X75.982328 Y78.665872 Z-0.125000 I79.044359 J-14.857988
G02 X76.643006 Y81.036777 Z-0.125000 I33.158780 J-7.962545
G02 X77.384030 Y82.848479 Z-0.125000 I11.613389 J-3.692720
G03 X77.720129 Y82.145080 Z-0.125000 I5.511167 J2.201361
G03 X78.164815 Y81.448332 Z-0.125000 I6.373015 J3.577166
G03 X78.520554 Y81.584750 Z-0.125000 I0.159770 J0.115409
G02 X79.184690 Y84.799983 Z-0.125000 I5.342268 J0.572715
G03 X79.655889 Y86.414024 Z-0.125000 I-3.203807 J1.811112
G03 X79.542254 Y88.524673 Z-0.125000 I-9.848767 J0.528137
G01 X80.527156 Y87.794999 Z-0.125000
G03 X81.198154 Y90.126823 Z-0.125000 I-12.302453 J4.802568
G03 X81.257984 Y92.181602 Z-0.125000 I-6.373708 J1.213848
G03 X81.051750 Y93.660733 Z-0.125000 I-86.485226 J-11.304647
G02 X81.360042 Y94.217984 Z-0.125000 I0.518823 J0.076873
G01 X81.861057 Y94.022548 Z-0.125000
G03 X82.494671 Y95.862224 Z-0.125000 I-5.957819 J3.080922
G03 X82.566906 Y97.899878 Z-0.125000 I-6.673384 J1.256678
G03 X82.200076 Y99.965978 Z-0.125000 I-17.239668 J-1.995233
G03 X81.582001 Y102.032557 Z-0.125000 I-19.282913 J-4.641443
G00 Z5.000000

(End cutting path id: path33173)


(Start cutting path id: path33171)
(Change tool to Default tool)

G00 Z5.000000
G00 X68.132362 Y103.265795

G01 Z-0.125000 F100.0(Penetrate)
G03 X67.282820 Y101.711094 Z-0.125000 I3.224830 J-2.771618 F400.000000
G03 X66.804882 Y99.370634 Z-0.125000 I12.903997 J-3.854114
G03 X67.140526 Y95.576297 Z-0.125000 I9.485609 J-1.072924
G02 X67.567827 Y92.016832 Z-0.125000 I-10.178218 J-3.027240
G03 X68.502821 Y91.719137 Z-0.125000 I0.506791 J-0.025433
G03 X69.207191 Y92.955494 Z-0.125000 I-12.386089 J7.875354
G03 X69.005393 Y90.892515 Z-0.125000 I3.744060 J-1.407599
G03 X69.818115 Y88.161614 Z-0.125000 I11.302549 J1.877277
G02 X71.061542 Y83.986288 Z-0.125000 I-16.075841 J-7.060256
G02 X71.116332 Y80.100249 Z-0.125000 I-12.745775 J-2.123108
G01 X71.940655 Y82.951185 Z-0.125000
G02 X72.892896 Y81.419410 Z-0.125000 I-1.126578 J-1.762219
G02 X73.060445 Y78.131628 Z-0.125000 I-27.518675 J-3.050538
G03 X73.074027 Y73.004181 Z-0.125000 I232.173680 J-1.948723
G03 X73.219601 Y64.343427 Z-0.125000 I1389.883948 J19.030219
G02 X75.143409 Y74.744101 Z-0.125000 I1794.283130 J-326.509562
G02 X75.982325 Y78.665866 Z-0.125000 I79.044359 J-14.857988
G02 X76.643003 Y81.036771 Z-0.125000 I33.158780 J-7.962545
G02 X77.384027 Y82.848473 Z-0.125000 I11.613389 J-3.692720
G03 X77.720129 Y82.145076 Z-0.125000 I5.511287 J2.201440
G03 X78.164815 Y81.448326 Z-0.125000 I6.373221 J3.577295
G03 X78.520552 Y81.584743 Z-0.125000 I0.159769 J0.115408
G02 X79.184687 Y84.799978 Z-0.125000 I5.342265 J0.572718
G03 X79.655886 Y86.414019 Z-0.125000 I-3.203807 J1.811112
G03 X79.542251 Y88.524668 Z-0.125000 I-9.848767 J0.528137
G01 X80.527153 Y87.794993 Z-0.125000
G03 X81.198151 Y90.126817 Z-0.125000 I-12.302453 J4.802568
G03 X81.257981 Y92.181596 Z-0.125000 I-6.373708 J1.213848
G03 X81.051747 Y93.660727 Z-0.125000 I-86.485226 J-11.304647
G02 X81.360039 Y94.217979 Z-0.125000 I0.518823 J0.076873
G01 X81.861057 Y94.022543 Z-0.125000
G03 X82.494669 Y95.862220 Z-0.125000 I-5.957852 J3.080925
G03 X82.566903 Y97.899873 Z-0.125000 I-6.673389 J1.256675
G03 X82.200074 Y99.965973 Z-0.125000 I-17.239786 J-1.995247
G03 X81.582001 Y102.032554 Z-0.125000 I-19.283078 J-4.641467
G00 Z5.000000

(End cutting path id: path33171)


(Start cutting path id: path33169)
(Change tool to Default tool)

G00 Z5.000000
G00 X96.295600 Y182.493563

G01 Z-0.125000 F100.0(Penetrate)
G02 X95.514022 Y183.322330 Z-0.125000 I1.048274 J1.771507 F400.000000
G02 X95.229336 Y184.708976 Z-0.125000 I2.331587 J1.201234
G02 X95.943993 Y186.272850 Z-0.125000 I2.448280 J-0.173584
G02 X97.510313 Y186.686157 Z-0.125000 I1.138870 J-1.141389
G02 X98.782625 Y186.220249 Z-0.125000 I-2.154729 J-7.854366
G02 X99.575756 Y185.623385 Z-0.125000 I-0.997946 J-2.151500
G02 X98.685693 Y187.513705 Z-0.125000 I4.629881 J3.334699
G02 X98.639385 Y189.662628 Z-0.125000 I4.476836 J1.171433
G02 X100.285451 Y191.666021 Z-0.125000 I2.771007 J-0.598835
G02 X102.746003 Y191.510707 Z-0.125000 I1.077804 J-2.493190
G02 X104.147779 Y190.501792 Z-0.125000 I-4.924348 J-8.320099
G02 X104.746496 Y189.534951 Z-0.125000 I-1.246684 J-1.440809
G00 Z5.000000

(End cutting path id: path33169)


(Start cutting path id: path33169)
(Change tool to Default tool)

G00 Z5.000000
G00 X116.597453 Y191.288880

G01 Z-0.125000 F100.0(Penetrate)
G02 X113.343492 Y190.077914 Z-0.125000 I-4.592570 J7.363290 F400.000000
G02 X109.817321 Y190.547081 Z-0.125000 I-0.968712 J6.204937
G02 X106.284275 Y193.688486 Z-0.125000 I3.180331 J7.134285
G02 X106.594976 Y201.166940 Z-0.125000 I5.886558 J3.501117
G02 X111.803495 Y203.774143 Z-0.125000 I5.065861 J-3.614042
G02 X116.461851 Y202.301039 Z-0.125000 I-0.200313 J-8.735487
G00 Z5.000000

(End cutting path id: path33169)


(Start cutting path id: path16745)
(Change tool to Default tool)

G00 Z5.000000
G00 X20.582235 Y11.371814

G01 Z-0.125000 F100.0(Penetrate)
G02 X19.870739 Y13.250354 Z-0.125000 I5.463309 J3.143234 F400.000000
G02 X20.048389 Y15.317614 Z-0.125000 I3.581298 J0.733504
G02 X22.778955 Y18.157049 Z-0.125000 I4.799570 J-1.882892
G02 X27.242465 Y18.468834 Z-0.125000 I2.668008 J-6.089505
G02 X29.657068 Y17.103846 Z-0.125000 I-1.565408 J-5.587293
G02 X30.880183 Y15.161407 Z-0.125000 I-3.145437 J-3.336924
G00 Z5.000000

(End cutting path id: path16745)


