(Header)
(Generated by gcodetools from Inkscape.)
(Using default header. To add your own header create file "header" in the output dir.)
M3
(Header end.)
G21 (All units in mm)

(Start cutting path id: path4826)
(Change tool to Default tool)

G00 Z5.000000
G00 X67.156654 Y84.730738

G01 Z-0.125000 F100.0(Penetrate)
G02 X68.343841 Y83.533541 Z-0.125000 I-0.148248 J-1.334238 F400.000000
G02 X68.165968 Y81.900515 Z-0.125000 I-3.905619 J-0.400791
G00 Z5.000000

(End cutting path id: path4826)


(Start cutting path id: polyline4824)
(Change tool to Default tool)

G00 Z5.000000
G00 X68.165968 Y81.900283

G01 Z-0.125000 F100.0(Penetrate)
G01 X69.779954 Y79.100182 Z-0.125000 F400.000000
G01 X69.789155 Y79.086381 Z-0.125000
G00 Z5.000000

(End cutting path id: polyline4824)


(Start cutting path id: polyline4822)
(Change tool to Default tool)

G00 Z5.000000
G00 X69.789149 Y79.102479

G01 Z-0.125000 F100.0(Penetrate)
G01 X69.796289 Y79.090993 Z-0.125000 F400.000000
G01 X69.952401 Y78.856483 Z-0.125000
G01 X70.136330 Y78.690945 Z-0.125000
G01 X70.334055 Y78.573691 Z-0.125000
G01 X70.550173 Y78.523108 Z-0.125000
G00 Z5.000000

(End cutting path id: polyline4822)


(Start cutting path id: line4820)
(Change tool to Default tool)

G00 Z5.000000
G00 X70.550161 Y78.523099

G01 Z-0.125000 F100.0(Penetrate)
G01 X72.336583 Y78.442401 Z-0.125000 F400.000000
G00 Z5.000000

(End cutting path id: line4820)


(Start cutting path id: polyline4818)
(Change tool to Default tool)

G00 Z5.000000
G00 X64.176985 Y96.219463

G01 Z-0.125000 F100.0(Penetrate)
G01 X66.326669 Y95.210149 Z-0.125000 F400.000000
G01 X66.354270 Y95.196348 Z-0.125000
G01 X66.361157 Y95.194090 Z-0.125000
G00 Z5.000000

(End cutting path id: polyline4818)


(Start cutting path id: polyline4816)
(Change tool to Default tool)

G00 Z5.000000
G00 X66.361154 Y95.210149

G01 Z-0.125000 F100.0(Penetrate)
G01 X66.354268 Y95.196348 Z-0.125000 F400.000000
G01 X66.154243 Y94.860676 Z-0.125000
G01 X65.809373 Y94.267501 Z-0.125000
G01 X65.797886 Y94.248874 Z-0.125000
G00 Z5.000000

(End cutting path id: polyline4816)


(Start cutting path id: polyline4814)
(Change tool to Default tool)

G00 Z5.000000
G00 X65.816262 Y94.267507

G01 Z-0.125000 F100.0(Penetrate)
G01 X70.451299 Y86.225167 Z-0.125000 F400.000000
G01 X70.451299 Y86.220567 Z-0.125000
G00 Z5.000000

(End cutting path id: polyline4814)


(Start cutting path id: polyline4812)
(Change tool to Default tool)

G00 Z5.000000
G00 X69.952389 Y97.279360

G01 Z-0.125000 F100.0(Penetrate)
G01 X71.534186 Y94.515812 Z-0.125000 F400.000000
G01 X71.536443 Y94.506611 Z-0.125000
G01 X71.543330 Y94.497411 Z-0.125000
G00 Z5.000000

(End cutting path id: polyline4812)


(Start cutting path id: polyline4810)
(Change tool to Default tool)

G00 Z5.000000
G00 X71.543383 Y94.515812

G01 Z-0.125000 F100.0(Penetrate)
G01 X71.536497 Y94.506611 Z-0.125000 F400.000000
G01 X71.005397 Y93.570867 Z-0.125000
G01 X70.996197 Y93.554554 Z-0.125000
G00 Z5.000000

(End cutting path id: polyline4810)


(Start cutting path id: polyline4808)
(Change tool to Default tool)

G00 Z5.000000
G00 X71.012515 Y93.570872

G01 Z-0.125000 F100.0(Penetrate)
G01 X72.384863 Y91.177484 Z-0.125000 F400.000000
G01 X72.387120 Y91.170598 Z-0.125000
G00 Z5.000000

(End cutting path id: polyline4808)


(Start cutting path id: path4806)
(Change tool to Default tool)

G00 Z5.000000
G00 X72.387160 Y91.186679

G01 Z-0.125000 F100.0(Penetrate)
G01 X72.389129 Y91.182936 Z-0.125000 F400.000000
G01 X72.389418 Y91.179792 Z-0.125000
G01 X72.391920 Y91.177333 Z-0.125000
G02 X72.391958 Y91.172906 Z-0.125000 I-0.257319 J-0.004427
G02 X72.741081 Y90.243002 Z-0.125000 I-3.387584 J-1.802323
G02 X72.817298 Y89.266933 Z-0.125000 I-3.159921 J-0.737755
G00 Z5.000000

(End cutting path id: path4806)


(Start cutting path id: line4804)
(Change tool to Default tool)

G00 Z5.000000
G00 X68.595905 Y79.102482

G01 Z-0.125000 F100.0(Penetrate)
G01 X69.391399 Y79.102482 Z-0.125000 F400.000000
G00 Z5.000000

(End cutting path id: line4804)


(Start cutting path id: line4802)
(Change tool to Default tool)

G00 Z5.000000
G00 X69.375541 Y78.523099

G01 Z-0.125000 F100.0(Penetrate)
G01 X70.152414 Y78.523099 Z-0.125000 F400.000000
G00 Z5.000000

(End cutting path id: line4802)


(Start cutting path id: polyline4800)
(Change tool to Default tool)

G00 Z5.000000
G00 X68.347597 Y91.749735

G01 Z-0.125000 F100.0(Penetrate)
G01 X69.421521 Y91.749735 Z-0.125000 F400.000000
G01 X69.439668 Y91.749735 Z-0.125000
G00 Z5.000000

(End cutting path id: polyline4800)


(Start cutting path id: polyline4798)
(Change tool to Default tool)

G00 Z5.000000
G00 X63.167671 Y92.446601

G01 Z-0.125000 F100.0(Penetrate)
G01 X64.225268 Y92.446601 Z-0.125000 F400.000000
G01 X64.243669 Y92.446601 Z-0.125000
G00 Z5.000000

(End cutting path id: polyline4798)


(Start cutting path id: line4796)
(Change tool to Default tool)

G00 Z5.000000
G00 X62.569896 Y96.219460

G01 Z-0.125000 F100.0(Penetrate)
G01 X64.176985 Y96.219460 Z-0.125000 F400.000000
G00 Z5.000000

(End cutting path id: line4796)


(Start cutting path id: polyline4794)
(Change tool to Default tool)

G00 Z5.000000
G00 X64.756365 Y95.210149

G01 Z-0.125000 F100.0(Penetrate)
G01 X66.326669 Y95.210149 Z-0.125000 F400.000000
G01 X66.361154 Y95.210149 Z-0.125000
G00 Z5.000000

(End cutting path id: polyline4794)


(Start cutting path id: polyline4792)
(Change tool to Default tool)

G00 Z5.000000
G00 X64.209175 Y94.267507

G01 Z-0.125000 F100.0(Penetrate)
G01 X65.809364 Y94.267507 Z-0.125000 F400.000000
G01 X65.816250 Y94.267507 Z-0.125000
G00 Z5.000000

(End cutting path id: polyline4792)


(Start cutting path id: polyline4790)
(Change tool to Default tool)

G00 Z5.000000
G00 X67.156654 Y84.730738

G01 Z-0.125000 F100.0(Penetrate)
G01 X65.577155 Y84.730738 Z-0.125000 F400.000000
G01 X65.533469 Y84.730738 Z-0.125000
G00 Z5.000000

(End cutting path id: polyline4790)


(Start cutting path id: line4788)
(Change tool to Default tool)

G00 Z5.000000
G00 X66.561176 Y81.900286

G01 Z-0.125000 F100.0(Penetrate)
G01 X68.165971 Y81.900286 Z-0.125000 F400.000000
G00 Z5.000000

(End cutting path id: line4788)


(Start cutting path id: line4786)
(Change tool to Default tool)

G00 Z5.000000
G00 X71.196213 Y91.186679

G01 Z-0.125000 F100.0(Penetrate)
G01 X71.973318 Y91.186679 Z-0.125000 F400.000000
G00 Z5.000000

(End cutting path id: line4786)


(Start cutting path id: line4784)
(Change tool to Default tool)

G00 Z5.000000
G00 X71.642246 Y89.266910

G01 Z-0.125000 F100.0(Penetrate)
G01 X72.419350 Y89.266910 Z-0.125000 F400.000000
G00 Z5.000000

(End cutting path id: line4784)


(Start cutting path id: path4782)
(Change tool to Default tool)

G00 Z5.000000
G00 X74.339119 Y76.720586

G01 Z-0.125000 F100.0(Penetrate)
G02 X74.926741 Y77.168285 Z-0.125000 I1.475294 J-1.326893 F400.000000
G02 X75.396716 Y77.279273 Z-0.125000 I0.469974 J-0.939550
G02 X76.122430 Y77.023111 Z-0.125000 I0.000000 J-1.156069
G02 X76.806080 Y76.189488 Z-0.125000 I-1.660110 J-2.058587
G02 X77.321621 Y74.039577 Z-0.125000 I-4.478931 J-2.210800
G02 X76.824481 Y71.885526 Z-0.125000 I-4.668588 J-0.056916
G02 X76.205120 Y71.066083 Z-0.125000 I-2.463561 J1.218250
G02 X75.527774 Y70.761254 Z-0.125000 I-0.810076 J0.895069
G02 X75.010691 Y70.833776 Z-0.125000 I-0.122614 J1.005436
G02 X74.357520 Y71.290054 Z-0.125000 I0.745236 J1.762472
G02 X73.455944 Y73.493448 Z-0.125000 I2.835840 J2.446506
G02 X73.826191 Y75.842321 Z-0.125000 I5.405242 J0.351602
G00 Z5.000000

(End cutting path id: path4782)


(Start cutting path id: line4780)
(Change tool to Default tool)

G00 Z5.000000
G00 X73.826414 Y75.842093

G01 Z-0.125000 F100.0(Penetrate)
G01 X73.430964 Y76.520563 Z-0.125000 F400.000000
G00 Z5.000000

(End cutting path id: line4780)


(Start cutting path id: path4778)
(Change tool to Default tool)

G00 Z5.000000
G00 X66.064569 Y81.024319

G01 Z-0.125000 F100.0(Penetrate)
G01 X66.056904 Y81.018193 Z-0.125000 F400.000000
G01 X66.053083 Y81.015119 Z-0.125000
G02 X65.296698 Y80.910126 Z-0.125000 I-0.465555 J0.576881
G02 X64.740284 Y81.419763 Z-0.125000 I0.445852 J1.045335
G02 X64.417648 Y82.716862 Z-0.125000 I2.470131 J1.303086
G02 X64.689704 Y84.020074 Z-0.125000 I3.224262 J0.006913
G02 X65.228689 Y84.615942 Z-0.125000 I1.737442 J-1.029883
G02 X65.577166 Y84.730504 Z-0.125000 I0.348476 J-0.472721
G02 X66.593598 Y84.002672 Z-0.125000 I0.000000 J-1.073650
G02 X66.561190 Y81.900281 Z-0.125000 I-2.956466 J-1.005873
G00 Z5.000000

(End cutting path id: path4778)


(Start cutting path id: polyline4776)
(Change tool to Default tool)

G00 Z5.000000
G00 X67.768221 Y78.044654

G01 Z-0.125000 F100.0(Penetrate)
G01 X66.170326 Y80.808199 Z-0.125000 F400.000000
G01 X66.053072 Y81.015122 Z-0.125000
G01 X66.046185 Y81.024322 Z-0.125000
G00 Z5.000000

(End cutting path id: polyline4776)


(Start cutting path id: path4774)
(Change tool to Default tool)

G00 Z5.000000
G00 X68.795927 Y77.281573

G01 Z-0.125000 F100.0(Penetrate)
G01 X68.777526 Y77.281573 Z-0.125000 F400.000000
G02 X68.180285 Y77.543013 Z-0.125000 I0.041713 J0.908190
G02 X67.768212 Y78.044882 Z-0.125000 I2.198058 J2.224876
G00 Z5.000000

(End cutting path id: path4774)


(Start cutting path id: line4772)
(Change tool to Default tool)

G00 Z5.000000
G00 X72.686050 Y77.083845

G01 Z-0.125000 F100.0(Penetrate)
G01 X68.795927 Y77.281570 Z-0.125000 F400.000000
G00 Z5.000000

(End cutting path id: line4772)


(Start cutting path id: polyline4770)
(Change tool to Default tool)

G00 Z5.000000
G00 X73.447057 Y76.520563

G01 Z-0.125000 F100.0(Penetrate)
G01 X73.440170 Y76.529764 Z-0.125000 F400.000000
G01 X73.281531 Y76.752550 Z-0.125000
G01 X73.097601 Y76.934180 Z-0.125000
G01 X72.883783 Y77.033274 Z-0.125000
G01 X72.686059 Y77.083854 Z-0.125000
G00 Z5.000000

(End cutting path id: polyline4770)


(Start cutting path id: polyline4768)
(Change tool to Default tool)

G00 Z5.000000
G00 X63.696471 Y93.389240

G01 Z-0.125000 F100.0(Penetrate)
G01 X63.687270 Y93.375439 Z-0.125000 F400.000000
G01 X63.163071 Y92.455787 Z-0.125000
G01 X63.149270 Y92.428214 Z-0.125000
G00 Z5.000000

(End cutting path id: polyline4768)


(Start cutting path id: polyline4766)
(Change tool to Default tool)

G00 Z5.000000
G00 X72.387160 Y78.357333

G01 Z-0.125000 F100.0(Penetrate)
G01 X72.336580 Y78.442401 Z-0.125000 F400.000000
G01 X64.225268 Y92.446601 Z-0.125000
G01 X63.687273 Y93.375447 Z-0.125000
G01 X63.680387 Y93.389248 Z-0.125000
G00 Z5.000000

(End cutting path id: polyline4766)


(Start cutting path id: line4764)
(Change tool to Default tool)

G00 Z5.000000
G00 X68.943301 Y78.523099

G01 Z-0.125000 F100.0(Penetrate)
G01 X72.387163 Y78.357336 Z-0.125000 F400.000000
G00 Z5.000000

(End cutting path id: line4764)


(Start cutting path id: polyline4762)
(Change tool to Default tool)

G00 Z5.000000
G00 X68.182063 Y79.102479

G01 Z-0.125000 F100.0(Penetrate)
G01 X68.188949 Y79.090993 Z-0.125000 F400.000000
G01 X68.347586 Y78.856483 Z-0.125000
G01 X68.529219 Y78.690945 Z-0.125000
G01 X68.745336 Y78.573691 Z-0.125000
G01 X68.943290 Y78.523108 Z-0.125000
G00 Z5.000000

(End cutting path id: polyline4762)


(Start cutting path id: polyline4760)
(Change tool to Default tool)

G00 Z5.000000
G00 X66.561179 Y81.900283

G01 Z-0.125000 F100.0(Penetrate)
G01 X68.175165 Y79.100182 Z-0.125000 F400.000000
G01 X68.182052 Y79.086381 Z-0.125000
G00 Z5.000000

(End cutting path id: polyline4760)


(Start cutting path id: line4758)
(Change tool to Default tool)

G00 Z5.000000
G00 X70.400719 Y83.539557

G01 Z-0.125000 F100.0(Penetrate)
G01 X70.451296 Y86.220569 Z-0.125000 F400.000000
G00 Z5.000000

(End cutting path id: line4758)


(Start cutting path id: line4756)
(Change tool to Default tool)

G00 Z5.000000
G00 X70.451296 Y86.225167

G01 Z-0.125000 F100.0(Penetrate)
G01 X70.499579 Y89.052861 Z-0.125000 F400.000000
G00 Z5.000000

(End cutting path id: line4756)


(Start cutting path id: polyline4754)
(Change tool to Default tool)

G00 Z5.000000
G00 X64.209175 Y94.267507

G01 Z-0.125000 F100.0(Penetrate)
G01 X70.391521 Y83.537491 Z-0.125000 F400.000000
G01 X70.400722 Y83.523691 Z-0.125000
G00 Z5.000000

(End cutting path id: polyline4754)


(Start cutting path id: polyline4752)
(Change tool to Default tool)

G00 Z5.000000
G00 X64.756365 Y95.210149

G01 Z-0.125000 F100.0(Penetrate)
G01 X64.747164 Y95.196348 Z-0.125000 F400.000000
G01 X64.204570 Y94.269801 Z-0.125000
G01 X64.193083 Y94.248889 Z-0.125000
G00 Z5.000000

(End cutting path id: polyline4752)


(Start cutting path id: polyline4750)
(Change tool to Default tool)

G00 Z5.000000
G00 X62.569899 Y96.219463

G01 Z-0.125000 F100.0(Penetrate)
G01 X64.747170 Y95.196354 Z-0.125000 F400.000000
G01 X64.756370 Y95.194096 Z-0.125000
G00 Z5.000000

(End cutting path id: polyline4750)


(Start cutting path id: polyline4748)
(Change tool to Default tool)

G00 Z5.000000
G00 X63.167671 Y92.446601

G01 Z-0.125000 F100.0(Penetrate)
G01 X63.163071 Y92.455801 Z-0.125000 F400.000000
G01 X62.569896 Y96.219469 Z-0.125000
G00 Z5.000000

(End cutting path id: polyline4748)


(Start cutting path id: polyline4746)
(Change tool to Default tool)

G00 Z5.000000
G00 X68.347597 Y97.279360

G01 Z-0.125000 F100.0(Penetrate)
G01 X69.947789 Y94.506617 Z-0.125000 F400.000000
G01 X69.952389 Y94.497416 Z-0.125000
G00 Z5.000000

(End cutting path id: polyline4746)


(Start cutting path id: polyline4744)
(Change tool to Default tool)

G00 Z5.000000
G00 X66.758904 Y94.515812

G01 Z-0.125000 F100.0(Penetrate)
G01 X66.952031 Y94.853552 Z-0.125000 F400.000000
G01 X68.347597 Y97.279360 Z-0.125000
G00 Z5.000000

(End cutting path id: polyline4744)


(Start cutting path id: polyline4742)
(Change tool to Default tool)

G00 Z5.000000
G00 X68.347597 Y91.749735

G01 Z-0.125000 F100.0(Penetrate)
G01 X68.345340 Y91.756875 Z-0.125000 F400.000000
G01 X66.747448 Y94.506628 Z-0.125000
G01 X66.742848 Y94.515828 Z-0.125000
G00 Z5.000000

(End cutting path id: polyline4742)


(Start cutting path id: polyline4740)
(Change tool to Default tool)

G00 Z5.000000
G00 X68.895021 Y92.676513

G01 Z-0.125000 F100.0(Penetrate)
G01 X68.885821 Y92.662712 Z-0.125000 F400.000000
G01 X68.345297 Y91.756858 Z-0.125000
G01 X68.331497 Y91.733631 Z-0.125000
G00 Z5.000000

(End cutting path id: polyline4740)


(Start cutting path id: polyline4738)
(Change tool to Default tool)

G00 Z5.000000
G00 X70.168735 Y90.476249

G01 Z-0.125000 F100.0(Penetrate)
G01 X69.421521 Y91.749735 Z-0.125000 F400.000000
G01 X68.885823 Y92.662718 Z-0.125000
G01 X68.878711 Y92.676518 Z-0.125000
G00 Z5.000000

(End cutting path id: polyline4738)


(Start cutting path id: polyline4736)
(Change tool to Default tool)

G00 Z5.000000
G00 X70.499579 Y89.052861

G01 Z-0.125000 F100.0(Penetrate)
G01 X70.483492 Y89.432447 Z-0.125000 F400.000000
G01 X70.416817 Y89.830194 Z-0.125000
G01 X70.317954 Y90.177133 Z-0.125000
G01 X70.168741 Y90.476249 Z-0.125000
G00 Z5.000000

(End cutting path id: polyline4736)


(Start cutting path id: polyline4734)
(Change tool to Default tool)

G00 Z5.000000
G00 X71.460613 Y81.734977

G01 Z-0.125000 F100.0(Penetrate)
G01 X71.561776 Y81.555416 Z-0.125000 F400.000000
G01 X74.332221 Y76.718057 Z-0.125000
G01 X74.339108 Y76.702196 Z-0.125000
G00 Z5.000000

(End cutting path id: polyline4734)


(Start cutting path id: polyline4732)
(Change tool to Default tool)

G00 Z5.000000
G00 X71.228403 Y89.266910

G01 Z-0.125000 F100.0(Penetrate)
G01 X71.226146 Y89.041595 Z-0.125000 F400.000000
G01 X71.129583 Y83.176529 Z-0.125000
G01 X71.129583 Y83.158128 Z-0.125000
G00 Z5.000000

(End cutting path id: polyline4732)


(Start cutting path id: path4730)
(Change tool to Default tool)

G00 Z5.000000
G00 X70.782602 Y91.186679

G01 Z-0.125000 F100.0(Penetrate)
G01 X70.784571 Y91.182936 Z-0.125000 F400.000000
G01 X70.784860 Y91.179792 Z-0.125000
G01 X70.787127 Y91.177516 Z-0.125000
G03 X70.787118 Y91.172906 Z-0.125000 I1.131053 J-0.004610
G02 X71.131680 Y90.248199 Z-0.125000 I-2.694905 J-1.530719
G02 X71.228550 Y89.266933 Z-0.125000 I-4.921565 J-0.981267
G00 Z5.000000

(End cutting path id: path4730)


(Start cutting path id: polyline4728)
(Change tool to Default tool)

G00 Z5.000000
G00 X69.407494 Y93.570872

G01 Z-0.125000 F100.0(Penetrate)
G01 X70.780074 Y91.177484 Z-0.125000 F400.000000
G01 X70.782614 Y91.170598 Z-0.125000
G00 Z5.000000

(End cutting path id: polyline4728)


(Start cutting path id: polyline4726)
(Change tool to Default tool)

G00 Z5.000000
G00 X69.952389 Y94.515812

G01 Z-0.125000 F100.0(Penetrate)
G01 X69.947789 Y94.506611 Z-0.125000 F400.000000
G01 X69.403128 Y93.572935 Z-0.125000
G01 X69.391388 Y93.554534 Z-0.125000
G00 Z5.000000

(End cutting path id: polyline4726)


(Start cutting path id: line4724)
(Change tool to Default tool)

G00 Z5.000000
G00 X68.347597 Y97.279360

G01 Z-0.125000 F100.0(Penetrate)
G01 X69.952386 Y97.279360 Z-0.125000 F400.000000
G00 Z5.000000

(End cutting path id: line4724)


(Start cutting path id: polyline4722)
(Change tool to Default tool)

G00 Z5.000000
G00 X69.952389 Y94.515812

G01 Z-0.125000 F100.0(Penetrate)
G01 X71.534186 Y94.515812 Z-0.125000 F400.000000
G01 X71.543386 Y94.515812 Z-0.125000
G00 Z5.000000

(End cutting path id: polyline4722)


(Start cutting path id: polyline4720)
(Change tool to Default tool)

G00 Z5.000000
G00 X69.407494 Y93.570872

G01 Z-0.125000 F100.0(Penetrate)
G01 X71.005386 Y93.570872 Z-0.125000 F400.000000
G01 X71.012526 Y93.570872 Z-0.125000
G00 Z5.000000

(End cutting path id: polyline4720)


(Start cutting path id: line4718)
(Change tool to Default tool)

G00 Z5.000000
G00 X71.543380 Y83.176532

G01 Z-0.125000 F100.0(Penetrate)
G01 X72.320488 Y83.176532 Z-0.125000 F400.000000
G00 Z5.000000

(End cutting path id: line4718)


(Start cutting path id: polyline4716)
(Change tool to Default tool)

G00 Z5.000000
G00 X71.129541 Y83.158137

G01 Z-0.125000 F100.0(Penetrate)
G01 X71.145853 Y82.778779 Z-0.125000 F400.000000
G01 X71.196202 Y82.397124 Z-0.125000
G01 X71.311159 Y82.033865 Z-0.125000
G01 X71.460602 Y81.734977 Z-0.125000
G00 Z5.000000

(End cutting path id: polyline4716)


(Start cutting path id: polyline4714)
(Change tool to Default tool)

G00 Z5.000000
G00 X72.817097 Y89.266910

G01 Z-0.125000 F100.0(Penetrate)
G01 X72.718466 Y83.176529 Z-0.125000 F400.000000
G01 X72.718466 Y83.158128 Z-0.125000
G00 Z5.000000

(End cutting path id: polyline4714)


(Start cutting path id: polyline4712)
(Change tool to Default tool)

G00 Z5.000000
G00 X73.049310 Y81.734977

G01 Z-0.125000 F100.0(Penetrate)
G01 X75.605935 Y77.281573 Z-0.125000 F400.000000
G01 X75.615136 Y77.265260 Z-0.125000
G00 Z5.000000

(End cutting path id: polyline4712)


(Start cutting path id: line4710)
(Change tool to Default tool)

G00 Z5.000000
G00 X71.874687 Y81.734975

G01 Z-0.125000 F100.0(Penetrate)
G01 X72.651794 Y81.734975 Z-0.125000 F400.000000
G00 Z5.000000

(End cutting path id: line4710)


(Start cutting path id: polyline4708)
(Change tool to Default tool)

G00 Z5.000000
G00 X75.399244 Y70.761254

G01 Z-0.125000 F100.0(Penetrate)
G01 X75.527765 Y70.761254 Z-0.125000 F400.000000
G01 X76.990238 Y70.761254 Z-0.125000
G00 Z5.000000

(End cutting path id: polyline4708)


(Start cutting path id: polyline4706)
(Change tool to Default tool)

G00 Z5.000000
G00 X65.549564 Y80.808199

G01 Z-0.125000 F100.0(Penetrate)
G01 X66.170326 Y80.808199 Z-0.125000 F400.000000
G01 X66.179527 Y80.808199 Z-0.125000
G00 Z5.000000

(End cutting path id: polyline4706)


(Start cutting path id: path4704)
(Change tool to Default tool)

G00 Z5.000000
G00 X76.990238 Y77.281573

G01 Z-0.125000 F100.0(Penetrate)
G02 X78.361718 Y76.334630 Z-0.125000 I-0.121759 J-1.642992 F400.000000
G02 X78.874946 Y74.018827 Z-0.125000 I-4.968108 J-2.315803
G02 X78.361372 Y71.704616 Z-0.125000 I-5.470818 J0.000000
G02 X76.990238 Y70.761254 Z-0.125000 I-1.488029 J0.694663
G00 Z5.000000

(End cutting path id: path4704)


(Start cutting path id: polyline4702)
(Change tool to Default tool)

G00 Z5.000000
G00 X76.990238 Y77.281573

G01 Z-0.125000 F100.0(Penetrate)
G01 X75.605935 Y77.281573 Z-0.125000 F400.000000
G01 X75.396716 Y77.281573 Z-0.125000
G01 X75.382915 Y77.281573 Z-0.125000
G00 Z5.000000

(End cutting path id: polyline4702)


(Start cutting path id: polyline4700)
(Change tool to Default tool)

G00 Z5.000000
G00 X72.718466 Y83.158137

G01 Z-0.125000 F100.0(Penetrate)
G01 X72.734327 Y82.778779 Z-0.125000 F400.000000
G01 X72.801002 Y82.397124 Z-0.125000
G01 X72.900093 Y82.033865 Z-0.125000
G01 X73.049307 Y81.734977 Z-0.125000
G00 Z5.000000

(End cutting path id: polyline4700)


(Start cutting path id: path3437)
(Change tool to Default tool)

G00 Z5.000000
G00 X103.525909 Y102.781293

G01 Z-0.125000 F100.0(Penetrate)
G01 X94.060458 Y119.156109 Z-0.125000 F400.000000
G00 Z5.000000

(End cutting path id: path3437)


(Start cutting path id: path3437)
(Change tool to Default tool)

G00 Z5.000000
G00 X84.256058 Y95.838627

G01 Z-0.125000 F100.0(Penetrate)
G01 X83.764991 Y96.668078 Z-0.125000 F400.000000
G00 Z5.000000

(End cutting path id: path3437)


(Start cutting path id: path3437)
(Change tool to Default tool)

G00 Z5.000000
G00 X85.898591 Y93.010760

G01 Z-0.125000 F100.0(Penetrate)
G01 X85.390309 Y93.840493 Z-0.125000 F400.000000
G00 Z5.000000

(End cutting path id: path3437)


(Start cutting path id: path3437)
(Change tool to Default tool)

G00 Z5.000000
G00 X87.524191 Y90.182893

G01 Z-0.125000 F100.0(Penetrate)
G01 X87.033124 Y91.012627 Z-0.125000 F400.000000
G00 Z5.000000

(End cutting path id: path3437)


(Start cutting path id: path3437)
(Change tool to Default tool)

G00 Z5.000000
G00 X112.077525 Y87.964627

G01 Z-0.125000 F100.0(Penetrate)
G01 X111.586458 Y88.794360 Z-0.125000 F400.000000
G00 Z5.000000

(End cutting path id: path3437)


(Start cutting path id: path3437)
(Change tool to Default tool)

G00 Z5.000000
G00 X110.451925 Y90.792493

G01 Z-0.125000 F100.0(Penetrate)
G01 X109.943642 Y91.621944 Z-0.125000 F400.000000
G00 Z5.000000

(End cutting path id: path3437)


(Start cutting path id: path3437)
(Change tool to Default tool)

G00 Z5.000000
G00 X82.630458 Y98.666493

G01 Z-0.125000 F100.0(Penetrate)
G01 X82.122176 Y99.496227 Z-0.125000 F400.000000
G00 Z5.000000

(End cutting path id: path3437)


(Start cutting path id: path3437)
(Change tool to Default tool)

G00 Z5.000000
G00 X80.598176 Y102.171693

G01 Z-0.125000 F100.0(Penetrate)
G01 X71.132724 Y118.529576 Z-0.125000 F400.000000
G00 Z5.000000

(End cutting path id: path3437)


(Start cutting path id: path3437)
(Change tool to Default tool)

G00 Z5.000000
G00 X90.775391 Y88.794360

G01 Z-0.125000 F100.0(Penetrate)
G01 X91.249525 Y87.930478 Z-0.125000 F400.000000
G00 Z5.000000

(End cutting path id: path3437)


(Start cutting path id: path3437)
(Change tool to Default tool)

G00 Z5.000000
G00 X89.132576 Y91.622227

G01 Z-0.125000 F100.0(Penetrate)
G01 X89.623642 Y90.758627 Z-0.125000 F400.000000
G00 Z5.000000

(End cutting path id: path3437)


(Start cutting path id: path3437)
(Change tool to Default tool)

G00 Z5.000000
G00 X87.507258 Y94.450093

G01 Z-0.125000 F100.0(Penetrate)
G01 X87.981391 Y93.586211 Z-0.125000 F400.000000
G00 Z5.000000

(End cutting path id: path3437)


(Start cutting path id: path3437)
(Change tool to Default tool)

G00 Z5.000000
G00 X85.881658 Y97.277960

G01 Z-0.125000 F100.0(Penetrate)
G01 X86.355791 Y96.414360 Z-0.125000 F400.000000
G00 Z5.000000

(End cutting path id: path3437)


(Start cutting path id: path3437)
(Change tool to Default tool)

G00 Z5.000000
G00 X84.238842 Y100.105827

G01 Z-0.125000 F100.0(Penetrate)
G01 X84.729909 Y99.241944 Z-0.125000 F400.000000
G00 Z5.000000

(End cutting path id: path3437)


(Start cutting path id: path3437)
(Change tool to Default tool)

G00 Z5.000000
G00 X89.149791 Y87.338093

G01 Z-0.125000 F100.0(Penetrate)
G01 X88.658725 Y88.184760 Z-0.125000 F400.000000
G00 Z5.000000

(End cutting path id: path3437)


(Start cutting path id: path3437)
(Change tool to Default tool)

G00 Z5.000000
G00 X97.988991 Y72.047293

G01 Z-0.125000 F100.0(Penetrate)
G01 X90.673791 Y84.679560 Z-0.125000 F400.000000
G00 Z5.000000

(End cutting path id: path3437)


(Start cutting path id: path3435)
(Change tool to Default tool)

G00 Z5.000000
G00 X124.658991 Y64.935293

G01 Z-0.125000 F100.0(Penetrate)
G03 X125.088827 Y66.432799 Z-0.125000 I-2.345212 J1.483598 F400.000000
G03 X124.658991 Y67.932493 Z-0.125000 I-2.881517 J-0.014442
G00 Z5.000000

(End cutting path id: path3435)


(Start cutting path id: path3435)
(Change tool to Default tool)

G00 Z5.000000
G00 X122.678074 Y61.498109

G01 Z-0.125000 F100.0(Penetrate)
G01 X124.659274 Y64.935575 Z-0.125000 F400.000000
G00 Z5.000000

(End cutting path id: path3435)


(Start cutting path id: path3435)
(Change tool to Default tool)

G00 Z5.000000
G00 X81.394042 Y41.059575

G01 Z-0.125000 F100.0(Penetrate)
G03 X82.491462 Y39.966640 Z-0.125000 I2.673128 J1.586667 F400.000000
G03 X83.984842 Y39.552226 Z-0.125000 I1.522824 J2.589670
G00 Z5.000000

(End cutting path id: path3435)


(Start cutting path id: path3435)
(Change tool to Default tool)

G00 Z5.000000
G00 X63.698991 Y151.633960

G01 Z-0.125000 F100.0(Penetrate)
G03 X58.809017 Y154.657850 Z-0.125000 I-5.291241 J-3.090772 F400.000000
G03 X53.217258 Y154.173960 Z-0.125000 I-1.214842 J-18.512193
G03 X46.174295 Y151.247808 Z-0.125000 I5.546416 J-23.288620
G03 X40.483391 Y146.164211 Z-0.125000 I11.501093 J-18.602240
G00 Z5.000000

(End cutting path id: path3435)


(Start cutting path id: path3435)
(Change tool to Default tool)

G00 Z5.000000
G00 X83.984842 Y39.552226

G01 Z-0.125000 F100.0(Penetrate)
G01 X91.452725 Y39.552226 Z-0.125000 F400.000000
G00 Z5.000000

(End cutting path id: path3435)


(Start cutting path id: path3435)
(Change tool to Default tool)

G00 Z5.000000
G00 X38.434458 Y142.591560

G01 Z-0.125000 F100.0(Penetrate)
G03 X37.875015 Y139.851473 Z-0.125000 I7.455666 J-2.949376 F400.000000
G03 X38.552991 Y137.121811 Z-0.125000 I5.279066 J-0.137846
G00 Z5.000000

(End cutting path id: path3435)


(Start cutting path id: path3435)
(Change tool to Default tool)

G00 Z5.000000
G00 X36.791924 Y145.419145

G01 Z-0.125000 F100.0(Penetrate)
G01 X38.434458 Y142.574627 Z-0.125000 F400.000000
G00 Z5.000000

(End cutting path id: path3435)


(Start cutting path id: path3435)
(Change tool to Default tool)

G00 Z5.000000
G00 X37.977258 Y138.679960

G01 Z-0.125000 F100.0(Penetrate)
G02 X36.310560 Y141.886486 Z-0.125000 I3.086815 J3.640898 F400.000000
G02 X36.791924 Y145.419145 Z-0.125000 I7.903363 J0.722202
G00 Z5.000000

(End cutting path id: path3435)


(Start cutting path id: path3435)
(Change tool to Default tool)

G00 Z5.000000
G00 X38.857791 Y148.992360

G01 Z-0.125000 F100.0(Penetrate)
G02 X44.900795 Y154.308836 Z-0.125000 I17.484460 J-13.781171 F400.000000
G02 X52.421391 Y157.170878 Z-0.125000 I11.801242 J-19.698189
G02 X58.311172 Y157.201982 Z-0.125000 I3.021609 J-14.511846
G02 X62.649124 Y152.920611 Z-0.125000 I-1.069279 J-5.421737
G00 Z5.000000

(End cutting path id: path3435)


(Start cutting path id: path3435)
(Change tool to Default tool)

G00 Z5.000000
G00 X40.483391 Y146.164211

G01 Z-0.125000 F100.0(Penetrate)
G01 X38.840858 Y148.992360 Z-0.125000 F400.000000
G00 Z5.000000

(End cutting path id: path3435)


(Start cutting path id: path3435)
(Change tool to Default tool)

G00 Z5.000000
G00 X35.284858 Y142.777545

G01 Z-0.125000 F100.0(Penetrate)
G02 X35.143294 Y148.522095 Z-0.125000 I5.475556 J3.008954 F400.000000
G02 X38.349791 Y153.124376 Z-0.125000 I16.299535 J-7.938044
G02 X44.400209 Y157.759648 Z-0.125000 I17.185235 J-16.165440
G02 X51.642458 Y160.151145 Z-0.125000 I10.481943 J-19.581093
G00 Z5.000000

(End cutting path id: path3435)


(Start cutting path id: path3435)
(Change tool to Default tool)

G00 Z5.000000
G00 X54.131658 Y162.979576

G01 Z-0.125000 F100.0(Penetrate)
G01 X55.757258 Y160.134211 Z-0.125000 F400.000000
G00 Z5.000000

(End cutting path id: path3435)


(Start cutting path id: path3435)
(Change tool to Default tool)

G00 Z5.000000
G00 X55.757258 Y160.151145

G01 Z-0.125000 F100.0(Penetrate)
G02 X58.397713 Y159.225512 Z-0.125000 I-1.609340 J-8.819693 F400.000000
G02 X60.447791 Y157.289129 Z-0.125000 I-2.570625 J-4.774974
G00 Z5.000000

(End cutting path id: path3435)


(Start cutting path id: path3435)
(Change tool to Default tool)

G00 Z5.000000
G00 X59.380991 Y158.576627

G01 Z-0.125000 F100.0(Penetrate)
G03 X57.427110 Y161.611585 Z-0.125000 I-4.781315 J-0.931746 F400.000000
G03 X54.131658 Y162.979576 Z-0.125000 I-4.625393 J-6.489121
G00 Z5.000000

(End cutting path id: path3435)


(Start cutting path id: path3435)
(Change tool to Default tool)

G00 Z5.000000
G00 X51.642458 Y160.151145

G01 Z-0.125000 F100.0(Penetrate)
G01 X49.999924 Y162.979294 Z-0.125000 F400.000000
G00 Z5.000000

(End cutting path id: path3435)


(Start cutting path id: path3435)
(Change tool to Default tool)

G00 Z5.000000
G00 X50.016858 Y162.979576

G01 Z-0.125000 F100.0(Penetrate)
G03 X42.387032 Y160.393832 Z-0.125000 I3.109523 J-21.724992 F400.000000
G03 X36.131524 Y155.325427 Z-0.125000 I11.670023 J-20.797860
G03 X33.178450 Y150.234252 Z-0.125000 I11.339314 J-9.979266
G03 X34.709124 Y144.335976 Z-0.125000 I5.233008 J-1.789724
G00 Z5.000000

(End cutting path id: path3435)


(Start cutting path id: path3435)
(Change tool to Default tool)

G00 Z5.000000
G00 X57.179658 Y162.945427

G01 Z-0.125000 F100.0(Penetrate)
G03 X52.281577 Y165.957324 Z-0.125000 I-5.337212 J-3.190925 F400.000000
G03 X46.680991 Y165.485427 Z-0.125000 I-1.287650 J-18.188356
G03 X39.645940 Y162.549361 Z-0.125000 I5.611463 J-23.341825
G03 X33.947124 Y157.476243 Z-0.125000 I11.703915 J-18.884830
G00 Z5.000000

(End cutting path id: path3435)


(Start cutting path id: path3435)
(Change tool to Default tool)

G00 Z5.000000
G00 X31.898191 Y153.902745

G01 Z-0.125000 F100.0(Penetrate)
G03 X31.327335 Y151.163664 Z-0.125000 I7.857107 J-3.066537 F400.000000
G03 X32.033658 Y148.433560 Z-0.125000 I4.894381 J-0.190164
G00 Z5.000000

(End cutting path id: path3435)


(Start cutting path id: path3435)
(Change tool to Default tool)

G00 Z5.000000
G00 X30.255657 Y156.730611

G01 Z-0.125000 F100.0(Penetrate)
G01 X31.898191 Y153.886094 Z-0.125000 F400.000000
G00 Z5.000000

(End cutting path id: path3435)


(Start cutting path id: path3435)
(Change tool to Default tool)

G00 Z5.000000
G00 X31.457924 Y149.991145

G01 Z-0.125000 F100.0(Penetrate)
G02 X29.769440 Y153.192977 Z-0.125000 I3.042494 J3.650584 F400.000000
G02 X30.255657 Y156.730611 Z-0.125000 I7.758359 J0.735910
G00 Z5.000000

(End cutting path id: path3435)


(Start cutting path id: path3435)
(Change tool to Default tool)

G00 Z5.000000
G00 X32.321524 Y160.303827

G01 Z-0.125000 F100.0(Penetrate)
G02 X38.363304 Y165.622979 Z-0.125000 I17.331562 J-13.595259 F400.000000
G02 X45.885124 Y168.482627 Z-0.125000 I11.856096 J-19.863188
G02 X51.783975 Y168.540957 Z-0.125000 I3.089024 J-14.088361
G02 X56.112858 Y164.232078 Z-0.125000 I-1.074155 J-5.408071
G00 Z5.000000

(End cutting path id: path3435)


(Start cutting path id: path3435)
(Change tool to Default tool)

G00 Z5.000000
G00 X33.947124 Y157.476243

G01 Z-0.125000 F100.0(Penetrate)
G01 X32.304591 Y160.304109 Z-0.125000 F400.000000
G00 Z5.000000

(End cutting path id: path3435)


(Start cutting path id: path3435)
(Change tool to Default tool)

G00 Z5.000000
G00 X28.765524 Y154.089576

G01 Z-0.125000 F100.0(Penetrate)
G02 X28.581213 Y159.837987 Z-0.125000 I5.345537 J3.048554 F400.000000
G02 X31.813524 Y164.435843 Z-0.125000 I15.994227 J-7.808916
G02 X37.867350 Y169.081441 Z-0.125000 I17.130784 J-16.056399
G02 X45.123124 Y171.462894 Z-0.125000 I10.395215 J-19.427870
G00 Z5.000000

(End cutting path id: path3435)


(Start cutting path id: path3435)
(Change tool to Default tool)

G00 Z5.000000
G00 X47.595391 Y174.291043

G01 Z-0.125000 F100.0(Penetrate)
G01 X49.237924 Y171.446243 Z-0.125000 F400.000000
G00 Z5.000000

(End cutting path id: path3435)


(Start cutting path id: path3435)
(Change tool to Default tool)

G00 Z5.000000
G00 X49.237924 Y171.462894

G01 Z-0.125000 F100.0(Penetrate)
G02 X51.877895 Y170.549561 Z-0.125000 I-1.588980 J-8.864973 F400.000000
G02 X53.911524 Y168.600596 Z-0.125000 I-2.432309 J-4.573438
G00 Z5.000000

(End cutting path id: path3435)


(Start cutting path id: path3435)
(Change tool to Default tool)

G00 Z5.000000
G00 X52.844724 Y169.887811

G01 Z-0.125000 F100.0(Penetrate)
G03 X50.889448 Y172.928803 Z-0.125000 I-4.752826 J-0.906849 F400.000000
G03 X47.595391 Y174.291043 Z-0.125000 I-4.631685 J-6.536131
G00 Z5.000000

(End cutting path id: path3435)


(Start cutting path id: path3435)
(Change tool to Default tool)

G00 Z5.000000
G00 X45.123124 Y171.462894

G01 Z-0.125000 F100.0(Penetrate)
G01 X43.463658 Y174.291043 Z-0.125000 F400.000000
G00 Z5.000000

(End cutting path id: path3435)


(Start cutting path id: path3435)
(Change tool to Default tool)

G00 Z5.000000
G00 X43.480591 Y174.291043

G01 Z-0.125000 F100.0(Penetrate)
G03 X35.858118 Y171.707808 Z-0.125000 I3.193792 J-21.961682 F400.000000
G03 X29.612191 Y166.636894 Z-0.125000 I11.398855 J-20.422218
G03 X26.628520 Y161.536332 Z-0.125000 I11.059790 J-9.892593
G03 X28.189791 Y155.647442 Z-0.125000 I5.197341 J-1.773482
G00 Z5.000000

(End cutting path id: path3435)


(Start cutting path id: path3435)
(Change tool to Default tool)

G00 Z5.000000
G00 X25.361924 Y165.231145

G01 Z-0.125000 F100.0(Penetrate)
G03 X24.818030 Y162.485926 Z-0.125000 I8.688763 J-3.147942 F400.000000
G03 X25.497391 Y159.745027 Z-0.125000 I4.990544 J-0.217685
G00 Z5.000000

(End cutting path id: path3435)


(Start cutting path id: path3435)
(Change tool to Default tool)

G00 Z5.000000
G00 X23.736324 Y168.059576

G01 Z-0.125000 F100.0(Penetrate)
G01 X25.361924 Y165.214211 Z-0.125000 F400.000000
G00 Z5.000000

(End cutting path id: path3435)


(Start cutting path id: path3435)
(Change tool to Default tool)

G00 Z5.000000
G00 X24.921657 Y161.302894

G01 Z-0.125000 F100.0(Penetrate)
G02 X23.253464 Y164.519293 Z-0.125000 I3.137164 J3.667905 F400.000000
G02 X23.736324 Y168.059294 Z-0.125000 I7.826584 J0.735376
G00 Z5.000000

(End cutting path id: path3435)


(Start cutting path id: path3435)
(Change tool to Default tool)

G00 Z5.000000
G00 X25.785257 Y171.615011

G01 Z-0.125000 F100.0(Penetrate)
G02 X31.826429 Y176.932858 Z-0.125000 I17.558641 J-13.856577 F400.000000
G02 X39.348858 Y179.794094 Z-0.125000 I11.738567 J-19.542509
G02 X45.253434 Y179.848671 Z-0.125000 I3.081861 J-13.990838
G02 X49.593524 Y175.543545 Z-0.125000 I-1.093883 J-5.442999
G00 Z5.000000

(End cutting path id: path3435)


(Start cutting path id: path3435)
(Change tool to Default tool)

G00 Z5.000000
G00 X27.427791 Y168.787709

G01 Z-0.125000 F100.0(Penetrate)
G01 X25.768324 Y171.615294 Z-0.125000 F400.000000
G00 Z5.000000

(End cutting path id: path3435)


(Start cutting path id: path3435)
(Change tool to Default tool)

G00 Z5.000000
G00 X50.643391 Y174.256894

G01 Z-0.125000 F100.0(Penetrate)
G03 X45.757362 Y177.278011 Z-0.125000 I-5.321956 J-3.145530 F400.000000
G03 X40.161658 Y176.796894 Z-0.125000 I-1.271746 J-17.990159
G03 X33.110835 Y173.883870 Z-0.125000 I5.446039 J-23.171443
G03 X27.427791 Y168.787709 Z-0.125000 I11.299909 J-18.318063
G00 Z5.000000

(End cutting path id: path3435)


(Start cutting path id: path3435)
(Change tool to Default tool)

G00 Z5.000000
G00 X41.059124 Y185.602509

G01 Z-0.125000 F100.0(Penetrate)
G01 X42.701658 Y182.757709 Z-0.125000 F400.000000
G00 Z5.000000

(End cutting path id: path3435)


(Start cutting path id: path3435)
(Change tool to Default tool)

G00 Z5.000000
G00 X42.701658 Y182.774360

G01 Z-0.125000 F100.0(Penetrate)
G02 X45.348469 Y181.885326 Z-0.125000 I-1.569396 J-9.056898 F400.000000
G02 X47.375258 Y179.929560 Z-0.125000 I-2.251071 J-4.360896
G00 Z5.000000

(End cutting path id: path3435)


(Start cutting path id: path3435)
(Change tool to Default tool)

G00 Z5.000000
G00 X46.325391 Y181.199560

G01 Z-0.125000 F100.0(Penetrate)
G03 X44.351288 Y184.228376 Z-0.125000 I-4.908625 J-1.041571 F400.000000
G03 X41.059124 Y185.602509 Z-0.125000 I-4.590639 J-6.367535
G00 Z5.000000

(End cutting path id: path3435)


(Start cutting path id: path3435)
(Change tool to Default tool)

G00 Z5.000000
G00 X38.586858 Y182.774360

G01 Z-0.125000 F100.0(Penetrate)
G01 X36.927391 Y185.602509 Z-0.125000 F400.000000
G00 Z5.000000

(End cutting path id: path3435)


(Start cutting path id: path3435)
(Change tool to Default tool)

G00 Z5.000000
G00 X36.944324 Y185.602509

G01 Z-0.125000 F100.0(Penetrate)
G03 X29.323800 Y183.016506 Z-0.125000 I3.257830 J-22.121499 F400.000000
G03 X23.075924 Y177.948360 Z-0.125000 I11.340545 J-20.365505
G03 X20.118047 Y172.849865 Z-0.125000 I11.310289 J-9.968880
G03 X21.653524 Y166.958627 Z-0.125000 I5.225591 J-1.783736
G00 Z5.000000

(End cutting path id: path3435)


(Start cutting path id: path3435)
(Change tool to Default tool)

G00 Z5.000000
G00 X22.229257 Y165.401043

G01 Z-0.125000 F100.0(Penetrate)
G02 X22.052700 Y171.146157 Z-0.125000 I5.390646 J3.040934 F400.000000
G02 X25.277257 Y175.746745 Z-0.125000 I15.942694 J-7.743911
G02 X31.338539 Y180.378305 Z-0.125000 I17.398094 J-16.486778
G02 X38.586858 Y182.774360 Z-0.125000 I10.463353 J-19.491249
G00 Z5.000000

(End cutting path id: path3435)


(Start cutting path id: path3435)
(Change tool to Default tool)

G00 Z5.000000
G00 X26.767391 Y206.582909

G01 Z-0.125000 F100.0(Penetrate)
G03 X20.891274 Y208.920861 Z-0.125000 I-4.590362 J-2.983861 F400.000000
G03 X15.218857 Y206.582909 Z-0.125000 I4.700009 J-19.453601
G03 X10.337865 Y202.848401 Z-0.125000 I9.348587 J-17.275551
G03 X9.444591 Y196.575027 Z-0.125000 I3.954772 J-3.763410
G00 Z5.000000

(End cutting path id: path3435)


(Start cutting path id: path3435)
(Change tool to Default tool)

G00 Z5.000000
G00 X36.656458 Y189.462745

G01 Z-0.125000 F100.0(Penetrate)
G01 X26.750457 Y206.582909 Z-0.125000 F400.000000
G00 Z5.000000

(End cutting path id: path3435)


(Start cutting path id: path3435)
(Change tool to Default tool)

G00 Z5.000000
G00 X46.714858 Y145.876627

G01 Z-0.125000 F100.0(Penetrate)
G01 X37.706324 Y130.297960 Z-0.125000 F400.000000
G00 Z5.000000

(End cutting path id: path3435)


(Start cutting path id: path3433)
(Change tool to Default tool)

G00 Z5.000000
G00 X99.614591 Y66.662493

G01 Z-0.125000 F100.0(Penetrate)
G01 X96.617109 Y64.918078 Z-0.125000 F400.000000
G00 Z5.000000

(End cutting path id: path3433)


(Start cutting path id: path3433)
(Change tool to Default tool)

G00 Z5.000000
G00 X94.890191 Y63.191442

G01 Z-0.125000 F100.0(Penetrate)
G01 X84.103376 Y44.513693 Z-0.125000 F400.000000
G00 Z5.000000

(End cutting path id: path3433)


(Start cutting path id: path3433)
(Change tool to Default tool)

G00 Z5.000000
G00 X120.272976 Y67.306242

G01 Z-0.125000 F100.0(Penetrate)
G01 X101.985258 Y67.306242 Z-0.125000 F400.000000
G00 Z5.000000

(End cutting path id: path3433)


(Start cutting path id: path3433)
(Change tool to Default tool)

G00 Z5.000000
G00 X122.847125 Y65.070760

G01 Z-0.125000 F100.0(Penetrate)
G01 X121.966309 Y66.560893 Z-0.125000 F400.000000
G00 Z5.000000

(End cutting path id: path3433)


(Start cutting path id: path3433)
(Change tool to Default tool)

G00 Z5.000000
G00 X122.457376 Y62.869426

G01 Z-0.125000 F100.0(Penetrate)
G01 X123.016176 Y63.817693 Z-0.125000 F400.000000
G00 Z5.000000

(End cutting path id: path3433)


(Start cutting path id: path3433)
(Change tool to Default tool)

G00 Z5.000000
G00 X86.508191 Y40.432760

G01 Z-0.125000 F100.0(Penetrate)
G01 X89.674442 Y40.432760 Z-0.125000 F400.000000
G00 Z5.000000

(End cutting path id: path3433)


(Start cutting path id: path3433)
(Change tool to Default tool)

G00 Z5.000000
G00 X83.917109 Y42.667960

G01 Z-0.125000 F100.0(Penetrate)
G01 X84.780991 Y41.178108 Z-0.125000 F400.000000
G00 Z5.000000

(End cutting path id: path3433)


(Start cutting path id: path3433)
(Change tool to Default tool)

G00 Z5.000000
G00 X79.599391 Y45.038626

G01 Z-0.125000 F100.0(Penetrate)
G01 X79.650191 Y45.224893 Z-0.125000 F400.000000
G01 X79.735140 Y45.394226 Z-0.125000
G00 Z5.000000

(End cutting path id: path3433)


(Start cutting path id: path3433)
(Change tool to Default tool)

G00 Z5.000000
G00 X79.582176 Y44.259975

G01 Z-0.125000 F100.0(Penetrate)
G01 X79.548591 Y44.310775 Z-0.125000 F400.000000
G01 X79.514442 Y44.598642 Z-0.125000
G01 X79.514442 Y44.632509 Z-0.125000
G00 Z5.000000

(End cutting path id: path3433)


(Start cutting path id: path3431)
(Change tool to Default tool)

G00 Z5.000000
G00 X81.394042 Y41.059575

G01 Z-0.125000 F100.0(Penetrate)
G01 X79.649909 Y44.056493 Z-0.125000 F400.000000
G00 Z5.000000

(End cutting path id: path3431)


(Start cutting path id: path3431)
(Change tool to Default tool)

G00 Z5.000000
G00 X9.444591 Y196.575027

G01 Z-0.125000 F100.0(Penetrate)
G01 X19.333657 Y179.455427 Z-0.125000 F400.000000
G00 Z5.000000

(End cutting path id: path3431)


(Start cutting path id: path3429)
(Change tool to Default tool)

G00 Z5.000000
G00 X94.551525 Y68.576242

G01 Z-0.125000 F100.0(Penetrate)
G01 X97.531509 Y70.286509 Z-0.125000 F400.000000
G00 Z5.000000

(End cutting path id: path3429)


(Start cutting path id: path3429)
(Change tool to Default tool)

G00 Z5.000000
G00 X122.542325 Y71.319160

G01 Z-0.125000 F100.0(Penetrate)
G01 X122.762176 Y71.149544 Z-0.125000 F400.000000
G01 X122.812976 Y71.064878 Z-0.125000
G00 Z5.000000

(End cutting path id: path3429)


(Start cutting path id: path3429)
(Change tool to Default tool)

G00 Z5.000000
G00 X121.780042 Y71.539575

G01 Z-0.125000 F100.0(Penetrate)
G01 X121.932725 Y71.522360 Z-0.125000 F400.000000
G01 X122.136207 Y71.471560 Z-0.125000
G00 Z5.000000

(End cutting path id: path3429)


(Start cutting path id: path3429)
(Change tool to Default tool)

G00 Z5.000000
G00 X92.790458 Y67.475293

G01 Z-0.125000 F100.0(Penetrate)
G01 X93.044458 Y67.678493 Z-0.125000 F400.000000
G01 X93.213791 Y67.780093 Z-0.125000
G00 Z5.000000

(End cutting path id: path3429)


(Start cutting path id: path3429)
(Change tool to Default tool)

G00 Z5.000000
G00 X92.011525 Y66.662493

G01 Z-0.125000 F100.0(Penetrate)
G01 X92.079258 Y66.763811 Z-0.125000 F400.000000
G01 X92.349909 Y67.085826 Z-0.125000
G00 Z5.000000

(End cutting path id: path3429)


(Start cutting path id: path3429)
(Change tool to Default tool)

G00 Z5.000000
G00 X80.446058 Y46.681442

G01 Z-0.125000 F100.0(Penetrate)
G01 X91.215658 Y65.325042 Z-0.125000 F400.000000
G00 Z5.000000

(End cutting path id: path3429)


(Start cutting path id: line3427)
(Change tool to Default tool)

G00 Z5.000000
G00 X122.931512 Y70.929975

G01 Z-0.125000 F100.0(Penetrate)
G01 X124.658986 Y67.915560 Z-0.125000 F400.000000
G00 Z5.000000

(End cutting path id: line3427)


(Start cutting path id: line3425)
(Change tool to Default tool)

G00 Z5.000000
G00 X120.916728 Y72.657175

G01 Z-0.125000 F100.0(Penetrate)
G01 X113.601522 Y85.306096 Z-0.125000 F400.000000
G00 Z5.000000

(End cutting path id: line3425)


(Start cutting path id: line3423)
(Change tool to Default tool)

G00 Z5.000000
G00 X79.667124 Y44.056493

G01 Z-0.125000 F100.0(Penetrate)
G01 X51.523924 Y92.756760 Z-0.125000 F400.000000
G00 Z5.000000

(End cutting path id: line3423)


(Start cutting path id: path3421)
(Change tool to Default tool)

G00 Z5.000000
G00 X108.809391 Y93.620360

G01 Z-0.125000 F100.0(Penetrate)
G01 X108.318325 Y94.450093 Z-0.125000 F400.000000
G00 Z5.000000

(End cutting path id: path3421)


(Start cutting path id: path3421)
(Change tool to Default tool)

G00 Z5.000000
G00 X107.183791 Y96.448227

G01 Z-0.125000 F100.0(Penetrate)
G01 X106.675509 Y97.294893 Z-0.125000 F400.000000
G00 Z5.000000

(End cutting path id: path3421)


(Start cutting path id: path3421)
(Change tool to Default tool)

G00 Z5.000000
G00 X105.541258 Y99.276093

G01 Z-0.125000 F100.0(Penetrate)
G01 X105.050191 Y100.122760 Z-0.125000 F400.000000
G00 Z5.000000

(End cutting path id: path3421)


(Start cutting path id: path3419)
(Change tool to Default tool)

G00 Z5.000000
G00 X112.720709 Y88.608093

G01 Z-0.125000 F100.0(Penetrate)
G01 X113.702842 Y86.897827 Z-0.125000 F400.000000
G00 Z5.000000

(End cutting path id: path3419)


(Start cutting path id: path3419)
(Change tool to Default tool)

G00 Z5.000000
G00 X111.095391 Y91.436242

G01 Z-0.125000 F100.0(Penetrate)
G01 X112.077525 Y89.725693 Z-0.125000 F400.000000
G00 Z5.000000

(End cutting path id: path3419)


(Start cutting path id: path3419)
(Change tool to Default tool)

G00 Z5.000000
G00 X109.452576 Y94.263827

G01 Z-0.125000 F100.0(Penetrate)
G01 X110.434709 Y92.553560 Z-0.125000 F400.000000
G00 Z5.000000

(End cutting path id: path3419)


(Start cutting path id: path3419)
(Change tool to Default tool)

G00 Z5.000000
G00 X107.827258 Y97.091693

G01 Z-0.125000 F100.0(Penetrate)
G01 X108.809391 Y95.381427 Z-0.125000 F400.000000
G00 Z5.000000

(End cutting path id: path3419)


(Start cutting path id: path3419)
(Change tool to Default tool)

G00 Z5.000000
G00 X47.815524 Y146.977294

G01 Z-0.125000 F100.0(Penetrate)
G01 X47.375258 Y146.689145 Z-0.125000 F400.000000
G01 X47.002724 Y146.316894 Z-0.125000
G01 X46.714858 Y145.876627 Z-0.125000
G00 Z5.000000

(End cutting path id: path3419)


(Start cutting path id: line3417)
(Change tool to Default tool)

G00 Z5.000000
G00 X92.790458 Y85.289163

G01 Z-0.125000 F100.0(Penetrate)
G01 X100.088722 Y72.639963 Z-0.125000 F400.000000
G00 Z5.000000

(End cutting path id: line3417)


(Start cutting path id: path3415)
(Change tool to Default tool)

G00 Z5.000000
G00 X114.363525 Y85.780509

G01 Z-0.125000 F100.0(Penetrate)
G01 X122.931509 Y70.912760 Z-0.125000 F400.000000
G00 Z5.000000

(End cutting path id: path3415)


(Start cutting path id: path3415)
(Change tool to Default tool)

G00 Z5.000000
G00 X106.201658 Y99.919560

G01 Z-0.125000 F100.0(Penetrate)
G01 X107.166858 Y98.209293 Z-0.125000 F400.000000
G00 Z5.000000

(End cutting path id: path3415)


(Start cutting path id: path3413)
(Change tool to Default tool)

G00 Z5.000000
G00 X99.936607 Y71.454626

G01 Z-0.125000 F100.0(Penetrate)
G01 X100.325791 Y71.522360 Z-0.125000 F400.000000
G01 X100.461258 Y71.539575 Z-0.125000
G00 Z5.000000

(End cutting path id: path3413)


(Start cutting path id: path3413)
(Change tool to Default tool)

G00 Z5.000000
G00 X98.903391 Y71.065160

G01 Z-0.125000 F100.0(Penetrate)
G01 X99.055509 Y71.149826 Z-0.125000 F400.000000
G01 X99.377525 Y71.285293 Z-0.125000
G00 Z5.000000

(End cutting path id: path3413)


(Start cutting path id: path3413)
(Change tool to Default tool)

G00 Z5.000000
G00 X102.018842 Y71.556226

G01 Z-0.125000 F100.0(Penetrate)
G01 X120.289909 Y71.556226 Z-0.125000 F400.000000
G00 Z5.000000

(End cutting path id: path3413)


(Start cutting path id: path3413)
(Change tool to Default tool)

G00 Z5.000000
G00 X55.283124 Y150.025011

G01 Z-0.125000 F100.0(Penetrate)
G01 X55.418591 Y149.906760 Z-0.125000 F400.000000
G01 X55.503258 Y149.788227 Z-0.125000
G00 Z5.000000

(End cutting path id: path3413)


(Start cutting path id: path3413)
(Change tool to Default tool)

G00 Z5.000000
G00 X54.673524 Y150.346745

G01 Z-0.125000 F100.0(Penetrate)
G01 X54.724324 Y150.346745 Z-0.125000 F400.000000
G01 X54.961391 Y150.262360 Z-0.125000
G01 X54.978324 Y150.245145 Z-0.125000
G00 Z5.000000

(End cutting path id: path3413)


(Start cutting path id: path3413)
(Change tool to Default tool)

G00 Z5.000000
G00 X69.998191 Y150.025011

G01 Z-0.125000 F100.0(Penetrate)
G01 X70.116724 Y149.906760 Z-0.125000 F400.000000
G01 X70.218042 Y149.788227 Z-0.125000
G00 Z5.000000

(End cutting path id: path3413)


(Start cutting path id: path3413)
(Change tool to Default tool)

G00 Z5.000000
G00 X69.388591 Y150.346745

G01 Z-0.125000 F100.0(Penetrate)
G01 X69.439391 Y150.346745 Z-0.125000 F400.000000
G01 X69.676458 Y150.262360 Z-0.125000
G01 X69.693673 Y150.245145 Z-0.125000
G00 Z5.000000

(End cutting path id: path3413)


(Start cutting path id: path3411)
(Change tool to Default tool)

G00 Z5.000000
G00 X90.064191 Y85.780509

G01 Z-0.125000 F100.0(Penetrate)
G01 X89.166725 Y85.255575 Z-0.125000 F400.000000
G00 Z5.000000

(End cutting path id: path3411)


(Start cutting path id: path3411)
(Change tool to Default tool)

G00 Z5.000000
G00 X88.522976 Y86.389827

G01 Z-0.125000 F100.0(Penetrate)
G01 X89.403791 Y86.914760 Z-0.125000 F400.000000
G00 Z5.000000

(End cutting path id: path3411)


(Start cutting path id: path3411)
(Change tool to Default tool)

G00 Z5.000000
G00 X92.146709 Y86.389827

G01 Z-0.125000 F100.0(Penetrate)
G01 X112.991925 Y86.389827 Z-0.125000 F400.000000
G00 Z5.000000

(End cutting path id: path3411)


(Start cutting path id: line3409)
(Change tool to Default tool)

G00 Z5.000000
G00 X88.709242 Y85.272224

G01 Z-0.125000 F100.0(Penetrate)
G01 X89.014039 Y85.272224 Z-0.125000 F400.000000
G00 Z5.000000

(End cutting path id: line3409)


(Start cutting path id: line3407)
(Change tool to Default tool)

G00 Z5.000000
G00 X91.503525 Y87.524360

G01 Z-0.125000 F100.0(Penetrate)
G01 X112.331522 Y87.524360 Z-0.125000 F400.000000
G00 Z5.000000

(End cutting path id: line3407)


(Start cutting path id: path3405)
(Change tool to Default tool)

G00 Z5.000000
G00 X113.262576 Y86.389827

G01 Z-0.125000 F100.0(Penetrate)
G01 X113.753642 Y86.389827 Z-0.125000 F400.000000
G00 Z5.000000

(End cutting path id: path3405)


(Start cutting path id: path3405)
(Change tool to Default tool)

G00 Z5.000000
G00 X89.454591 Y86.389827

G01 Z-0.125000 F100.0(Penetrate)
G01 X91.249242 Y86.389827 Z-0.125000 F400.000000
G00 Z5.000000

(End cutting path id: path3405)


(Start cutting path id: path3405)
(Change tool to Default tool)

G00 Z5.000000
G00 X114.329940 Y85.831027

G01 Z-0.125000 F100.0(Penetrate)
G01 X114.346591 Y85.847960 Z-0.125000 F400.000000
G00 Z5.000000

(End cutting path id: path3405)


(Start cutting path id: path3405)
(Change tool to Default tool)

G00 Z5.000000
G00 X88.709242 Y85.831027

G01 Z-0.125000 F100.0(Penetrate)
G01 X89.674442 Y85.831027 Z-0.125000 F400.000000
G00 Z5.000000

(End cutting path id: path3405)


(Start cutting path id: path3403)
(Change tool to Default tool)

G00 Z5.000000
G00 X86.897376 Y89.217693

G01 Z-0.125000 F100.0(Penetrate)
G01 X87.778191 Y89.742627 Z-0.125000 F400.000000
G00 Z5.000000

(End cutting path id: path3403)


(Start cutting path id: path3403)
(Change tool to Default tool)

G00 Z5.000000
G00 X88.421658 Y88.608093

G01 Z-0.125000 F100.0(Penetrate)
G01 X87.524191 Y88.083160 Z-0.125000 F400.000000
G00 Z5.000000

(End cutting path id: path3403)


(Start cutting path id: path3403)
(Change tool to Default tool)

G00 Z5.000000
G00 X114.718842 Y85.153693

G01 Z-0.125000 F100.0(Penetrate)
G01 X114.634458 Y85.272227 Z-0.125000 F400.000000
G00 Z5.000000

(End cutting path id: path3403)


(Start cutting path id: path3403)
(Change tool to Default tool)

G00 Z5.000000
G00 X113.703125 Y86.914760

G01 Z-0.125000 F100.0(Penetrate)
G03 X113.091425 Y87.400545 Z-0.125000 I-1.024762 J-0.662361 F400.000000
G03 X112.331807 Y87.524360 Z-0.125000 I-0.712882 J-1.981526
G00 Z5.000000

(End cutting path id: path3403)


(Start cutting path id: path3403)
(Change tool to Default tool)

G00 Z5.000000
G00 X114.007925 Y86.389827

G01 Z-0.125000 F100.0(Penetrate)
G01 X113.685909 Y86.914760 Z-0.125000 F400.000000
G00 Z5.000000

(End cutting path id: path3403)


(Start cutting path id: path3403)
(Change tool to Default tool)

G00 Z5.000000
G00 X114.651109 Y85.272227

G01 Z-0.125000 F100.0(Penetrate)
G01 X114.312725 Y85.831027 Z-0.125000 F400.000000
G00 Z5.000000

(End cutting path id: path3403)


(Start cutting path id: path3403)
(Change tool to Default tool)

G00 Z5.000000
G00 X114.329940 Y85.831027

G01 Z-0.125000 F100.0(Penetrate)
G01 X113.990991 Y86.389544 Z-0.125000 F400.000000
G00 Z5.000000

(End cutting path id: path3403)


(Start cutting path id: path3403)
(Change tool to Default tool)

G00 Z5.000000
G00 X112.991925 Y86.389827

G01 Z-0.125000 F100.0(Penetrate)
G01 X113.347525 Y86.372893 Z-0.125000 F400.000000
G01 X113.685909 Y86.288227 Z-0.125000
G01 X113.957125 Y86.169693 Z-0.125000
G01 X114.194191 Y86.000078 Z-0.125000
G01 X114.363525 Y85.780227 Z-0.125000
G00 Z5.000000

(End cutting path id: path3403)


(Start cutting path id: path3403)
(Change tool to Default tool)

G00 Z5.000000
G00 X90.521109 Y89.217693

G01 Z-0.125000 F100.0(Penetrate)
G01 X111.349391 Y89.217693 Z-0.125000 F400.000000
G00 Z5.000000

(End cutting path id: path3403)


(Start cutting path id: line3401)
(Change tool to Default tool)

G00 Z5.000000
G00 X87.066709 Y88.100093

G01 Z-0.125000 F100.0(Penetrate)
G01 X87.388722 Y88.100093 Z-0.125000 F400.000000
G00 Z5.000000

(End cutting path id: line3401)


(Start cutting path id: line3399)
(Change tool to Default tool)

G00 Z5.000000
G00 X89.860706 Y90.352224

G01 Z-0.125000 F100.0(Penetrate)
G01 X110.706204 Y90.352224 Z-0.125000 F400.000000
G00 Z5.000000

(End cutting path id: line3399)


(Start cutting path id: path3397)
(Change tool to Default tool)

G00 Z5.000000
G00 X111.620042 Y89.217693

G01 Z-0.125000 F100.0(Penetrate)
G01 X112.111109 Y89.217693 Z-0.125000 F400.000000
G00 Z5.000000

(End cutting path id: path3397)


(Start cutting path id: path3397)
(Change tool to Default tool)

G00 Z5.000000
G00 X87.812058 Y89.217693

G01 Z-0.125000 F100.0(Penetrate)
G01 X89.606709 Y89.217693 Z-0.125000 F400.000000
G00 Z5.000000

(End cutting path id: path3397)


(Start cutting path id: path3397)
(Change tool to Default tool)

G00 Z5.000000
G00 X112.687125 Y88.658893

G01 Z-0.125000 F100.0(Penetrate)
G01 X112.703776 Y88.676109 Z-0.125000 F400.000000
G00 Z5.000000

(End cutting path id: path3397)


(Start cutting path id: path3397)
(Change tool to Default tool)

G00 Z5.000000
G00 X87.066709 Y88.658893

G01 Z-0.125000 F100.0(Penetrate)
G01 X88.031909 Y88.658893 Z-0.125000 F400.000000
G00 Z5.000000

(End cutting path id: path3397)


(Start cutting path id: path3395)
(Change tool to Default tool)

G00 Z5.000000
G00 X111.349391 Y89.217693

G01 Z-0.125000 F100.0(Penetrate)
G01 X111.721925 Y89.200478 Z-0.125000 F400.000000
G01 X112.043376 Y89.115811 Z-0.125000
G01 X112.331525 Y88.997278 Z-0.125000
G01 X112.551376 Y88.827944 Z-0.125000
G01 X112.720709 Y88.607811 Z-0.125000
G00 Z5.000000

(End cutting path id: path3395)


(Start cutting path id: path3395)
(Change tool to Default tool)

G00 Z5.000000
G00 X85.254842 Y92.062493

G01 Z-0.125000 F100.0(Penetrate)
G01 X86.135658 Y92.570493 Z-0.125000 F400.000000
G00 Z5.000000

(End cutting path id: path3395)


(Start cutting path id: path3395)
(Change tool to Default tool)

G00 Z5.000000
G00 X86.796058 Y91.436242

G01 Z-0.125000 F100.0(Penetrate)
G01 X85.898591 Y90.911309 Z-0.125000 F400.000000
G00 Z5.000000

(End cutting path id: path3395)


(Start cutting path id: path3395)
(Change tool to Default tool)

G00 Z5.000000
G00 X113.025509 Y88.100093

G01 Z-0.125000 F100.0(Penetrate)
G01 X113.093242 Y87.964627 Z-0.125000 F400.000000
G00 Z5.000000

(End cutting path id: path3395)


(Start cutting path id: path3395)
(Change tool to Default tool)

G00 Z5.000000
G00 X112.077525 Y89.742909

G01 Z-0.125000 F100.0(Penetrate)
G03 X111.466849 Y90.229322 Z-0.125000 I-1.041188 J-0.680628 F400.000000
G03 X110.706207 Y90.352227 Z-0.125000 I-0.694413 J-1.882429
G00 Z5.000000

(End cutting path id: path3395)


(Start cutting path id: path3395)
(Change tool to Default tool)

G00 Z5.000000
G00 X112.365391 Y89.217693

G01 Z-0.125000 F100.0(Penetrate)
G01 X112.060591 Y89.742627 Z-0.125000 F400.000000
G00 Z5.000000

(End cutting path id: path3395)


(Start cutting path id: path3395)
(Change tool to Default tool)

G00 Z5.000000
G00 X113.025509 Y88.100093

G01 Z-0.125000 F100.0(Penetrate)
G01 X112.669909 Y88.658611 Z-0.125000 F400.000000
G00 Z5.000000

(End cutting path id: path3395)


(Start cutting path id: path3395)
(Change tool to Default tool)

G00 Z5.000000
G00 X112.687125 Y88.658893

G01 Z-0.125000 F100.0(Penetrate)
G01 X112.348176 Y89.217693 Z-0.125000 F400.000000
G00 Z5.000000

(End cutting path id: path3395)


(Start cutting path id: path3395)
(Change tool to Default tool)

G00 Z5.000000
G00 X88.895509 Y92.062493

G01 Z-0.125000 F100.0(Penetrate)
G01 X109.723791 Y92.062493 Z-0.125000 F400.000000
G00 Z5.000000

(End cutting path id: path3395)


(Start cutting path id: line3393)
(Change tool to Default tool)

G00 Z5.000000
G00 X85.441106 Y90.927957

G01 Z-0.125000 F100.0(Penetrate)
G01 X85.745909 Y90.927957 Z-0.125000 F400.000000
G00 Z5.000000

(End cutting path id: line3393)


(Start cutting path id: path3391)
(Change tool to Default tool)

G00 Z5.000000
G00 X88.235391 Y93.180093

G01 Z-0.125000 F100.0(Penetrate)
G01 X109.063674 Y93.180093 Z-0.125000 F400.000000
G00 Z5.000000

(End cutting path id: path3391)


(Start cutting path id: path3391)
(Change tool to Default tool)

G00 Z5.000000
G00 X110.739791 Y92.062493

G01 Z-0.125000 F100.0(Penetrate)
G01 X110.417776 Y92.570493 Z-0.125000 F400.000000
G00 Z5.000000

(End cutting path id: path3391)


(Start cutting path id: path3389)
(Change tool to Default tool)

G00 Z5.000000
G00 X109.994442 Y92.062493

G01 Z-0.125000 F100.0(Penetrate)
G01 X110.485509 Y92.062493 Z-0.125000 F400.000000
G00 Z5.000000

(End cutting path id: path3389)


(Start cutting path id: path3389)
(Change tool to Default tool)

G00 Z5.000000
G00 X86.186458 Y92.062493

G01 Z-0.125000 F100.0(Penetrate)
G01 X87.981109 Y92.062493 Z-0.125000 F400.000000
G00 Z5.000000

(End cutting path id: path3389)


(Start cutting path id: path3389)
(Change tool to Default tool)

G00 Z5.000000
G00 X111.061525 Y91.486760

G01 Z-0.125000 F100.0(Penetrate)
G01 X111.078176 Y91.503693 Z-0.125000 F400.000000
G00 Z5.000000

(End cutting path id: path3389)


(Start cutting path id: path3389)
(Change tool to Default tool)

G00 Z5.000000
G00 X85.441109 Y91.486760

G01 Z-0.125000 F100.0(Penetrate)
G01 X86.406309 Y91.486760 Z-0.125000 F400.000000
G00 Z5.000000

(End cutting path id: path3389)


(Start cutting path id: path3387)
(Change tool to Default tool)

G00 Z5.000000
G00 X109.723791 Y92.062493

G01 Z-0.125000 F100.0(Penetrate)
G02 X110.485892 Y91.938770 Z-0.125000 I-0.074022 J-2.864985 F400.000000
G02 X111.095109 Y91.435960 Z-0.125000 I-0.300194 J-0.984199
G00 Z5.000000

(End cutting path id: path3387)


(Start cutting path id: path3387)
(Change tool to Default tool)

G00 Z5.000000
G00 X83.629242 Y94.890360

G01 Z-0.125000 F100.0(Penetrate)
G01 X84.510058 Y95.398360 Z-0.125000 F400.000000
G00 Z5.000000

(End cutting path id: path3387)


(Start cutting path id: path3387)
(Change tool to Default tool)

G00 Z5.000000
G00 X85.170458 Y94.263827

G01 Z-0.125000 F100.0(Penetrate)
G01 X84.256058 Y93.738893 Z-0.125000 F400.000000
G00 Z5.000000

(End cutting path id: path3387)


(Start cutting path id: path3387)
(Change tool to Default tool)

G00 Z5.000000
G00 X111.382976 Y90.927960

G01 Z-0.125000 F100.0(Penetrate)
G01 X111.450709 Y90.792775 Z-0.125000 F400.000000
G00 Z5.000000

(End cutting path id: path3387)


(Start cutting path id: path3387)
(Change tool to Default tool)

G00 Z5.000000
G00 X110.434991 Y92.570493

G01 Z-0.125000 F100.0(Penetrate)
G03 X109.823291 Y93.056278 Z-0.125000 I-1.024762 J-0.662361 F400.000000
G03 X109.063674 Y93.180093 Z-0.125000 I-0.712882 J-1.981526
G00 Z5.000000

(End cutting path id: path3387)


(Start cutting path id: path3387)
(Change tool to Default tool)

G00 Z5.000000
G00 X111.382976 Y90.927960

G01 Z-0.125000 F100.0(Penetrate)
G01 X111.044591 Y91.486760 Z-0.125000 F400.000000
G00 Z5.000000

(End cutting path id: path3387)


(Start cutting path id: path3387)
(Change tool to Default tool)

G00 Z5.000000
G00 X111.061525 Y91.486760

G01 Z-0.125000 F100.0(Penetrate)
G01 X110.722576 Y92.062493 Z-0.125000 F400.000000
G00 Z5.000000

(End cutting path id: path3387)


(Start cutting path id: path3387)
(Change tool to Default tool)

G00 Z5.000000
G00 X87.252976 Y94.890360

G01 Z-0.125000 F100.0(Penetrate)
G01 X108.081258 Y94.890360 Z-0.125000 F400.000000
G00 Z5.000000

(End cutting path id: path3387)


(Start cutting path id: path3387)
(Change tool to Default tool)

G00 Z5.000000
G00 X86.609791 Y96.007960

G01 Z-0.125000 F100.0(Penetrate)
G01 X107.438074 Y96.007960 Z-0.125000 F400.000000
G00 Z5.000000

(End cutting path id: path3387)


(Start cutting path id: line3385)
(Change tool to Default tool)

G00 Z5.000000
G00 X83.815512 Y93.755829

G01 Z-0.125000 F100.0(Penetrate)
G01 X84.120591 Y93.755829 Z-0.125000 F400.000000
G00 Z5.000000

(End cutting path id: line3385)


(Start cutting path id: path3383)
(Change tool to Default tool)

G00 Z5.000000
G00 X108.809391 Y95.398360

G01 Z-0.125000 F100.0(Penetrate)
G03 X108.197012 Y95.880254 Z-0.125000 I-1.020061 J-0.666223 F400.000000
G03 X107.438074 Y96.007960 Z-0.125000 I-0.741685 J-2.088744
G00 Z5.000000

(End cutting path id: path3383)


(Start cutting path id: path3381)
(Change tool to Default tool)

G00 Z5.000000
G00 X108.351909 Y94.890360

G01 Z-0.125000 F100.0(Penetrate)
G01 X108.842976 Y94.890360 Z-0.125000 F400.000000
G00 Z5.000000

(End cutting path id: path3381)


(Start cutting path id: path3381)
(Change tool to Default tool)

G00 Z5.000000
G00 X84.543924 Y94.890360

G01 Z-0.125000 F100.0(Penetrate)
G01 X86.355791 Y94.890360 Z-0.125000 F400.000000
G00 Z5.000000

(End cutting path id: path3381)


(Start cutting path id: line3379)
(Change tool to Default tool)

G00 Z5.000000
G00 X109.097258 Y94.890360

G01 Z-0.125000 F100.0(Penetrate)
G01 X108.792179 Y95.398357 Z-0.125000 F400.000000
G00 Z5.000000

(End cutting path id: line3379)


(Start cutting path id: path3377)
(Change tool to Default tool)

G00 Z5.000000
G00 X109.418991 Y94.314627

G01 Z-0.125000 F100.0(Penetrate)
G01 X109.436207 Y94.314627 Z-0.125000 F400.000000
G00 Z5.000000

(End cutting path id: path3377)


(Start cutting path id: path3377)
(Change tool to Default tool)

G00 Z5.000000
G00 X83.815509 Y94.314627

G01 Z-0.125000 F100.0(Penetrate)
G01 X84.780709 Y94.314627 Z-0.125000 F400.000000
G00 Z5.000000

(End cutting path id: path3377)


(Start cutting path id: path3375)
(Change tool to Default tool)

G00 Z5.000000
G00 X108.081258 Y94.890360

G01 Z-0.125000 F100.0(Penetrate)
G01 X108.453791 Y94.856493 Z-0.125000 F400.000000
G01 X108.775242 Y94.771827 Z-0.125000
G01 X109.063391 Y94.653293 Z-0.125000
G01 X109.300458 Y94.483960 Z-0.125000
G01 X109.452576 Y94.263827 Z-0.125000
G00 Z5.000000

(End cutting path id: path3375)


(Start cutting path id: path3375)
(Change tool to Default tool)

G00 Z5.000000
G00 X81.986709 Y97.718227

G01 Z-0.125000 F100.0(Penetrate)
G01 X82.884740 Y98.226227 Z-0.125000 F400.000000
G00 Z5.000000

(End cutting path id: path3375)


(Start cutting path id: path3375)
(Change tool to Default tool)

G00 Z5.000000
G00 X83.527924 Y97.091693

G01 Z-0.125000 F100.0(Penetrate)
G01 X82.630458 Y96.567042 Z-0.125000 F400.000000
G00 Z5.000000

(End cutting path id: path3375)


(Start cutting path id: path3375)
(Change tool to Default tool)

G00 Z5.000000
G00 X109.757376 Y93.755827

G01 Z-0.125000 F100.0(Penetrate)
G01 X109.825109 Y93.620360 Z-0.125000 F400.000000
G00 Z5.000000

(End cutting path id: path3375)


(Start cutting path id: path3375)
(Change tool to Default tool)

G00 Z5.000000
G00 X109.757376 Y93.755827

G01 Z-0.125000 F100.0(Penetrate)
G01 X109.418991 Y94.314344 Z-0.125000 F400.000000
G00 Z5.000000

(End cutting path id: path3375)


(Start cutting path id: path3375)
(Change tool to Default tool)

G00 Z5.000000
G00 X109.436207 Y94.314627

G01 Z-0.125000 F100.0(Penetrate)
G01 X109.080042 Y94.890360 Z-0.125000 F400.000000
G00 Z5.000000

(End cutting path id: path3375)


(Start cutting path id: path3375)
(Change tool to Default tool)

G00 Z5.000000
G00 X85.627376 Y97.718227

G01 Z-0.125000 F100.0(Penetrate)
G01 X106.455658 Y97.718227 Z-0.125000 F400.000000
G00 Z5.000000

(End cutting path id: path3375)


(Start cutting path id: path3375)
(Change tool to Default tool)

G00 Z5.000000
G00 X84.967258 Y98.835827

G01 Z-0.125000 F100.0(Penetrate)
G01 X105.795540 Y98.835827 Z-0.125000 F400.000000
G00 Z5.000000

(End cutting path id: path3375)


(Start cutting path id: path3373)
(Change tool to Default tool)

G00 Z5.000000
G00 X106.726309 Y97.718227

G01 Z-0.125000 F100.0(Penetrate)
G01 X107.217376 Y97.718227 Z-0.125000 F400.000000
G00 Z5.000000

(End cutting path id: path3373)


(Start cutting path id: path3373)
(Change tool to Default tool)

G00 Z5.000000
G00 X82.918324 Y97.718227

G01 Z-0.125000 F100.0(Penetrate)
G01 X84.712976 Y97.718227 Z-0.125000 F400.000000
G00 Z5.000000

(End cutting path id: path3373)


(Start cutting path id: path3373)
(Change tool to Default tool)

G00 Z5.000000
G00 X82.172976 Y96.583693

G01 Z-0.125000 F100.0(Penetrate)
G01 X82.477776 Y96.583693 Z-0.125000 F400.000000
G00 Z5.000000

(End cutting path id: path3373)


(Start cutting path id: path3371)
(Change tool to Default tool)

G00 Z5.000000
G00 X107.166858 Y98.226227

G01 Z-0.125000 F100.0(Penetrate)
G03 X106.562473 Y98.739765 Z-0.125000 I-0.921848 J-0.472505 F400.000000
G03 X105.795540 Y98.835827 Z-0.125000 I-0.637492 J-1.980059
G00 Z5.000000

(End cutting path id: path3371)


(Start cutting path id: path3371)
(Change tool to Default tool)

G00 Z5.000000
G00 X107.471658 Y97.718227

G01 Z-0.125000 F100.0(Penetrate)
G01 X107.149642 Y98.226227 Z-0.125000 F400.000000
G00 Z5.000000

(End cutting path id: path3371)


(Start cutting path id: path3369)
(Change tool to Default tool)

G00 Z5.000000
G00 X107.793391 Y97.142493

G01 Z-0.125000 F100.0(Penetrate)
G01 X107.810042 Y97.159427 Z-0.125000 F400.000000
G00 Z5.000000

(End cutting path id: path3369)


(Start cutting path id: path3369)
(Change tool to Default tool)

G00 Z5.000000
G00 X82.172976 Y97.142493

G01 Z-0.125000 F100.0(Penetrate)
G01 X83.138176 Y97.142493 Z-0.125000 F400.000000
G00 Z5.000000

(End cutting path id: path3369)


(Start cutting path id: path3367)
(Change tool to Default tool)

G00 Z5.000000
G00 X108.114842 Y96.583693

G01 Z-0.125000 F100.0(Penetrate)
G01 X107.776458 Y97.142493 Z-0.125000 F400.000000
G00 Z5.000000

(End cutting path id: path3367)


(Start cutting path id: path3367)
(Change tool to Default tool)

G00 Z5.000000
G00 X106.455658 Y97.718227

G01 Z-0.125000 F100.0(Penetrate)
G02 X107.217653 Y97.594484 Z-0.125000 I-0.073987 J-2.863629 F400.000000
G02 X107.826976 Y97.091411 Z-0.125000 I-0.300324 J-0.984295
G00 Z5.000000

(End cutting path id: path3367)


(Start cutting path id: path3367)
(Change tool to Default tool)

G00 Z5.000000
G00 X80.361109 Y100.546093

G01 Z-0.125000 F100.0(Penetrate)
G01 X81.241924 Y101.054093 Z-0.125000 F400.000000
G00 Z5.000000

(End cutting path id: path3367)


(Start cutting path id: path3367)
(Change tool to Default tool)

G00 Z5.000000
G00 X81.902324 Y99.919560

G01 Z-0.125000 F100.0(Penetrate)
G01 X81.004858 Y99.394627 Z-0.125000 F400.000000
G00 Z5.000000

(End cutting path id: path3367)


(Start cutting path id: path3367)
(Change tool to Default tool)

G00 Z5.000000
G00 X108.114842 Y96.583693

G01 Z-0.125000 F100.0(Penetrate)
G01 X108.182576 Y96.448509 Z-0.125000 F400.000000
G00 Z5.000000

(End cutting path id: path3367)


(Start cutting path id: path3367)
(Change tool to Default tool)

G00 Z5.000000
G00 X107.793391 Y97.142493

G01 Z-0.125000 F100.0(Penetrate)
G01 X107.454442 Y97.718227 Z-0.125000 F400.000000
G00 Z5.000000

(End cutting path id: path3367)


(Start cutting path id: path3367)
(Change tool to Default tool)

G00 Z5.000000
G00 X83.984842 Y100.546093

G01 Z-0.125000 F100.0(Penetrate)
G01 X104.813125 Y100.546093 Z-0.125000 F400.000000
G00 Z5.000000

(End cutting path id: path3367)


(Start cutting path id: path3367)
(Change tool to Default tool)

G00 Z5.000000
G00 X83.341658 Y101.663693

G01 Z-0.125000 F100.0(Penetrate)
G01 X104.169940 Y101.663693 Z-0.125000 F400.000000
G00 Z5.000000

(End cutting path id: path3367)


(Start cutting path id: path3365)
(Change tool to Default tool)

G00 Z5.000000
G00 X105.083776 Y100.546093

G01 Z-0.125000 F100.0(Penetrate)
G01 X105.574842 Y100.546093 Z-0.125000 F400.000000
G00 Z5.000000

(End cutting path id: path3365)


(Start cutting path id: path3365)
(Change tool to Default tool)

G00 Z5.000000
G00 X81.292724 Y100.546093

G01 Z-0.125000 F100.0(Penetrate)
G01 X83.087376 Y100.546093 Z-0.125000 F400.000000
G00 Z5.000000

(End cutting path id: path3365)


(Start cutting path id: path3365)
(Change tool to Default tool)

G00 Z5.000000
G00 X106.168073 Y99.970360

G01 Z-0.125000 F100.0(Penetrate)
G01 X106.184725 Y99.987576 Z-0.125000 F400.000000
G00 Z5.000000

(End cutting path id: path3365)


(Start cutting path id: path3365)
(Change tool to Default tool)

G00 Z5.000000
G00 X80.547376 Y99.970360

G01 Z-0.125000 F100.0(Penetrate)
G01 X81.512576 Y99.970360 Z-0.125000 F400.000000
G00 Z5.000000

(End cutting path id: path3365)


(Start cutting path id: path3365)
(Change tool to Default tool)

G00 Z5.000000
G00 X80.547376 Y99.411560

G01 Z-0.125000 F100.0(Penetrate)
G01 X80.852176 Y99.411560 Z-0.125000 F400.000000
G00 Z5.000000

(End cutting path id: path3365)


(Start cutting path id: path3363)
(Change tool to Default tool)

G00 Z5.000000
G00 X105.541258 Y101.054093

G01 Z-0.125000 F100.0(Penetrate)
G03 X104.929100 Y101.540144 Z-0.125000 I-1.024507 J-0.661801 F400.000000
G03 X104.169940 Y101.663693 Z-0.125000 I-0.712349 J-1.982954
G00 Z5.000000

(End cutting path id: path3363)


(Start cutting path id: path3363)
(Change tool to Default tool)

G00 Z5.000000
G00 X105.828842 Y100.546093

G01 Z-0.125000 F100.0(Penetrate)
G01 X105.524042 Y101.054093 Z-0.125000 F400.000000
G00 Z5.000000

(End cutting path id: path3363)


(Start cutting path id: path3363)
(Change tool to Default tool)

G00 Z5.000000
G00 X106.489242 Y99.411560

G01 Z-0.125000 F100.0(Penetrate)
G01 X106.150858 Y99.970078 Z-0.125000 F400.000000
G00 Z5.000000

(End cutting path id: path3363)


(Start cutting path id: path3363)
(Change tool to Default tool)

G00 Z5.000000
G00 X106.168073 Y99.970360

G01 Z-0.125000 F100.0(Penetrate)
G01 X105.811909 Y100.546093 Z-0.125000 F400.000000
G00 Z5.000000

(End cutting path id: path3363)


(Start cutting path id: path3363)
(Change tool to Default tool)

G00 Z5.000000
G00 X104.813125 Y100.546093

G01 Z-0.125000 F100.0(Penetrate)
G02 X105.586207 Y100.428835 Z-0.125000 I-0.019790 J-2.737570 F400.000000
G02 X106.201658 Y99.919560 Z-0.125000 I-0.298861 J-0.987688
G00 Z5.000000

(End cutting path id: path3363)


(Start cutting path id: path3363)
(Change tool to Default tool)

G00 Z5.000000
G00 X106.489242 Y99.411560

G01 Z-0.125000 F100.0(Penetrate)
G01 X106.556976 Y99.276093 Z-0.125000 F400.000000
G00 Z5.000000

(End cutting path id: path3363)


(Start cutting path id: path3363)
(Change tool to Default tool)

G00 Z5.000000
G00 X72.165658 Y57.044360

G01 Z-0.125000 F100.0(Penetrate)
G01 X71.860858 Y57.552360 Z-0.125000 F400.000000
G00 Z5.000000

(End cutting path id: path3363)


(Start cutting path id: path3363)
(Change tool to Default tool)

G00 Z5.000000
G00 X70.540058 Y59.872226

G01 Z-0.125000 F100.0(Penetrate)
G01 X70.218042 Y60.380509 Z-0.125000 F400.000000
G00 Z5.000000

(End cutting path id: path3363)


(Start cutting path id: path3363)
(Change tool to Default tool)

G00 Z5.000000
G00 X68.897524 Y62.700093

G01 Z-0.125000 F100.0(Penetrate)
G01 X68.592724 Y63.208093 Z-0.125000 F400.000000
G00 Z5.000000

(End cutting path id: path3363)


(Start cutting path id: path3363)
(Change tool to Default tool)

G00 Z5.000000
G00 X65.629391 Y68.355826

G01 Z-0.125000 F100.0(Penetrate)
G01 X65.324591 Y68.863826 Z-0.125000 F400.000000
G00 Z5.000000

(End cutting path id: path3363)


(Start cutting path id: path3363)
(Change tool to Default tool)

G00 Z5.000000
G00 X64.003791 Y71.183693

G01 Z-0.125000 F100.0(Penetrate)
G01 X63.682058 Y71.691693 Z-0.125000 F400.000000
G00 Z5.000000

(End cutting path id: path3363)


(Start cutting path id: path3363)
(Change tool to Default tool)

G00 Z5.000000
G00 X67.271924 Y65.527960

G01 Z-0.125000 F100.0(Penetrate)
G01 X66.950191 Y66.036242 Z-0.125000 F400.000000
G00 Z5.000000

(End cutting path id: path3363)


(Start cutting path id: path3363)
(Change tool to Default tool)

G00 Z5.000000
G00 X65.341524 Y68.863826

G01 Z-0.125000 F100.0(Penetrate)
G01 X65.256858 Y68.982360 Z-0.125000 F400.000000
G00 Z5.000000

(End cutting path id: path3363)


(Start cutting path id: path3363)
(Change tool to Default tool)

G00 Z5.000000
G00 X63.631258 Y71.810509

G01 Z-0.125000 F100.0(Penetrate)
G01 X63.698991 Y71.675042 Z-0.125000 F400.000000
G00 Z5.000000

(End cutting path id: path3363)


(Start cutting path id: path3363)
(Change tool to Default tool)

G00 Z5.000000
G00 X66.899391 Y66.154775

G01 Z-0.125000 F100.0(Penetrate)
G01 X66.967124 Y66.019309 Z-0.125000 F400.000000
G00 Z5.000000

(End cutting path id: path3363)


(Start cutting path id: path3363)
(Change tool to Default tool)

G00 Z5.000000
G00 X70.235258 Y60.380509

G01 Z-0.125000 F100.0(Penetrate)
G01 X70.150309 Y60.499042 Z-0.125000 F400.000000
G00 Z5.000000

(End cutting path id: path3363)


(Start cutting path id: path3363)
(Change tool to Default tool)

G00 Z5.000000
G00 X68.609658 Y63.208093

G01 Z-0.125000 F100.0(Penetrate)
G01 X68.524991 Y63.326626 Z-0.125000 F400.000000
G00 Z5.000000

(End cutting path id: path3363)


(Start cutting path id: path3363)
(Change tool to Default tool)

G00 Z5.000000
G00 X83.984842 Y100.546093

G01 Z-0.125000 F100.0(Penetrate)
G03 X82.898690 Y100.374388 Z-0.125000 I0.148816 J-4.462538 F400.000000
G03 X81.902324 Y99.919560 Z-0.125000 I1.027222 J-3.569029
G00 Z5.000000

(End cutting path id: path3363)


(Start cutting path id: path3363)
(Change tool to Default tool)

G00 Z5.000000
G00 X81.241924 Y101.054093

G01 Z-0.125000 F100.0(Penetrate)
G02 X82.248634 Y101.487643 Z-0.125000 I3.677230 J-7.153009 F400.000000
G02 X83.341376 Y101.663693 Z-0.125000 I1.033630 J-2.936393
G00 Z5.000000

(End cutting path id: path3363)


(Start cutting path id: path3363)
(Change tool to Default tool)

G00 Z5.000000
G00 X71.877791 Y57.552360

G01 Z-0.125000 F100.0(Penetrate)
G01 X71.793124 Y57.670893 Z-0.125000 F400.000000
G00 Z5.000000

(End cutting path id: path3363)


(Start cutting path id: path3363)
(Change tool to Default tool)

G00 Z5.000000
G00 X80.039940 Y99.970360

G01 Z-0.125000 F100.0(Penetrate)
G01 X80.005791 Y100.071960 Z-0.125000 F400.000000
G01 X80.039940 Y100.190493 Z-0.125000
G01 X80.107109 Y100.325960 Z-0.125000
G01 X80.226207 Y100.444493 Z-0.125000
G01 X80.361391 Y100.545811 Z-0.125000
G00 Z5.000000

(End cutting path id: path3363)


(Start cutting path id: path3363)
(Change tool to Default tool)

G00 Z5.000000
G00 X80.361109 Y99.411560

G01 Z-0.125000 F100.0(Penetrate)
G01 X80.022724 Y99.970078 Z-0.125000 F400.000000
G00 Z5.000000

(End cutting path id: path3363)


(Start cutting path id: path3363)
(Change tool to Default tool)

G00 Z5.000000
G00 X81.021509 Y99.411560

G01 Z-0.125000 F100.0(Penetrate)
G01 X80.852176 Y99.326893 Z-0.125000 F400.000000
G01 X80.700058 Y99.293027 Z-0.125000
G01 X80.547376 Y99.293027 Z-0.125000
G01 X80.428842 Y99.326893 Z-0.125000
G01 X80.361109 Y99.411560 Z-0.125000
G00 Z5.000000

(End cutting path id: path3363)


(Start cutting path id: path3363)
(Change tool to Default tool)

G00 Z5.000000
G00 X81.665258 Y97.142493

G01 Z-0.125000 F100.0(Penetrate)
G02 X81.736693 Y97.486837 Z-0.125000 I0.373327 J0.102133 F400.000000
G02 X81.986709 Y97.718227 Z-0.125000 I0.901432 J-0.723227
G00 Z5.000000

(End cutting path id: path3363)


(Start cutting path id: path3363)
(Change tool to Default tool)

G00 Z5.000000
G00 X81.986709 Y96.583693

G01 Z-0.125000 F100.0(Penetrate)
G01 X81.648324 Y97.142493 Z-0.125000 F400.000000
G00 Z5.000000

(End cutting path id: path3363)


(Start cutting path id: path3363)
(Change tool to Default tool)

G00 Z5.000000
G00 X82.647109 Y96.583693

G01 Z-0.125000 F100.0(Penetrate)
G01 X82.494991 Y96.499027 Z-0.125000 F400.000000
G01 X82.325658 Y96.465160 Z-0.125000
G01 X82.190191 Y96.465160 Z-0.125000
G01 X82.071658 Y96.499027 Z-0.125000
G01 X81.986709 Y96.583693 Z-0.125000
G00 Z5.000000

(End cutting path id: path3363)


(Start cutting path id: path3363)
(Change tool to Default tool)

G00 Z5.000000
G00 X85.627376 Y97.718227

G01 Z-0.125000 F100.0(Penetrate)
G03 X84.537477 Y97.538335 Z-0.125000 I0.138281 J-4.229388 F400.000000
G03 X83.527924 Y97.091411 Z-0.125000 I1.313446 J-4.330629
G00 Z5.000000

(End cutting path id: path3363)


(Start cutting path id: path3363)
(Change tool to Default tool)

G00 Z5.000000
G00 X82.884740 Y98.226227

G01 Z-0.125000 F100.0(Penetrate)
G02 X83.884811 Y98.664452 Z-0.125000 I3.078632 J-5.665485 F400.000000
G02 X84.967258 Y98.835827 Z-0.125000 I1.036821 J-3.044633
G00 Z5.000000

(End cutting path id: path3363)


(Start cutting path id: path3363)
(Change tool to Default tool)

G00 Z5.000000
G00 X83.308073 Y94.314627

G01 Z-0.125000 F100.0(Penetrate)
G01 X83.273924 Y94.416227 Z-0.125000 F400.000000
G01 X83.291140 Y94.534760 Z-0.125000
G01 X83.375524 Y94.670227 Z-0.125000
G01 X83.477407 Y94.788760 Z-0.125000
G01 X83.629524 Y94.890078 Z-0.125000
G00 Z5.000000

(End cutting path id: path3363)


(Start cutting path id: path3363)
(Change tool to Default tool)

G00 Z5.000000
G00 X83.629242 Y93.755827

G01 Z-0.125000 F100.0(Penetrate)
G01 X83.290858 Y94.314344 Z-0.125000 F400.000000
G00 Z5.000000

(End cutting path id: path3363)


(Start cutting path id: path3363)
(Change tool to Default tool)

G00 Z5.000000
G00 X84.273273 Y93.755827

G01 Z-0.125000 F100.0(Penetrate)
G01 X84.120591 Y93.671160 Z-0.125000 F400.000000
G01 X83.968473 Y93.637293 Z-0.125000
G01 X83.815791 Y93.637293 Z-0.125000
G01 X83.697258 Y93.671160 Z-0.125000
G01 X83.629524 Y93.755827 Z-0.125000
G00 Z5.000000

(End cutting path id: path3363)


(Start cutting path id: path3363)
(Change tool to Default tool)

G00 Z5.000000
G00 X85.915242 Y90.927960

G01 Z-0.125000 F100.0(Penetrate)
G01 X85.745909 Y90.843293 Z-0.125000 F400.000000
G01 X85.593791 Y90.809427 Z-0.125000
G01 X85.458324 Y90.809427 Z-0.125000
G01 X85.339791 Y90.843293 Z-0.125000
G01 X85.254842 Y90.927960 Z-0.125000
G00 Z5.000000

(End cutting path id: path3363)


(Start cutting path id: path3363)
(Change tool to Default tool)

G00 Z5.000000
G00 X88.895509 Y92.062493

G01 Z-0.125000 F100.0(Penetrate)
G03 X87.805554 Y91.882621 Z-0.125000 I0.138315 J-4.230414 F400.000000
G03 X86.796058 Y91.435960 Z-0.125000 I1.314593 J-4.335215
G00 Z5.000000

(End cutting path id: path3363)


(Start cutting path id: path3363)
(Change tool to Default tool)

G00 Z5.000000
G00 X86.135658 Y92.570493

G01 Z-0.125000 F100.0(Penetrate)
G02 X87.144495 Y93.007625 Z-0.125000 I3.469413 J-6.624213 F400.000000
G02 X88.235109 Y93.180093 Z-0.125000 I1.023378 J-2.936884
G00 Z5.000000

(End cutting path id: path3363)


(Start cutting path id: path3363)
(Change tool to Default tool)

G00 Z5.000000
G00 X87.252976 Y94.890360

G01 Z-0.125000 F100.0(Penetrate)
G03 X86.166372 Y94.718655 Z-0.125000 I0.148953 J-4.466670 F400.000000
G03 X85.170458 Y94.263827 Z-0.125000 I1.024310 J-3.560643
G00 Z5.000000

(End cutting path id: path3363)


(Start cutting path id: path3363)
(Change tool to Default tool)

G00 Z5.000000
G00 X84.510058 Y95.398360

G01 Z-0.125000 F100.0(Penetrate)
G02 X85.516764 Y95.832015 Z-0.125000 I3.682144 J-7.162569 F400.000000
G02 X86.609509 Y96.007960 Z-0.125000 I1.032588 J-2.931770
G00 Z5.000000

(End cutting path id: path3363)


(Start cutting path id: path3363)
(Change tool to Default tool)

G00 Z5.000000
G00 X84.933391 Y91.486760

G01 Z-0.125000 F100.0(Penetrate)
G01 X84.899242 Y91.588078 Z-0.125000 F400.000000
G01 X84.933391 Y91.706893 Z-0.125000
G01 X85.001124 Y91.842078 Z-0.125000
G01 X85.119658 Y91.960611 Z-0.125000
G01 X85.254842 Y92.062211 Z-0.125000
G00 Z5.000000

(End cutting path id: path3363)


(Start cutting path id: path3363)
(Change tool to Default tool)

G00 Z5.000000
G00 X85.254842 Y90.927960

G01 Z-0.125000 F100.0(Penetrate)
G01 X84.916458 Y91.486760 Z-0.125000 F400.000000
G00 Z5.000000

(End cutting path id: path3363)


(Start cutting path id: path3363)
(Change tool to Default tool)

G00 Z5.000000
G00 X86.558991 Y88.658893

G01 Z-0.125000 F100.0(Penetrate)
G01 X86.541776 Y88.760493 Z-0.125000 F400.000000
G01 X86.558991 Y88.879027 Z-0.125000
G01 X86.643376 Y88.997560 Z-0.125000
G01 X86.745258 Y89.133027 Z-0.125000
G01 X86.897376 Y89.217693 Z-0.125000
G00 Z5.000000

(End cutting path id: path3363)


(Start cutting path id: path3363)
(Change tool to Default tool)

G00 Z5.000000
G00 X86.897376 Y88.100093

G01 Z-0.125000 F100.0(Penetrate)
G01 X86.541776 Y88.658611 Z-0.125000 F400.000000
G00 Z5.000000

(End cutting path id: path3363)


(Start cutting path id: path3363)
(Change tool to Default tool)

G00 Z5.000000
G00 X87.541407 Y88.100093

G01 Z-0.125000 F100.0(Penetrate)
G01 X87.388724 Y88.015427 Z-0.125000 F400.000000
G01 X87.219391 Y87.981560 Z-0.125000
G01 X87.083924 Y87.981560 Z-0.125000
G01 X86.965391 Y88.015427 Z-0.125000
G01 X86.897658 Y88.100093 Z-0.125000
G00 Z5.000000

(End cutting path id: path3363)


(Start cutting path id: path3363)
(Change tool to Default tool)

G00 Z5.000000
G00 X89.403791 Y86.914760

G01 Z-0.125000 F100.0(Penetrate)
G02 X90.412629 Y87.351892 Z-0.125000 I3.469413 J-6.624213 F400.000000
G02 X91.503242 Y87.524360 Z-0.125000 I1.023378 J-2.936884
G00 Z5.000000

(End cutting path id: path3363)


(Start cutting path id: path3363)
(Change tool to Default tool)

G00 Z5.000000
G00 X90.521109 Y89.217693

G01 Z-0.125000 F100.0(Penetrate)
G03 X89.427012 Y89.069606 Z-0.125000 I-0.126468 J-3.181367 F400.000000
G03 X88.421658 Y88.608093 Z-0.125000 I1.386275 J-4.345632
G00 Z5.000000

(End cutting path id: path3363)


(Start cutting path id: path3363)
(Change tool to Default tool)

G00 Z5.000000
G00 X87.778191 Y89.742909

G01 Z-0.125000 F100.0(Penetrate)
G02 X88.776756 Y90.173842 Z-0.125000 I3.700790 J-7.203106 F400.000000
G02 X89.860709 Y90.352227 Z-0.125000 I1.040321 J-2.939005
G00 Z5.000000

(End cutting path id: path3363)


(Start cutting path id: path3363)
(Change tool to Default tool)

G00 Z5.000000
G00 X88.201525 Y85.831027

G01 Z-0.125000 F100.0(Penetrate)
G01 X88.167376 Y85.932627 Z-0.125000 F400.000000
G01 X88.201525 Y86.051160 Z-0.125000
G01 X88.269258 Y86.169693 Z-0.125000
G01 X88.387791 Y86.288227 Z-0.125000
G01 X88.522976 Y86.389544 Z-0.125000
G00 Z5.000000

(End cutting path id: path3363)


(Start cutting path id: path3363)
(Change tool to Default tool)

G00 Z5.000000
G00 X88.522976 Y85.272227

G01 Z-0.125000 F100.0(Penetrate)
G01 X88.184591 Y85.831027 Z-0.125000 F400.000000
G00 Z5.000000

(End cutting path id: path3363)


(Start cutting path id: path3363)
(Change tool to Default tool)

G00 Z5.000000
G00 X89.183376 Y85.272227

G01 Z-0.125000 F100.0(Penetrate)
G01 X89.014042 Y85.187560 Z-0.125000 F400.000000
G01 X88.861925 Y85.153693 Z-0.125000
G01 X88.709242 Y85.153693 Z-0.125000
G01 X88.607925 Y85.187560 Z-0.125000
G01 X88.522976 Y85.272227 Z-0.125000
G00 Z5.000000

(End cutting path id: path3363)


(Start cutting path id: path3363)
(Change tool to Default tool)

G00 Z5.000000
G00 X92.146709 Y86.389827

G01 Z-0.125000 F100.0(Penetrate)
G03 X91.061341 Y86.236961 Z-0.125000 I-0.108320 J-3.160477 F400.000000
G03 X90.064191 Y85.780509 Z-0.125000 I1.474097 J-4.537658
G00 Z5.000000

(End cutting path id: path3363)


(Start cutting path id: path3361)
(Change tool to Default tool)

G00 Z5.000000
G00 X52.370591 Y148.467709

G01 Z-0.125000 F100.0(Penetrate)
G01 X49.390324 Y146.740227 Z-0.125000 F400.000000
G00 Z5.000000

(End cutting path id: path3361)


(Start cutting path id: path3361)
(Change tool to Default tool)

G00 Z5.000000
G00 X47.205924 Y145.216227

G01 Z-0.125000 F100.0(Penetrate)
G01 X46.968858 Y144.911145 Z-0.125000 F400.000000
G01 X46.901124 Y144.792894 Z-0.125000
G00 Z5.000000

(End cutting path id: path3361)


(Start cutting path id: path3361)
(Change tool to Default tool)

G00 Z5.000000
G00 X48.052591 Y145.961294

G01 Z-0.125000 F100.0(Penetrate)
G01 X47.917124 Y145.859411 Z-0.125000 F400.000000
G01 X47.629258 Y145.639842 Z-0.125000
G00 Z5.000000

(End cutting path id: path3361)


(Start cutting path id: path3361)
(Change tool to Default tool)

G00 Z5.000000
G00 X46.122191 Y143.438227

G01 Z-0.125000 F100.0(Penetrate)
G01 X38.400591 Y130.077827 Z-0.125000 F400.000000
G00 Z5.000000

(End cutting path id: path3361)


(Start cutting path id: path3361)
(Change tool to Default tool)

G00 Z5.000000
G00 X37.469258 Y128.164360

G01 Z-0.125000 F100.0(Penetrate)
G01 X37.469258 Y127.944227 Z-0.125000 F400.000000
G01 X37.486191 Y127.842909 Z-0.125000
G00 Z5.000000

(End cutting path id: path3361)


(Start cutting path id: path3361)
(Change tool to Default tool)

G00 Z5.000000
G00 X37.689391 Y128.824760

G01 Z-0.125000 F100.0(Penetrate)
G01 X37.621658 Y128.723160 Z-0.125000 F400.000000
G01 X37.553924 Y128.536893 Z-0.125000
G00 Z5.000000

(End cutting path id: path3361)


(Start cutting path id: path3361)
(Change tool to Default tool)

G00 Z5.000000
G00 X54.216324 Y149.449560

G01 Z-0.125000 F100.0(Penetrate)
G01 X53.894591 Y149.331027 Z-0.125000 F400.000000
G01 X53.725258 Y149.229427 Z-0.125000
G00 Z5.000000

(End cutting path id: path3361)


(Start cutting path id: path3361)
(Change tool to Default tool)

G00 Z5.000000
G00 X55.316991 Y149.669411

G01 Z-0.125000 F100.0(Penetrate)
G01 X55.198458 Y149.669411 Z-0.125000 F400.000000
G01 X54.775124 Y149.601960 Z-0.125000
G00 Z5.000000

(End cutting path id: path3361)


(Start cutting path id: path3361)
(Change tool to Default tool)

G00 Z5.000000
G00 X69.032991 Y149.669411

G01 Z-0.125000 F100.0(Penetrate)
G01 X56.857924 Y149.669411 Z-0.125000 F400.000000
G00 Z5.000000

(End cutting path id: path3361)


(Start cutting path id: path3361)
(Change tool to Default tool)

G00 Z5.000000
G00 X70.794058 Y149.635545

G01 Z-0.125000 F100.0(Penetrate)
G01 X70.624442 Y149.669129 Z-0.125000 F400.000000
G01 X70.472324 Y149.669129 Z-0.125000
G00 Z5.000000

(End cutting path id: path3361)


(Start cutting path id: path3361)
(Change tool to Default tool)

G00 Z5.000000
G00 X71.420591 Y149.364894

G01 Z-0.125000 F100.0(Penetrate)
G01 X71.387007 Y149.398478 Z-0.125000 F400.000000
G01 X71.166591 Y149.533662 Z-0.125000
G01 X71.149658 Y149.533662 Z-0.125000
G00 Z5.000000

(End cutting path id: path3361)


(Start cutting path id: path3361)
(Change tool to Default tool)

G00 Z5.000000
G00 X64.223924 Y115.752509

G01 Z-0.125000 F100.0(Penetrate)
G01 X63.952991 Y115.464360 Z-0.125000 F400.000000
G01 X63.885258 Y115.345827 Z-0.125000
G00 Z5.000000

(End cutting path id: path3361)


(Start cutting path id: path3361)
(Change tool to Default tool)

G00 Z5.000000
G00 X65.070591 Y116.463427

G01 Z-0.125000 F100.0(Penetrate)
G01 X64.935124 Y116.378478 Z-0.125000 F400.000000
G01 X64.647258 Y116.158627 Z-0.125000
G00 Z5.000000

(End cutting path id: path3361)


(Start cutting path id: path3361)
(Change tool to Default tool)

G00 Z5.000000
G00 X63.089391 Y114.008093

G01 Z-0.125000 F100.0(Penetrate)
G01 X52.302858 Y95.347560 Z-0.125000 F400.000000
G00 Z5.000000

(End cutting path id: path3361)


(Start cutting path id: path3361)
(Change tool to Default tool)

G00 Z5.000000
G00 X52.336724 Y93.146227

G01 Z-0.125000 F100.0(Penetrate)
G01 X79.176058 Y46.647293 Z-0.125000 F400.000000
G00 Z5.000000

(End cutting path id: path3361)


(Start cutting path id: path3361)
(Change tool to Default tool)

G00 Z5.000000
G00 X51.439258 Y93.010478

G01 Z-0.125000 F100.0(Penetrate)
G01 X51.473124 Y92.925811 Z-0.125000 F400.000000
G00 Z5.000000

(End cutting path id: path3361)


(Start cutting path id: path3361)
(Change tool to Default tool)

G00 Z5.000000
G00 X51.591658 Y94.060627

G01 Z-0.125000 F100.0(Penetrate)
G01 X51.523924 Y93.925160 Z-0.125000 F400.000000
G01 X51.473124 Y93.721960 Z-0.125000
G00 Z5.000000

(End cutting path id: path3361)


(Start cutting path id: path3361)
(Change tool to Default tool)

G00 Z5.000000
G00 X63.631258 Y115.345827

G01 Z-0.125000 F100.0(Penetrate)
G01 X63.631258 Y115.362760 Z-0.125000 F400.000000
G00 Z5.000000

(End cutting path id: path3361)


(Start cutting path id: path3361)
(Change tool to Default tool)

G00 Z5.000000
G00 X63.648191 Y115.311960

G01 Z-0.125000 F100.0(Penetrate)
G01 X63.665124 Y115.329176 Z-0.125000 F400.000000
G00 Z5.000000

(End cutting path id: path3361)


(Start cutting path id: path3361)
(Change tool to Default tool)

G00 Z5.000000
G00 X51.591658 Y94.450093

G01 Z-0.125000 F100.0(Penetrate)
G01 X51.591658 Y94.416227 Z-0.125000 F400.000000
G00 Z5.000000

(End cutting path id: path3361)


(Start cutting path id: path3361)
(Change tool to Default tool)

G00 Z5.000000
G00 X51.574724 Y94.483960

G01 Z-0.125000 F100.0(Penetrate)
G01 X51.591658 Y94.500893 Z-0.125000 F400.000000
G00 Z5.000000

(End cutting path id: path3361)


(Start cutting path id: path3361)
(Change tool to Default tool)

G00 Z5.000000
G00 X91.215658 Y67.543309

G01 Z-0.125000 F100.0(Penetrate)
G01 X64.359109 Y114.025027 Z-0.125000 F400.000000
G00 Z5.000000

(End cutting path id: path3361)


(Start cutting path id: path3361)
(Change tool to Default tool)

G00 Z5.000000
G00 X64.511791 Y116.463427

G01 Z-0.125000 F100.0(Penetrate)
G01 X64.765791 Y116.666627 Z-0.125000 F400.000000
G01 X64.952058 Y116.785160 Z-0.125000
G00 Z5.000000

(End cutting path id: path3361)


(Start cutting path id: path3361)
(Change tool to Default tool)

G00 Z5.000000
G00 X63.766724 Y115.616760

G01 Z-0.125000 F100.0(Penetrate)
G01 X63.834458 Y115.718078 Z-0.125000 F400.000000
G01 X64.088458 Y116.056744 Z-0.125000
G00 Z5.000000

(End cutting path id: path3361)


(Start cutting path id: path3361)
(Change tool to Default tool)

G00 Z5.000000
G00 X52.235124 Y95.550760

G01 Z-0.125000 F100.0(Penetrate)
G01 X63.004724 Y114.211293 Z-0.125000 F400.000000
G00 Z5.000000

(End cutting path id: path3361)


(Start cutting path id: path3361)
(Change tool to Default tool)

G00 Z5.000000
G00 X62.987791 Y116.480360

G01 Z-0.125000 F100.0(Penetrate)
G01 X47.375258 Y143.455160 Z-0.125000 F400.000000
G00 Z5.000000

(End cutting path id: path3361)


(Start cutting path id: path3361)
(Change tool to Default tool)

G00 Z5.000000
G00 X56.248324 Y148.552094

G01 Z-0.125000 F100.0(Penetrate)
G01 X71.826991 Y121.543709 Z-0.125000 F400.000000
G00 Z5.000000

(End cutting path id: path3361)


(Start cutting path id: path3361)
(Change tool to Default tool)

G00 Z5.000000
G00 X38.248191 Y127.791827

G01 Z-0.125000 F100.0(Penetrate)
G01 X51.100591 Y95.652360 Z-0.125000 F400.000000
G00 Z5.000000

(End cutting path id: path3361)


(Start cutting path id: path3361)
(Change tool to Default tool)

G00 Z5.000000
G00 X51.354591 Y94.060627

G01 Z-0.125000 F100.0(Penetrate)
G01 X51.405391 Y94.213027 Z-0.125000 F400.000000
G00 Z5.000000

(End cutting path id: path3361)


(Start cutting path id: path3361)
(Change tool to Default tool)

G00 Z5.000000
G00 X51.286858 Y93.366642

G01 Z-0.125000 F100.0(Penetrate)
G01 X51.269924 Y93.434093 Z-0.125000 F400.000000
G00 Z5.000000

(End cutting path id: path3361)


(Start cutting path id: path3361)
(Change tool to Default tool)

G00 Z5.000000
G00 X66.272858 Y117.564376

G01 Z-0.125000 F100.0(Penetrate)
G01 X69.236191 Y119.274642 Z-0.125000 F400.000000
G00 Z5.000000

(End cutting path id: path3361)


(Start cutting path id: path3361)
(Change tool to Default tool)

G00 Z5.000000
G00 X48.950058 Y145.012745

G01 Z-0.125000 F100.0(Penetrate)
G01 X64.528724 Y118.004642 Z-0.125000 F400.000000
G00 Z5.000000

(End cutting path id: path3361)


(Start cutting path id: path3361)
(Change tool to Default tool)

G00 Z5.000000
G00 X69.693391 Y121.035427

G01 Z-0.125000 F100.0(Penetrate)
G01 X54.097509 Y148.010227 Z-0.125000 F400.000000
G00 Z5.000000

(End cutting path id: path3361)


(Start cutting path id: path3361)
(Change tool to Default tool)

G00 Z5.000000
G00 X71.674591 Y120.409176

G01 Z-0.125000 F100.0(Penetrate)
G01 X72.047124 Y120.459976 Z-0.125000 F400.000000
G01 X72.199242 Y120.459976 Z-0.125000
G00 Z5.000000

(End cutting path id: path3361)


(Start cutting path id: path3361)
(Change tool to Default tool)

G00 Z5.000000
G00 X70.607791 Y120.053293

G01 Z-0.125000 F100.0(Penetrate)
G01 X70.760191 Y120.121027 Z-0.125000 F400.000000
G01 X71.098858 Y120.256211 Z-0.125000
G00 Z5.000000

(End cutting path id: path3361)


(Start cutting path id: path3361)
(Change tool to Default tool)

G00 Z5.000000
G00 X70.489258 Y119.663827

G01 Z-0.125000 F100.0(Penetrate)
G01 X70.489258 Y119.681042 Z-0.125000 F400.000000
G00 Z5.000000

(End cutting path id: path3361)


(Start cutting path id: path3361)
(Change tool to Default tool)

G00 Z5.000000
G00 X70.523124 Y119.629960

G01 Z-0.125000 F100.0(Penetrate)
G01 X70.540340 Y119.646893 Z-0.125000 F400.000000
G00 Z5.000000

(End cutting path id: path3361)


(Start cutting path id: path3359)
(Change tool to Default tool)

G00 Z5.000000
G00 X76.449791 Y60.939026

G01 Z-0.125000 F100.0(Penetrate)
G01 X76.686858 Y60.566493 Z-0.125000 F400.000000
G01 X76.957791 Y60.261693 Z-0.125000
G01 X77.262591 Y60.024626 Z-0.125000
G00 Z5.000000

(End cutting path id: path3359)


(Start cutting path id: path3359)
(Change tool to Default tool)

G00 Z5.000000
G00 X58.483524 Y92.062493

G01 Z-0.125000 F100.0(Penetrate)
G01 X76.449791 Y60.922093 Z-0.125000 F400.000000
G00 Z5.000000

(End cutting path id: path3359)


(Start cutting path id: path3357)
(Change tool to Default tool)

G00 Z5.000000
G00 X76.009242 Y60.939026

G01 Z-0.125000 F100.0(Penetrate)
G01 X75.196724 Y60.939026 Z-0.125000 F400.000000
G00 Z5.000000

(End cutting path id: path3357)


(Start cutting path id: path3357)
(Change tool to Default tool)

G00 Z5.000000
G00 X58.060191 Y92.062493

G01 Z-0.125000 F100.0(Penetrate)
G01 X57.230458 Y92.062493 Z-0.125000 F400.000000
G00 Z5.000000

(End cutting path id: path3357)


(Start cutting path id: path3357)
(Change tool to Default tool)

G00 Z5.000000
G00 X62.953924 Y106.201827

G01 Z-0.125000 F100.0(Penetrate)
G01 X62.141124 Y106.201827 Z-0.125000 F400.000000
G00 Z5.000000

(End cutting path id: path3357)


(Start cutting path id: path3357)
(Change tool to Default tool)

G00 Z5.000000
G00 X58.060191 Y97.718227

G01 Z-0.125000 F100.0(Penetrate)
G01 X57.230458 Y97.718227 Z-0.125000 F400.000000
G00 Z5.000000

(End cutting path id: path3357)


(Start cutting path id: path3357)
(Change tool to Default tool)

G00 Z5.000000
G00 X65.968058 Y115.515160

G01 Z-0.125000 F100.0(Penetrate)
G01 X92.807109 Y69.016226 Z-0.125000 F400.000000
G00 Z5.000000

(End cutting path id: path3357)


(Start cutting path id: path3357)
(Change tool to Default tool)

G00 Z5.000000
G00 X69.371658 Y119.037293

G01 Z-0.125000 F100.0(Penetrate)
G01 X66.391391 Y117.310376 Z-0.125000 F400.000000
G00 Z5.000000

(End cutting path id: path3357)


(Start cutting path id: path3355)
(Change tool to Default tool)

G00 Z5.000000
G00 X56.840991 Y92.062493

G01 Z-0.125000 F100.0(Penetrate)
G01 X74.807258 Y60.922093 Z-0.125000 F400.000000
G00 Z5.000000

(End cutting path id: path3355)


(Start cutting path id: path3355)
(Change tool to Default tool)

G00 Z5.000000
G00 X74.807258 Y60.939026

G01 Z-0.125000 F100.0(Penetrate)
G03 X76.449926 Y60.003856 Z-0.125000 I1.637623 J0.966263 F400.000000
G03 X78.075391 Y60.939026 Z-0.125000 I-0.005011 J1.888946
G00 Z5.000000

(End cutting path id: path3355)


(Start cutting path id: path3355)
(Change tool to Default tool)

G00 Z5.000000
G00 X58.483524 Y97.718227

G01 Z-0.125000 F100.0(Penetrate)
G03 X57.703351 Y94.887264 Z-0.125000 I4.831082 J-2.854362 F400.000000
G03 X58.483524 Y92.062493 Z-0.125000 I5.422040 J-0.022610
G00 Z5.000000

(End cutting path id: path3355)


(Start cutting path id: path3355)
(Change tool to Default tool)

G00 Z5.000000
G00 X63.377258 Y106.201827

G01 Z-0.125000 F100.0(Penetrate)
G01 X58.466591 Y97.701293 Z-0.125000 F400.000000
G00 Z5.000000

(End cutting path id: path3355)


(Start cutting path id: path3355)
(Change tool to Default tool)

G00 Z5.000000
G00 X64.190058 Y107.116227

G01 Z-0.125000 F100.0(Penetrate)
G01 X63.902191 Y106.879160 Z-0.125000 F400.000000
G01 X63.631258 Y106.574360 Z-0.125000
G01 X63.377258 Y106.201827 Z-0.125000
G00 Z5.000000

(End cutting path id: path3355)


(Start cutting path id: path3353)
(Change tool to Default tool)

G00 Z5.000000
G00 X101.189391 Y70.015293

G01 Z-0.125000 F100.0(Penetrate)
G01 X101.155242 Y70.353960 Z-0.125000 F400.000000
G01 X101.036709 Y70.794226 Z-0.125000
G01 X100.952325 Y71.065160 Z-0.125000
G00 Z5.000000

(End cutting path id: path3353)


(Start cutting path id: path3353)
(Change tool to Default tool)

G00 Z5.000000
G00 X100.952325 Y67.830893

G01 Z-0.125000 F100.0(Penetrate)
G01 X101.036709 Y68.067960 Z-0.125000 F400.000000
G01 X101.155242 Y68.508509 Z-0.125000
G01 X101.206607 Y68.880760 Z-0.125000
G00 Z5.000000

(End cutting path id: path3353)


(Start cutting path id: path3353)
(Change tool to Default tool)

G00 Z5.000000
G00 X122.034042 Y68.847175

G01 Z-0.125000 F100.0(Penetrate)
G01 X121.983242 Y68.508509 Z-0.125000 F400.000000
G01 X121.881925 Y68.067960 Z-0.125000
G01 X121.780042 Y67.796744 Z-0.125000
G00 Z5.000000

(End cutting path id: path3353)


(Start cutting path id: path3353)
(Change tool to Default tool)

G00 Z5.000000
G00 X121.797258 Y71.031293

G01 Z-0.125000 F100.0(Penetrate)
G01 X121.882207 Y70.794226 Z-0.125000 F400.000000
G01 X121.983525 Y70.353960 Z-0.125000
G01 X122.034325 Y69.981426 Z-0.125000
G00 Z5.000000

(End cutting path id: path3353)


(Start cutting path id: path3351)
(Change tool to Default tool)

G00 Z5.000000
G00 X61.751658 Y106.201827

G01 Z-0.125000 F100.0(Penetrate)
G01 X56.824058 Y97.701293 Z-0.125000 F400.000000
G00 Z5.000000

(End cutting path id: path3351)


(Start cutting path id: path3351)
(Change tool to Default tool)

G00 Z5.000000
G00 X56.840991 Y97.718227

G01 Z-0.125000 F100.0(Penetrate)
G03 X56.129417 Y94.889166 Z-0.125000 I5.370956 J-2.854939 F400.000000
G03 X56.840991 Y92.062493 Z-0.125000 I5.870932 J-0.024978
G00 Z5.000000

(End cutting path id: path3351)


(Start cutting path id: path3351)
(Change tool to Default tool)

G00 Z5.000000
G00 X78.075391 Y60.939026

G01 Z-0.125000 F100.0(Penetrate)
G01 X82.969124 Y69.422909 Z-0.125000 F400.000000
G00 Z5.000000

(End cutting path id: path3351)


(Start cutting path id: path3351)
(Change tool to Default tool)

G00 Z5.000000
G00 X82.968842 Y69.422909

G01 Z-0.125000 F100.0(Penetrate)
G03 X83.735416 Y72.251669 Z-0.125000 I-4.879972 J2.840686 F400.000000
G03 X82.968842 Y75.078360 Z-0.125000 I-5.551668 J0.011725
G00 Z5.000000

(End cutting path id: path3351)


(Start cutting path id: path3351)
(Change tool to Default tool)

G00 Z5.000000
G00 X82.968842 Y75.078360

G01 Z-0.125000 F100.0(Penetrate)
G01 X65.002575 Y106.201827 Z-0.125000 F400.000000
G00 Z5.000000

(End cutting path id: path3351)


(Start cutting path id: path3351)
(Change tool to Default tool)

G00 Z5.000000
G00 X65.019791 Y106.201827

G01 Z-0.125000 F100.0(Penetrate)
G03 X63.386199 Y107.126809 Z-0.125000 I-1.648889 J-1.007052 F400.000000
G03 X61.751658 Y106.201827 Z-0.125000 I-0.014888 J-1.880386
G00 Z5.000000

(End cutting path id: path3351)


(Start cutting path id: path3349)
(Change tool to Default tool)

G00 Z5.000000
G00 X94.991509 Y65.223160

G01 Z-0.125000 F100.0(Penetrate)
G01 X93.941925 Y67.018093 Z-0.125000 F400.000000
G00 Z5.000000

(End cutting path id: path3349)


(Start cutting path id: path3349)
(Change tool to Default tool)

G00 Z5.000000
G00 X100.190042 Y68.220078

G01 Z-0.125000 F100.0(Penetrate)
G01 X99.140458 Y70.015293 Z-0.125000 F400.000000
G00 Z5.000000

(End cutting path id: path3349)


(Start cutting path id: path3349)
(Change tool to Default tool)

G00 Z5.000000
G00 X92.959791 Y65.257026

G01 Z-0.125000 F100.0(Penetrate)
G01 X92.671925 Y65.460509 Z-0.125000 F400.000000
G01 X92.349909 Y65.765026 Z-0.125000
G01 X92.163642 Y65.985160 Z-0.125000
G00 Z5.000000

(End cutting path id: path3349)


(Start cutting path id: path3349)
(Change tool to Default tool)

G00 Z5.000000
G00 X94.974858 Y64.359560

G01 Z-0.125000 F100.0(Penetrate)
G01 X94.720858 Y64.410360 Z-0.125000 F400.000000
G01 X94.280309 Y64.545826 Z-0.125000
G01 X93.924709 Y64.681011 Z-0.125000
G00 Z5.000000

(End cutting path id: path3349)


(Start cutting path id: path3349)
(Change tool to Default tool)

G00 Z5.000000
G00 X80.902976 Y44.378226

